data/luts/film_emulation/FilmConvert/FilmConvert_Nitrate_LuxuryRE.cube
# FilmConvert Nitrate - Luxury Real Estate Edition
# Professional Color Grading LUT for Premium Properties
# Optimized for Architectural and Lifestyle Imagery
# Format: 3D Cube LUT
TITLE "FilmConvert_Nitrate_LuxuryRE"
# LUT Configuration
LUT_3D_SIZE 9
DOMAIN_MIN 0.0 0.0 0.0
DOMAIN_MAX 1.0 1.0 1.0
0.027706 0.043456 0.056056
0.160393 0.038708 0.048970
0.289063 0.033960 0.042093
0.416584 0.029211 0.035430
0.543906 0.024463 0.028985
0.671543 0.019715 0.022762
0.812056 0.021064 0.013107
0.943514 0.017373 0.006707
1.000000 0.013694 0.000535
0.020538 0.169417 0.045012
0.154549 0.165468 0.038121
0.284475 0.161519 0.031446
0.413217 0.157570 0.024990
0.553855 0.159681 0.015122
0.684786 0.156789 0.008483
0.816409 0.153909 0.002069
0.949072 0.151040 0.000000
1.000000 0.148184 0.000000
0.013424 0.293102 0.033923
0.148753 0.289921 0.027234
0.291968 0.292760 0.017153
0.424038 0.290636 0.010276
0.555885 0.288524 0.003621
0.688036 0.286423 0.000000
0.820866 0.284334 0.000000
0.954727 0.282256 0.000000
1.000000 0.280191 0.000000
0.018327 0.423326 0.019202
0.157080 0.421955 0.012087
0.291632 0.420596 0.005190
0.424955 0.419248 0.000000
0.558032 0.417912 0.000000
0.691396 0.416588 0.000000
0.825426 0.415276 0.000000
0.960479 0.413975 0.000000
1.000000 0.412093 0.000000
0.015490 0.551145 0.006777
0.155593 0.550543 0.000000
0.291427 0.549952 0.000000
0.425997 0.549373 0.000000
0.560297 0.548805 0.000000
0.694868 0.548250 0.000000
0.827251 0.546447 0.000000
0.955783 0.543265 0.000000
1.000000 0.540094 0.000000
0.012798 0.681014 0.000000
0.154245 0.681175 0.000000
0.291353 0.681347 0.000000
0.427163 0.681531 0.000000
0.561076 0.679917 0.000000
0.691492 0.675994 0.000000
0.820211 0.672083 0.000000
0.947599 0.668183 0.000000
1.000000 0.664295 0.000000
0.010251 0.813300 0.000000
0.153034 0.814221 0.000000
0.290890 0.812904 0.000000
0.424947 0.808243 0.000000
0.556322 0.803594 0.000000
0.685594 0.798957 0.000000
0.813166 0.794332 0.000000
0.939404 0.789718 0.000000
1.000000 0.785116 0.000000
0.008286 0.945779 0.000000
0.151834 0.940382 0.000000
0.288464 0.934996 0.000000
0.421358 0.929622 0.000000
0.551577 0.924260 0.000000
0.679698 0.918909 0.000000
0.806117 0.913571 0.000000
0.931197 0.908244 0.000000
1.000000 0.897862 0.000000
0.008323 1.000000 0.000000
0.150623 1.000000 0.000000
0.286062 1.000000 0.000000
0.417784 1.000000 0.000000
0.546842 1.000000 0.000000
0.673804 1.000000 0.000000
0.788855 1.000000 0.000000
0.914839 1.000000 0.000000
0.947251 0.928432 0.134451
0.024393 0.041646 0.189466
0.157474 0.036898 0.183107
0.286527 0.032149 0.176957
0.414427 0.027401 0.171021
0.542124 0.022652 0.165303
0.681034 0.023354 0.156537
0.811825 0.019655 0.150636
0.943664 0.015969 0.144959
1.000000 0.012294 0.139510
0.017506 0.167911 0.179766
0.151913 0.163962 0.173601
0.282224 0.160013 0.167651
0.411347 0.156065 0.161921
0.553165 0.158577 0.152537
0.684482 0.155689 0.146620
0.816489 0.152814 0.140928
0.949536 0.149950 0.135464
1.000000 0.147097 0.130234
0.010679 0.291889 0.170017
0.146407 0.288708 0.164052
0.290813 0.291949 0.154455
0.423274 0.289829 0.148298
0.555509 0.287721 0.142363
0.688047 0.285625 0.136654
0.821263 0.283540 0.131176
0.955511 0.281467 0.125931
1.000000 0.279406 0.120926
0.016680 0.422802 0.156389
0.155842 0.421435 0.149993
0.290793 0.420080 0.143816
0.424510 0.418737 0.137862
0.557977 0.417406 0.132135
0.691731 0.416086 0.126640
0.826149 0.414779 0.121380
0.961590 0.413482 0.116360
1.000000 0.411163 0.114938
0.014162 0.550914 0.145287
0.154677 0.550316 0.139088
0.290911 0.549730 0.133113
0.425877 0.549155 0.127367
0.560570 0.548592 0.121853
0.695532 0.548041 0.116576
0.825748 0.545232 0.115192
0.953903 0.542054 0.114215
1.000000 0.538888 0.113001
0.011795 0.681074 0.134109
0.153656 0.681239 0.128112
0.291168 0.681416 0.122344
0.427375 0.681604 0.116811
0.560022 0.678420 0.115427
0.690060 0.674502 0.114704
0.818402 0.670595 0.113743
0.945414 0.666700 0.112546
1.000000 0.662816 0.111118
0.009580 0.813650 0.122854
0.152780 0.814575 0.117065
0.290293 0.811126 0.115643
0.423969 0.806469 0.115176
0.554964 0.801825 0.114466
0.683860 0.797192 0.113518
0.811058 0.792571 0.112337
0.936921 0.787962 0.110926
1.000000 0.783364 0.109290
0.008172 0.943720 0.115841
0.151322 0.938327 0.115629
0.287566 0.932946 0.115172
0.420079 0.927576 0.114473
0.549922 0.922218 0.113538
0.677669 0.916872 0.112371
0.803716 0.911538 0.110975
0.928424 0.906216 0.109355
1.000000 0.896234 0.110318
0.007910 1.000000 0.115859
0.149814 1.000000 0.115410
0.284869 1.000000 0.114721
0.416213 1.000000 0.113798
0.544896 1.000000 0.112643
0.671486 1.000000 0.111261
0.786959 1.000000 0.112481
0.888858 0.985586 0.155216
0.912278 0.896307 0.293833
0.021186 0.039836 0.318085
0.154662 0.035087 0.312422
0.284100 0.030339 0.306967
0.412378 0.025590 0.301725
0.540452 0.020842 0.296701
0.680535 0.021942 0.288390
0.811709 0.018248 0.283180
0.943932 0.014566 0.278193
1.000000 0.010896 0.273434
0.014582 0.166405 0.309666
0.149388 0.162457 0.304195
0.280085 0.158508 0.298938
0.421209 0.160369 0.290415
0.552592 0.157474 0.284967
0.684295 0.154591 0.279740
0.816687 0.151720 0.274736
0.950119 0.148861 0.269962
1.000000 0.146013 0.265420
0.008046 0.290676 0.301193
0.155717 0.293267 0.292457
0.289774 0.291139 0.286771
0.422628 0.289024 0.281303
0.555253 0.286920 0.276057
0.688179 0.284829 0.271035
0.821783 0.282748 0.266244
0.956417 0.280680 0.261687
1.000000 0.278623 0.257368
0.015150 0.422279 0.288593
0.154724 0.420917 0.282885
0.290074 0.419567 0.277394
0.424185 0.418228 0.272127
0.558044 0.416902 0.267086
0.692188 0.415586 0.262277
0.826996 0.414283 0.257703
0.960696 0.412673 0.254115
1.000000 0.410234 0.252436
0.012953 0.550685 0.278750
0.153882 0.550091 0.273236
0.290518 0.549509 0.267947
0.425880 0.548939 0.262885
0.560967 0.548381 0.258057
0.695026 0.547205 0.254231
0.824126 0.544019 0.252809
0.951903 0.540846 0.251145
1.000000 0.537684 0.249245
0.010915 0.681135 0.268825
0.153192 0.681305 0.263512
0.291107 0.681486 0.258429
0.427087 0.680851 0.254329
0.558849 0.676925 0.253163
0.688510 0.673011 0.251753
0.816476 0.669108 0.250104
0.943113 0.665218 0.248219
1.000000 0.661339 0.246103
0.009035 0.814001 0.258819
0.152536 0.814012 0.254408
0.289577 0.809349 0.253499
0.422872 0.804697 0.252343
0.553490 0.800057 0.250945
0.682010 0.795429 0.249308
0.808834 0.790812 0.247437
0.934325 0.786208 0.245336
1.000000 0.781615 0.243010
0.007940 0.941662 0.253816
0.150692 0.936274 0.252915
0.286552 0.930897 0.251767
0.418686 0.925532 0.250379
0.548153 0.920179 0.248753
0.675526 0.914837 0.246895
0.801202 0.909507 0.244808
0.914913 0.898876 0.245685
1.000000 0.894607 0.242531
0.007382 1.000000 0.252572
0.148890 1.000000 0.251432
0.283562 1.000000 0.250052
0.414529 1.000000 0.248436
0.542839 1.000000 0.246589
0.658355 1.000000 0.247726
0.784950 1.000000 0.244806
0.862565 0.949632 0.314949
0.879744 0.866541 0.425862
0.018085 0.038025 0.444814
0.151959 0.033277 0.439831
0.281781 0.028528 0.435056
0.410440 0.023780 0.430494
0.538892 0.019032 0.426149
0.680152 0.020532 0.418275
0.811710 0.016843 0.413742
0.944317 0.013165 0.409430
1.000000 0.009500 0.405346
0.011768 0.164900 0.437646
0.146973 0.160951 0.432853
0.278057 0.157002 0.428275
0.420364 0.159264 0.420188
0.552137 0.156374 0.415415
0.684226 0.153495 0.410862
0.817005 0.150629 0.406533
0.950823 0.147774 0.402432
1.000000 0.144930 0.398564
0.005525 0.289463 0.430418
0.154397 0.292454 0.422118
0.288854 0.290332 0.417107
0.422101 0.288221 0.412312
0.555116 0.286122 0.407738
0.688432 0.284034 0.403390
0.822424 0.281958 0.399271
0.957447 0.279894 0.395386
1.000000 0.277842 0.391738
0.013738 0.421759 0.418815
0.153724 0.420401 0.413779
0.289475 0.419055 0.408961
0.423982 0.417721 0.404365
0.558234 0.416399 0.399996
0.692769 0.415088 0.395857
0.827967 0.413789 0.391954
0.958884 0.411742 0.389255
1.000000 0.409307 0.386904
0.011866 0.550457 0.410201
0.153209 0.549868 0.405358
0.290248 0.549290 0.400739
0.426007 0.548725 0.396348
0.561490 0.548171 0.392188
0.693661 0.545989 0.389491
0.822385 0.542808 0.387396
0.949786 0.539639 0.385059
1.000000 0.536482 0.382486
0.010159 0.681199 0.401501
0.152852 0.681373 0.396856
0.291172 0.681559 0.392441
0.426174 0.679352 0.389708
0.557557 0.675431 0.387868
0.686842 0.671521 0.385785
0.814433 0.667623 0.383461
0.940696 0.663737 0.380901
1.000000 0.659863 0.378110
0.008617 0.814354 0.392713
0.152088 0.812233 0.389907
0.288743 0.807574 0.388323
0.421658 0.802927 0.386492
0.551899 0.798291 0.384418
0.680046 0.793667 0.382105
0.806497 0.789055 0.379558
0.931616 0.784455 0.376781
1.000000 0.779866 0.373778
0.007590 0.939606 0.388759
0.149946 0.934222 0.387181
0.285421 0.928850 0.385357
0.417178 0.923490 0.383292
0.546271 0.918141 0.380989
0.673272 0.912804 0.378454
0.798577 0.907478 0.375689
0.912711 0.897248 0.375649
1.000000 0.883585 0.381101
0.006738 1.000000 0.386279
0.147852 1.000000 0.384461
0.282142 1.000000 0.382403
0.412734 1.000000 0.380108
0.540672 1.000000 0.377582
0.656611 1.000000 0.377802
0.778749 1.000000 0.381021
0.838642 0.916037 0.449558
0.849679 0.839135 0.533630
0.015092 0.036215 0.570618
0.149364 0.031466 0.566306
0.279573 0.026718 0.562201
0.408613 0.021970 0.558309
0.548642 0.022821 0.551274
0.679885 0.019124 0.547189
0.811828 0.015439 0.543322
0.944821 0.011766 0.539677
1.000000 0.008105 0.536258
0.009064 0.163394 0.564682
0.144669 0.159446 0.560559
0.287264 0.161058 0.553312
0.419637 0.158161 0.548990
0.551799 0.155275 0.544882
0.684277 0.152401 0.540994
0.817442 0.149539 0.537330
0.951648 0.146688 0.533894
1.000000 0.143850 0.530689
0.014162 0.293773 0.555367
0.153196 0.291644 0.550808
0.288052 0.289525 0.546460
0.421693 0.287419 0.542330
0.555101 0.285324 0.538420
0.688806 0.283241 0.534735
0.823188 0.281170 0.531279
0.958601 0.279111 0.528056
1.000000 0.277088 0.525070
0.012445 0.421240 0.548056
0.152844 0.419886 0.543683
0.288997 0.418545 0.539527
0.423901 0.417216 0.535594
0.558547 0.415898 0.531886
0.693474 0.414591 0.528410
0.828798 0.413254 0.525185
0.956953 0.410812 0.522414
1.000000 0.408382 0.519399
0.010900 0.550231 0.540652
0.152658 0.549646 0.536471
0.290101 0.549073 0.532513
0.426260 0.548512 0.528782
0.562138 0.547963 0.525283
0.692177 0.544775 0.522768
0.820525 0.541598 0.520008
0.947551 0.538434 0.517006
1.000000 0.535281 0.513766
0.009526 0.681264 0.533157
0.152637 0.681442 0.529172
0.291363 0.681633 0.525417
0.425142 0.677856 0.523104
0.556148 0.673939 0.520598
0.685057 0.670034 0.517848
0.812274 0.666140 0.514857
0.938165 0.662259 0.511631
1.000000 0.658389 0.508172
0.008325 0.814709 0.525569
0.151522 0.810455 0.523422
0.287792 0.805801 0.521171
0.420327 0.801158 0.518672
0.550193 0.796527 0.515930
0.677967 0.791908 0.512950
0.804047 0.787300 0.509734
0.928795 0.782704 0.506288
1.000000 0.778120 0.502615
0.007123 0.937552 0.521725
0.149083 0.932173 0.519478
0.284176 0.926805 0.516986
0.415556 0.921449 0.514251
0.544276 0.916105 0.511279
0.670906 0.910772 0.508073
0.795841 0.905451 0.504638
0.910397 0.895620 0.503691
0.983757 0.858642 0.517792
0.005979 1.000000 0.518023
0.146701 1.000000 0.515535
0.280611 1.000000 0.512806
0.410827 1.000000 0.509841
0.538394 1.000000 0.506643
0.654755 1.000000 0.505954
0.763531 0.971747 0.518556
0.817120 0.884802 0.560506
0.822116 0.814089 0.618345
0.012207 0.034404 0.696023
0.146878 0.029656 0.692375
0.277475 0.024908 0.688935
0.406898 0.020159 0.685707
0.548106 0.021410 0.679096
0.679735 0.017718 0.675671
0.812065 0.014038 0.672464
0.945444 0.010369 0.669480
1.000000 0.006712 0.666721
0.006471 0.161889 0.691306
0.142477 0.157940 0.687846
0.286261 0.159952 0.681022
0.419027 0.157059 0.677360
0.551580 0.154178 0.673912
0.684447 0.151308 0.670683
0.818001 0.148451 0.667677
0.952596 0.145605 0.664899
1.000000 0.142770 0.662353
0.012666 0.292960 0.682966
0.152112 0.290835 0.679065
0.287369 0.288721 0.675376
0.421406 0.286619 0.671904
0.555206 0.284529 0.668651
0.689303 0.282450 0.665624
0.824075 0.280383 0.662825
0.959879 0.278328 0.660259
1.000000 0.276443 0.657363
0.011272 0.420722 0.676858
0.152085 0.419374 0.673142
0.288641 0.418037 0.669643
0.423942 0.416712 0.666366
0.558984 0.415398 0.663315
0.694304 0.414097 0.660494
0.827123 0.412322 0.657598
0.954902 0.409884 0.654167
1.000000 0.407458 0.650493
0.010056 0.550007 0.670653
0.152231 0.549427 0.667127
0.290079 0.548858 0.663824
0.426637 0.548301 0.660747
0.560911 0.546746 0.657815
0.690574 0.543562 0.654640
0.818547 0.540390 0.651219
0.945200 0.537230 0.647556
1.000000 0.534082 0.643655
0.009019 0.681330 0.664351
0.152548 0.681513 0.661020
0.290687 0.680285 0.658013
0.423991 0.676361 0.655094
0.554621 0.672449 0.651926
0.683156 0.668548 0.648514
0.810001 0.664659 0.644861
0.935520 0.660782 0.640971
1.000000 0.656916 0.636849
0.008041 0.813341 0.658192
0.150838 0.808679 0.655530
0.286724 0.804029 0.652616
0.418881 0.799391 0.649454
0.548373 0.794764 0.646049
0.675774 0.790149 0.642404
0.801484 0.785546 0.638524
0.925862 0.780955 0.634414
1.000000 0.771250 0.633151
0.006539 0.935500 0.653287
0.148106 0.930125 0.650377
0.282817 0.924761 0.647219
0.413821 0.919410 0.643820
0.542168 0.914070 0.640182
0.668429 0.908742 0.636311
0.782669 0.898262 0.635308
0.907971 0.893993 0.630360
0.946535 0.836005 0.631219
0.005108 1.000000 0.648372
0.145437 1.000000 0.645218
0.278967 1.000000 0.641823
0.408810 1.000000 0.638191
0.525603 1.000000 0.637447
0.652787 1.000000 0.632733
0.750648 0.936683 0.632795
0.798033 0.855927 0.648628
0.797085 0.791403 0.680702
0.009432 0.032594 0.821398
0.144503 0.027846 0.818411
0.275488 0.023097 0.815632
0.405294 0.018349 0.813064
0.547686 0.020001 0.806872
0.679704 0.016313 0.804105
0.812421 0.012638 0.801554
0.946187 0.008973 0.799226
1.000000 0.005321 0.797123
0.003989 0.160383 0.817894
0.140398 0.156434 0.815092
0.285375 0.158848 0.808687
0.418536 0.155959 0.805680
0.551481 0.153082 0.802888
0.684738 0.150217 0.800314
0.818682 0.147364 0.797963
0.953666 0.144523 0.795840
1.000000 0.141693 0.793948
0.011288 0.292148 0.810519
0.151147 0.290027 0.807273
0.286805 0.287918 0.804239
0.421239 0.285821 0.801420
0.555434 0.283735 0.798822
0.689923 0.281661 0.796448
0.825087 0.279599 0.794302
0.961282 0.277548 0.792389
1.000000 0.275800 0.788654
0.010219 0.420207 0.805607
0.151448 0.418863 0.802544
0.288408 0.417530 0.799698
0.424108 0.416210 0.797074
0.559545 0.414901 0.794674
0.695261 0.413603 0.792505
0.825329 0.411391 0.789008
0.952733 0.408958 0.784919
1.000000 0.406536 0.780587
0.009335 0.549784 0.800593
0.151928 0.549208 0.797718
0.290182 0.548644 0.795065
0.427141 0.548092 0.792640
0.559565 0.545531 0.789343
0.688853 0.542352 0.785510
0.816453 0.539184 0.781430
0.942732 0.536029 0.777107
1.000000 0.532885 0.772547
0.008637 0.681399 0.795475
0.152586 0.681586 0.792794
0.289798 0.678788 0.789660
0.422723 0.674868 0.786082
0.552977 0.670960 0.782254
0.681140 0.667064 0.778182
0.807613 0.663179 0.773868
0.932761 0.659307 0.769317
1.000000 0.655445 0.764535
0.007635 0.811562 0.789958
0.150036 0.806905 0.786635
0.285540 0.802259 0.783061
0.417320 0.797626 0.779238
0.546439 0.793003 0.775171
0.673469 0.788393 0.770864
0.798809 0.783794 0.766322
0.922820 0.779208 0.761549
1.000000 0.769903 0.759387
0.005840 0.933449 0.783849
0.147014 0.928078 0.780276
0.281345 0.922720 0.776456
0.411973 0.917373 0.772394
0.539950 0.912037 0.768093
0.665842 0.906714 0.763558
0.780507 0.896634 0.761654
0.886039 0.873906 0.747356
0.911768 0.815674 0.722035
0.004123 1.000000 0.777724
0.144062 1.000000 0.773906
0.277213 1.000000 0.769846
0.406683 1.000000 0.765550
0.523900 1.000000 0.763904
0.649651 0.994778 0.750731
0.740131 0.903978 0.724391
0.781411 0.829411 0.714481
0.774619 0.771075 0.721161
0.006766 0.030783 0.947091
0.142239 0.026035 0.944763
0.273613 0.021287 0.942643
0.415305 0.022289 0.937284
0.547384 0.018594 0.934958
0.679791 0.014911 0.932846
0.812896 0.011239 0.930950
0.947051 0.007579 0.929276
1.000000 0.003931 0.927827
0.001621 0.158878 0.944795
0.149856 0.160641 0.939224
0.284607 0.157745 0.936661
0.418164 0.154861 0.934308
0.551502 0.151989 0.932169
0.685150 0.149128 0.930249
0.819484 0.146279 0.928552
0.954859 0.143442 0.927081
1.000000 0.140617 0.925841
0.010028 0.291338 0.938381
0.150302 0.289222 0.935788
0.286363 0.287117 0.933407
0.421195 0.285024 0.931240
0.555785 0.282943 0.929294
0.690668 0.280873 0.927571
0.826224 0.278815 0.926077
0.960778 0.276845 0.924069
1.000000 0.275159 0.919314
0.009287 0.419693 0.934661
0.150933 0.418353 0.932249
0.288298 0.417025 0.930054
0.424398 0.415709 0.928080
0.560232 0.414405 0.926332
0.695071 0.412902 0.924284
0.823416 0.410462 0.919786
0.950446 0.408033 0.915040
1.000000 0.405616 0.910051
0.008738 0.549563 0.930833
0.151750 0.548992 0.928608
0.290411 0.548432 0.926605
0.427095 0.547504 0.924480
0.558101 0.544317 0.920240
0.687015 0.541143 0.915748
0.814242 0.537980 0.911010
0.940150 0.534829 0.906028
1.000000 0.531689 0.900809
0.008382 0.681469 0.926896
0.152505 0.681219 0.924658
0.288791 0.677292 0.920675
0.421338 0.673377 0.916438
0.551218 0.669473 0.911950
0.679009 0.665581 0.907218
0.805112 0.661701 0.902244
0.929890 0.657833 0.897033
1.000000 0.653976 0.891589
0.007111 0.809785 0.921092
0.149118 0.805132 0.917109
0.284240 0.800491 0.912873
0.415645 0.795862 0.908389
0.544391 0.791244 0.903661
0.671052 0.786638 0.898693
0.796024 0.782044 0.893489
0.908922 0.772089 0.891277
1.000000 0.768556 0.884991
0.005027 0.931400 0.913778
0.145808 0.926034 0.909543
0.279760 0.920680 0.905061
0.410015 0.915337 0.900335
0.537621 0.910006 0.895372
0.652323 0.899276 0.893420
0.778233 0.895006 0.887368
0.859874 0.849833 0.841800
0.879487 0.797649 0.790724
0.003026 1.000000 0.906443
0.142575 1.000000 0.901961
0.275349 1.000000 0.897237
0.404448 1.000000 0.892276
0.522085 1.000000 0.889729
0.647855 0.958244 0.845986
0.732013 0.873634 0.793834
0.767286 0.805255 0.758464
0.754747 0.753108 0.740033
0.004212 0.028973 1.000000
0.140086 0.024225 1.000000
0.271851 0.019476 1.000000
0.414729 0.020878 1.000000
0.547200 0.017188 1.000000
0.679997 0.013509 1.000000
0.813493 0.009842 1.000000
0.948037 0.006187 1.000000
1.000000 0.002544 1.000000
0.000000 0.157372 1.000000
0.148805 0.159535 1.000000
0.283958 0.156644 1.000000
0.417912 0.153764 1.000000
0.551644 0.150897 1.000000
0.685684 0.148041 1.000000
0.820411 0.145196 1.000000
0.956177 0.142364 1.000000
1.000000 0.139543 1.000000
0.008888 0.290530 1.000000
0.149577 0.288418 1.000000
0.286042 0.286318 1.000000
0.421273 0.284229 1.000000
0.556259 0.282152 1.000000
0.691537 0.280087 1.000000
0.827487 0.278034 1.000000
0.958674 0.276201 1.000000
1.000000 0.274519 1.000000
0.008477 0.419181 1.000000
0.150541 0.417846 1.000000
0.288312 0.416522 1.000000
0.424813 0.415210 1.000000
0.561046 0.413910 1.000000
0.693414 0.411971 1.000000
0.821385 0.409535 1.000000
0.948042 0.407110 1.000000
1.000000 0.404698 1.000000
0.008266 0.549344 1.000000
0.151697 0.548777 1.000000
0.290766 0.548222 1.000000
0.425889 0.546287 1.000000
0.556520 0.543105 1.000000
0.685061 0.539935 1.000000
0.811916 0.536777 1.000000
0.937454 0.533630 1.000000
1.000000 0.530495 1.000000
0.008253 0.681541 1.000000
0.151764 0.679720 1.000000
0.287667 0.675798 1.000000
0.419838 0.671887 1.000000
0.549344 0.667988 1.000000
0.676764 0.664101 1.000000
0.802498 0.660225 1.000000
0.926908 0.656361 1.000000
1.000000 0.652509 1.000000
0.006471 0.808010 1.000000
0.148085 0.803361 1.000000
0.282827 0.798725 1.000000
0.413856 0.794100 1.000000
0.542232 0.789487 1.000000
0.668524 0.784885 1.000000
0.793129 0.780296 1.000000
0.906454 0.770742 1.000000
1.000000 0.764220 1.000000
0.004099 0.929353 1.000000
0.144490 0.923991 1.000000
0.278063 0.918641 1.000000
0.407945 0.913303 1.000000
0.535183 0.907977 1.000000
0.650313 0.897648 1.000000
0.774004 0.890065 1.000000
0.836127 0.828066 0.914448
0.849724 0.781930 0.837752
0.001818 1.000000 1.000000
0.140978 1.000000 1.000000
0.273376 1.000000 1.000000
0.392000 1.000000 1.000000
0.520518 1.000000 1.000000
0.648389 0.924070 0.919422
0.726323 0.845648 0.841595
0.755688 0.783458 0.780901
0.737500 0.737500 0.737500
