data/luts/film_emulation/FilmConvert/FilmConvert_Nitrate_LuxuryRE.cube
# FilmConvert Nitrate - Luxury Real Estate Edition
# Professional Color Grading LUT for Premium Properties
# Optimized for Architectural and Lifestyle Imagery
# Format: 3D Cube LUT
TITLE "FilmConvert_Nitrate_LuxuryRE"
# LUT Configuration
LUT_3D_SIZE 33
DOMAIN_MIN 0.0 0.0 0.0
DOMAIN_MAX 1.0 1.0 1.0
0.027706 0.043456 0.056056
0.061682 0.042269 0.054265
0.094963 0.041082 0.052487
0.127822 0.039895 0.050722
0.160393 0.038708 0.048970
0.192756 0.037521 0.047231
0.224965 0.036334 0.045505
0.257058 0.035147 0.043792
0.289063 0.033960 0.042093
0.321001 0.032773 0.040407
0.352891 0.031585 0.038734
0.384748 0.030398 0.037075
0.416584 0.029211 0.035430
0.448409 0.028024 0.033798
0.480232 0.026837 0.032180
0.512062 0.025650 0.030575
0.543906 0.024463 0.028985
0.575770 0.023276 0.027408
0.607660 0.022089 0.025845
0.639583 0.020902 0.024297
0.671543 0.019715 0.022762
0.703546 0.018527 0.021242
0.746743 0.022914 0.016391
0.779370 0.021988 0.014742
0.812056 0.021064 0.013107
0.844807 0.020140 0.011486
0.877630 0.019217 0.009879
0.910529 0.018295 0.008286
0.943514 0.017373 0.006707
0.976594 0.016452 0.005142
1.000000 0.015532 0.003592
1.000000 0.014612 0.002056
1.000000 0.013694 0.000535
0.025909 0.075583 0.053299
0.059971 0.074448 0.051520
0.093335 0.073312 0.049754
0.126275 0.072176 0.048001
0.158927 0.071040 0.046261
0.191371 0.069905 0.044535
0.223659 0.068769 0.042821
0.255830 0.067633 0.041121
0.287912 0.066497 0.039434
0.319927 0.065362 0.037761
0.351894 0.064226 0.036101
0.383828 0.063090 0.034455
0.415739 0.061955 0.032822
0.447639 0.060819 0.031204
0.479538 0.059683 0.029598
0.511443 0.058547 0.028007
0.543361 0.057412 0.026430
0.575299 0.056276 0.024867
0.607264 0.055140 0.023317
0.639260 0.054004 0.021782
0.682422 0.058433 0.016923
0.715021 0.057559 0.015259
0.747670 0.056685 0.013609
0.780373 0.055813 0.011973
0.813135 0.054941 0.010351
0.845962 0.054070 0.008743
0.878859 0.053200 0.007149
0.911834 0.052330 0.005570
0.944894 0.051461 0.004004
0.978050 0.050593 0.002453
1.000000 0.049726 0.000917
1.000000 0.048859 0.000000
1.000000 0.047993 0.000000
0.024115 0.107128 0.050539
0.058263 0.106042 0.048772
0.091710 0.104957 0.047019
0.124732 0.103871 0.045278
0.157465 0.102786 0.043550
0.189988 0.101700 0.041836
0.222355 0.100615 0.040135
0.254604 0.099529 0.038447
0.286763 0.098444 0.036773
0.318856 0.097358 0.035113
0.350900 0.096272 0.033466
0.382909 0.095187 0.031833
0.414896 0.094101 0.030213
0.446872 0.093016 0.028607
0.478846 0.091930 0.027016
0.510825 0.090845 0.025438
0.542818 0.089759 0.023874
0.574830 0.088674 0.022324
0.617977 0.093142 0.017456
0.650571 0.092319 0.015777
0.683203 0.091496 0.014112
0.715879 0.090673 0.012461
0.748603 0.089852 0.010824
0.781382 0.089031 0.009202
0.814220 0.088211 0.007593
0.847122 0.087391 0.005998
0.880095 0.086573 0.004418
0.913145 0.085755 0.002851
0.946281 0.084937 0.001300
0.979511 0.084121 0.000000
1.000000 0.083305 0.000000
1.000000 0.082490 0.000000
1.000000 0.081676 0.000000
0.022325 0.138361 0.047777
0.056558 0.137325 0.046022
0.090089 0.136289 0.044280
0.123193 0.135253 0.042552
0.156005 0.134217 0.040837
0.188608 0.133181 0.039135
0.221054 0.132145 0.037447
0.253381 0.131109 0.035772
0.285618 0.130073 0.034111
0.317787 0.129036 0.032463
0.349907 0.128000 0.030829
0.381993 0.126964 0.029209
0.414056 0.125928 0.027602
0.446107 0.124892 0.026010
0.478155 0.123856 0.024431
0.510209 0.122820 0.022867
0.553366 0.127328 0.017989
0.585976 0.126554 0.016296
0.618613 0.125780 0.014616
0.651283 0.125007 0.012951
0.683991 0.124235 0.011299
0.716743 0.123464 0.009661
0.749543 0.122693 0.008037
0.782398 0.121923 0.006428
0.815311 0.121154 0.004832
0.848289 0.120385 0.003251
0.881337 0.119618 0.001684
0.914463 0.118850 0.000131
0.947673 0.118084 0.000000
0.980979 0.117319 0.000000
1.000000 0.116554 0.000000
1.000000 0.115790 0.000000
1.000000 0.115026 0.000000
0.020538 0.169417 0.045012
0.054856 0.168429 0.043269
0.088470 0.167442 0.041540
0.121656 0.166455 0.039824
0.154549 0.165468 0.038121
0.187231 0.164481 0.036432
0.219755 0.163493 0.034756
0.252160 0.162506 0.033094
0.284475 0.161519 0.031446
0.316721 0.160532 0.029811
0.348917 0.159545 0.028190
0.381079 0.158557 0.026583
0.413217 0.157570 0.024990
0.445343 0.156583 0.023410
0.488537 0.161131 0.018524
0.521189 0.160405 0.016816
0.553855 0.159681 0.015122
0.586542 0.158956 0.013441
0.619255 0.158233 0.011774
0.652002 0.157511 0.010122
0.684786 0.156789 0.008483
0.717614 0.156068 0.006858
0.750490 0.155347 0.005247
0.783420 0.154627 0.003651
0.816409 0.153909 0.002069
0.849462 0.153190 0.000501
0.882585 0.152473 0.000000
0.915786 0.151756 0.000000
0.949072 0.151040 0.000000
0.982452 0.150325 0.000000
1.000000 0.149610 0.000000
1.000000 0.148897 0.000000
1.000000 0.148184 0.000000
0.018754 0.200373 0.042244
0.053158 0.199434 0.040513
0.086855 0.198495 0.038796
0.120122 0.197557 0.037093
0.153095 0.196618 0.035403
0.185857 0.195679 0.033726
0.218459 0.194740 0.032063
0.250942 0.193802 0.030414
0.283334 0.192863 0.028779
0.315657 0.191924 0.027157
0.347930 0.190985 0.025549
0.380167 0.190047 0.023955
0.423431 0.194633 0.019060
0.456156 0.193956 0.017337
0.488879 0.193280 0.015628
0.521608 0.192604 0.013933
0.554351 0.191929 0.012251
0.587115 0.191255 0.010583
0.619905 0.190582 0.008929
0.652728 0.189909 0.007290
0.685588 0.189237 0.005664
0.718492 0.188566 0.004053
0.751444 0.187896 0.002455
0.784449 0.187226 0.000872
0.817513 0.186557 0.000000
0.850642 0.185888 0.000000
0.883840 0.185221 0.000000
0.917116 0.184554 0.000000
0.950476 0.183888 0.000000
0.983932 0.183223 0.000000
1.000000 0.182558 0.000000
1.000000 0.181894 0.000000
1.000000 0.181231 0.000000
0.016974 0.231282 0.039473
0.051463 0.230392 0.037755
0.085243 0.229501 0.036051
0.118591 0.228610 0.034360
0.151645 0.227720 0.032682
0.184485 0.226829 0.031019
0.217166 0.225939 0.029369
0.249727 0.225048 0.027732
0.282196 0.224157 0.026110
0.314596 0.223267 0.024501
0.357976 0.227892 0.019597
0.390812 0.227263 0.017859
0.423626 0.226635 0.016135
0.456428 0.226007 0.014425
0.489228 0.225380 0.012729
0.522035 0.224754 0.011046
0.554855 0.224129 0.009377
0.587695 0.223504 0.007722
0.620562 0.222881 0.006082
0.653461 0.222257 0.004455
0.686397 0.221635 0.002843
0.719377 0.221013 0.001244
0.752404 0.220392 0.000000
0.785485 0.219772 0.000000
0.818624 0.219153 0.000000
0.851828 0.218534 0.000000
0.885101 0.217916 0.000000
0.918452 0.217299 0.000000
0.951887 0.216682 0.000000
0.985417 0.216066 0.000000
1.000000 0.215451 0.000000
1.000000 0.214837 0.000000
1.000000 0.214223 0.000000
0.015197 0.262183 0.036699
0.049772 0.261340 0.034994
0.083634 0.260497 0.033302
0.117064 0.259654 0.031624
0.150197 0.258811 0.029959
0.183117 0.257969 0.028309
0.215876 0.257126 0.026671
0.248514 0.256283 0.025048
0.292073 0.260947 0.020135
0.325072 0.260365 0.018383
0.358022 0.259785 0.016644
0.390936 0.259205 0.014919
0.423828 0.258626 0.013207
0.456708 0.258048 0.011510
0.489586 0.257470 0.009826
0.522469 0.256894 0.008156
0.555366 0.256317 0.006500
0.588283 0.255742 0.004859
0.621226 0.255168 0.003231
0.654201 0.254594 0.001618
0.687213 0.254021 0.000018
0.720268 0.253448 0.000000
0.753371 0.252876 0.000000
0.786527 0.252306 0.000000
0.819742 0.251735 0.000000
0.853020 0.251166 0.000000
0.886368 0.250597 0.000000
0.919794 0.250029 0.000000
0.953304 0.249462 0.000000
0.986909 0.248895 0.000000
1.000000 0.248330 0.000000
1.000000 0.247764 0.000000
1.000000 0.247200 0.000000
0.013424 0.293102 0.033923
0.048083 0.292306 0.032230
0.082028 0.291511 0.030551
0.115539 0.290716 0.028886
0.148753 0.289921 0.027234
0.181751 0.289126 0.025596
0.225582 0.293827 0.020674
0.258821 0.293293 0.018907
0.291968 0.292760 0.017153
0.325047 0.292228 0.015413
0.358075 0.291697 0.013687
0.391068 0.291166 0.011975
0.424038 0.290636 0.010276
0.456995 0.290107 0.008591
0.489950 0.289578 0.006920
0.522911 0.289051 0.005263
0.555885 0.288524 0.003621
0.588878 0.287997 0.001992
0.621897 0.287472 0.000377
0.654948 0.286947 0.000000
0.688036 0.286423 0.000000
0.721166 0.285899 0.000000
0.754345 0.285377 0.000000
0.787576 0.284855 0.000000
0.820866 0.284334 0.000000
0.854219 0.283813 0.000000
0.887642 0.283293 0.000000
0.921142 0.282774 0.000000
0.954727 0.282256 0.000000
0.988406 0.281739 0.000000
1.000000 0.281222 0.000000
1.000000 0.280706 0.000000
1.000000 0.280191 0.000000
0.011654 0.324061 0.031144
0.046398 0.323313 0.029464
0.080426 0.322566 0.027798
0.114018 0.321818 0.026145
0.158285 0.326557 0.021214
0.191885 0.326071 0.019432
0.225326 0.325585 0.017664
0.258645 0.325100 0.015909
0.291872 0.324616 0.014168
0.325030 0.324133 0.012441
0.358137 0.323650 0.010727
0.391208 0.323168 0.009027
0.424255 0.322687 0.007341
0.457291 0.322207 0.005669
0.490323 0.321727 0.004011
0.523360 0.321248 0.002367
0.556410 0.320770 0.000738
0.589480 0.320292 0.000000
0.622575 0.319815 0.000000
0.655702 0.319339 0.000000
0.688866 0.318864 0.000000
0.722072 0.318389 0.000000
0.755325 0.317916 0.000000
0.788632 0.317442 0.000000
0.821996 0.316970 0.000000
0.855424 0.316498 0.000000
0.888922 0.316028 0.000000
0.922496 0.315557 0.000000
0.956155 0.315088 0.000000
0.989909 0.314619 0.000000
1.000000 0.314151 0.000000
1.000000 0.313684 0.000000
1.000000 0.313218 0.000000
0.009887 0.355079 0.028363
0.044716 0.354378 0.026695
0.089781 0.359155 0.021756
0.123977 0.358716 0.019959
0.157875 0.358277 0.018176
0.191557 0.357840 0.016406
0.225078 0.357403 0.014650
0.258477 0.356967 0.012908
0.291784 0.356531 0.011179
0.325021 0.356096 0.009464
0.358206 0.355662 0.007763
0.391355 0.355229 0.006076
0.424481 0.354796 0.004403
0.457594 0.354365 0.002744
0.490703 0.353934 0.001099
0.523817 0.353503 0.000000
0.556944 0.353074 0.000000
0.590089 0.352645 0.000000
0.623261 0.352217 0.000000
0.656463 0.351789 0.000000
0.689702 0.351362 0.000000
0.722984 0.350937 0.000000
0.756312 0.350511 0.000000
0.789694 0.350087 0.000000
0.823133 0.349663 0.000000
0.856636 0.349240 0.000000
0.890208 0.348818 0.000000
0.923857 0.348396 0.000000
0.957590 0.347975 0.000000
0.991419 0.347555 0.000000
1.000000 0.347136 0.000000
1.000000 0.346717 0.000000
1.000000 0.346299 0.000000
0.019059 0.391637 0.022298
0.054496 0.391245 0.020486
0.089213 0.390853 0.018689
0.123493 0.390463 0.016904
0.157473 0.390073 0.015133
0.191236 0.389683 0.013376
0.224838 0.389295 0.011632
0.258318 0.388907 0.009902
0.291704 0.388520 0.008186
0.325020 0.388134 0.006484
0.358284 0.387748 0.004796
0.391511 0.387363 0.003122
0.424714 0.386979 0.001461
0.457904 0.386596 0.000000
0.491090 0.386213 0.000000
0.524281 0.385832 0.000000
0.557484 0.385450 0.000000
0.590706 0.385070 0.000000
0.623953 0.384690 0.000000
0.657231 0.384311 0.000000
0.690546 0.383933 0.000000
0.723902 0.383556 0.000000
0.757306 0.383179 0.000000
0.790762 0.382803 0.000000
0.824276 0.382427 0.000000
0.857854 0.382053 0.000000
0.891501 0.381679 0.000000
0.925224 0.381306 0.000000
0.959032 0.380934 0.000000
0.992934 0.380562 0.000000
1.000000 0.380191 0.000000
1.000000 0.379821 0.000000
1.000000 0.379435 0.000000
0.018327 0.423326 0.019202
0.053852 0.422982 0.017403
0.088654 0.422639 0.015617
0.123017 0.422296 0.013845
0.157080 0.421955 0.012087
0.190925 0.421614 0.010342
0.224607 0.421274 0.008611
0.258166 0.420934 0.006893
0.291632 0.420596 0.005190
0.325027 0.420258 0.003500
0.358369 0.419920 0.001825
0.391674 0.419584 0.000164
0.424955 0.419248 0.000000
0.458222 0.418913 0.000000
0.491485 0.418579 0.000000
0.524753 0.418245 0.000000
0.558032 0.417912 0.000000
0.591330 0.417580 0.000000
0.624653 0.417249 0.000000
0.658006 0.416918 0.000000
0.691396 0.416588 0.000000
0.724828 0.416259 0.000000
0.758307 0.415931 0.000000
0.791838 0.415603 0.000000
0.825426 0.415276 0.000000
0.859078 0.414950 0.000000
0.892799 0.414624 0.000000
0.926597 0.414299 0.000000
0.960479 0.413975 0.000000
0.994455 0.413652 0.000000
1.000000 0.413316 0.000000
1.000000 0.412704 0.000000
1.000000 0.412093 0.000000
0.017604 0.455112 0.016103
0.053217 0.454817 0.014315
0.088104 0.454522 0.012542
0.122550 0.454228 0.010782
0.156695 0.453934 0.009036
0.190621 0.453641 0.007303
0.224384 0.453349 0.005585
0.258024 0.453058 0.003880
0.291568 0.452768 0.002190
0.325042 0.452478 0.000513
0.358463 0.452189 0.000000
0.391846 0.451901 0.000000
0.425204 0.451613 0.000000
0.458548 0.451326 0.000000
0.491888 0.451040 0.000000
0.525232 0.450755 0.000000
0.558587 0.450470 0.000000
0.591961 0.450186 0.000000
0.625360 0.449903 0.000000
0.658789 0.449620 0.000000
0.692254 0.449339 0.000000
0.725760 0.449058 0.000000
0.759314 0.448777 0.000000
0.792920 0.448498 0.000000
0.826583 0.448219 0.000000
0.860309 0.447941 0.000000
0.894104 0.447664 0.000000
0.927976 0.447387 0.000000
0.961914 0.447107 0.000000
0.994108 0.446449 0.000000
1.000000 0.445791 0.000000
1.000000 0.445134 0.000000
1.000000 0.444478 0.000000
0.016891 0.487006 0.012998
0.052590 0.486758 0.011223
0.087562 0.486512 0.009462
0.122092 0.486265 0.007715
0.156319 0.486020 0.005981
0.190327 0.485775 0.004261
0.224170 0.485532 0.002555
0.257889 0.485288 0.000863
0.291513 0.485046 0.000000
0.325065 0.484804 0.000000
0.358564 0.484563 0.000000
0.392025 0.484323 0.000000
0.425460 0.484083 0.000000
0.458882 0.483845 0.000000
0.492298 0.483607 0.000000
0.525718 0.483369 0.000000
0.559150 0.483133 0.000000
0.592599 0.482897 0.000000
0.626073 0.482662 0.000000
0.659578 0.482427 0.000000
0.693118 0.482194 0.000000
0.726700 0.481961 0.000000
0.760328 0.481729 0.000000
0.794008 0.481497 0.000000
0.827745 0.481266 0.000000
0.861546 0.481036 0.000000
0.895416 0.480807 0.000000
0.927696 0.480115 0.000000
0.959871 0.479410 0.000000
0.991994 0.478707 0.000000
1.000000 0.478004 0.000000
1.000000 0.477301 0.000000
1.000000 0.476600 0.000000
0.016186 0.519015 0.009890
0.051973 0.518815 0.008127
0.087030 0.518616 0.006378
0.121643 0.518418 0.004643
0.155952 0.518221 0.002922
0.190041 0.518024 0.001215
0.223964 0.517828 0.000000
0.257763 0.517633 0.000000
0.291466 0.517438 0.000000
0.325097 0.517244 0.000000
0.358674 0.517051 0.000000
0.392212 0.516859 0.000000
0.425725 0.516668 0.000000
0.459223 0.516477 0.000000
0.492716 0.516287 0.000000
0.526212 0.516097 0.000000
0.559720 0.515909 0.000000
0.593245 0.515721 0.000000
0.626795 0.515534 0.000000
0.660374 0.515347 0.000000
0.693989 0.515162 0.000000
0.727646 0.514977 0.000000
0.761349 0.514792 0.000000
0.795103 0.514609 0.000000
0.828915 0.514426 0.000000
0.861323 0.513711 0.000000
0.893558 0.512960 0.000000
0.925724 0.512209 0.000000
0.957828 0.511460 0.000000
0.989879 0.510711 0.000000
1.000000 0.509963 0.000000
1.000000 0.509216 0.000000
1.000000 0.508469 0.000000
0.015490 0.551145 0.006777
0.051364 0.550994 0.005026
0.086506 0.550843 0.003290
0.121202 0.550692 0.001568
0.155593 0.550543 0.000000
0.189763 0.550394 0.000000
0.223767 0.550246 0.000000
0.257645 0.550099 0.000000
0.291427 0.549952 0.000000
0.325136 0.549806 0.000000
0.358791 0.549661 0.000000
0.392407 0.549516 0.000000
0.425997 0.549373 0.000000
0.459572 0.549230 0.000000
0.493141 0.549088 0.000000
0.526714 0.548946 0.000000
0.560297 0.548805 0.000000
0.593898 0.548665 0.000000
0.627523 0.548526 0.000000
0.661177 0.548388 0.000000
0.694868 0.548250 0.000000
0.728599 0.548113 0.000000
0.762376 0.547976 0.000000
0.794925 0.547245 0.000000
0.827251 0.546447 0.000000
0.859492 0.545651 0.000000
0.891657 0.544855 0.000000
0.923751 0.544059 0.000000
0.955783 0.543265 0.000000
0.987763 0.542471 0.000000
1.000000 0.541678 0.000000
1.000000 0.540886 0.000000
1.000000 0.540094 0.000000
0.014804 0.583405 0.003659
0.050765 0.583301 0.001921
0.085991 0.583198 0.000198
0.120770 0.583095 0.000000
0.155243 0.582993 0.000000
0.189494 0.582892 0.000000
0.223578 0.582792 0.000000
0.257535 0.582692 0.000000
0.291396 0.582594 0.000000
0.325184 0.582496 0.000000
0.358916 0.582398 0.000000
0.392610 0.582302 0.000000
0.426277 0.582206 0.000000
0.459928 0.582111 0.000000
0.493574 0.582016 0.000000
0.527223 0.581923 0.000000
0.560882 0.581830 0.000000
0.594558 0.581737 0.000000
0.628258 0.581646 0.000000
0.661988 0.581555 0.000000
0.695753 0.581465 0.000000
0.728456 0.580724 0.000000
0.760894 0.579880 0.000000
0.793237 0.579037 0.000000
0.825491 0.578195 0.000000
0.857661 0.577353 0.000000
0.889755 0.576512 0.000000
0.921778 0.575672 0.000000
0.953738 0.574833 0.000000
0.985647 0.573994 0.000000
1.000000 0.573156 0.000000
1.000000 0.572319 0.000000
1.000000 0.571482 0.000000
0.014126 0.615799 0.000537
0.050174 0.615743 0.000000
0.085485 0.615687 0.000000
0.120347 0.615632 0.000000
0.154902 0.615578 0.000000
0.189233 0.615525 0.000000
0.223397 0.615473 0.000000
0.257434 0.615421 0.000000
0.291374 0.615370 0.000000
0.325239 0.615319 0.000000
0.359050 0.615270 0.000000
0.392820 0.615221 0.000000
0.426564 0.615173 0.000000
0.460292 0.615125 0.000000
0.494014 0.615079 0.000000
0.527739 0.615033 0.000000
0.561474 0.614987 0.000000
0.595225 0.614943 0.000000
0.629001 0.614899 0.000000
0.661869 0.614156 0.000000
0.694443 0.613266 0.000000
0.726910 0.612376 0.000000
0.759276 0.611487 0.000000
0.791548 0.610600 0.000000
0.823731 0.609712 0.000000
0.855830 0.608826 0.000000
0.887852 0.607940 0.000000
0.919804 0.607055 0.000000
0.951693 0.606171 0.000000
0.983529 0.605287 0.000000
1.000000 0.604404 0.000000
1.000000 0.603522 0.000000
1.000000 0.602641 0.000000
0.013458 0.648333 0.000000
0.049592 0.648325 0.000000
0.084988 0.648317 0.000000
0.119933 0.648310 0.000000
0.154569 0.648304 0.000000
0.188981 0.648298 0.000000
0.223225 0.648293 0.000000
0.257341 0.648289 0.000000
0.291359 0.648286 0.000000
0.325303 0.648283 0.000000
0.359191 0.648281 0.000000
0.393039 0.648280 0.000000
0.426860 0.648279 0.000000
0.460664 0.648280 0.000000
0.494462 0.648281 0.000000
0.528263 0.648282 0.000000
0.562073 0.648285 0.000000
0.595121 0.647546 0.000000
0.627852 0.646609 0.000000
0.660465 0.645674 0.000000
0.692967 0.644739 0.000000
0.725363 0.643804 0.000000
0.757659 0.642871 0.000000
0.789860 0.641938 0.000000
0.821971 0.641006 0.000000
0.853999 0.640075 0.000000
0.885949 0.639144 0.000000
0.917829 0.638215 0.000000
0.949646 0.637286 0.000000
0.981411 0.636357 0.000000
1.000000 0.635430 0.000000
1.000000 0.634503 0.000000
1.000000 0.633577 0.000000
0.012798 0.681014 0.000000
0.049019 0.681053 0.000000
0.084499 0.681093 0.000000
0.119527 0.681133 0.000000
0.154245 0.681175 0.000000
0.188737 0.681217 0.000000
0.223061 0.681259 0.000000
0.257256 0.681303 0.000000
0.291353 0.681347 0.000000
0.325375 0.681392 0.000000
0.359341 0.681438 0.000000
0.393265 0.681484 0.000000
0.427163 0.681531 0.000000
0.461044 0.681579 0.000000
0.494918 0.681628 0.000000
0.528161 0.680900 0.000000
0.561076 0.679917 0.000000
0.593860 0.678935 0.000000
0.626519 0.677954 0.000000
0.659062 0.676974 0.000000
0.691492 0.675994 0.000000
0.723817 0.675015 0.000000
0.756041 0.674037 0.000000
0.788171 0.673060 0.000000
0.820211 0.672083 0.000000
0.852167 0.671107 0.000000
0.884046 0.670132 0.000000
0.915854 0.669157 0.000000
0.947599 0.668183 0.000000
0.979292 0.667210 0.000000
1.000000 0.666238 0.000000
1.000000 0.665266 0.000000
1.000000 0.664295 0.000000
0.012148 0.713846 0.000000
0.048456 0.713932 0.000000
0.084020 0.714020 0.000000
0.119130 0.714108 0.000000
0.153929 0.714197 0.000000
0.188502 0.714286 0.000000
0.222906 0.714376 0.000000
0.257180 0.714467 0.000000
0.291355 0.714559 0.000000
0.325455 0.714652 0.000000
0.359498 0.714745 0.000000
0.393500 0.714839 0.000000
0.427474 0.714934 0.000000
0.460934 0.714224 0.000000
0.494062 0.713195 0.000000
0.527043 0.712167 0.000000
0.559886 0.711140 0.000000
0.592599 0.710113 0.000000
0.625187 0.709087 0.000000
0.657658 0.708062 0.000000
0.690018 0.707038 0.000000
0.722271 0.706014 0.000000
0.754424 0.704992 0.000000
0.786482 0.703969 0.000000
0.818450 0.702948 0.000000
0.850335 0.701927 0.000000
0.882142 0.700907 0.000000
0.913878 0.699888 0.000000
0.945551 0.698870 0.000000
0.977172 0.697852 0.000000
1.000000 0.696835 0.000000
1.000000 0.695819 0.000000
1.000000 0.694803 0.000000
0.011506 0.746834 0.000000
0.047901 0.746968 0.000000
0.083549 0.747103 0.000000
0.118742 0.747238 0.000000
0.153622 0.747375 0.000000
0.188276 0.747512 0.000000
0.222759 0.747650 0.000000
0.257112 0.747788 0.000000
0.291365 0.747928 0.000000
0.325543 0.748068 0.000000
0.359663 0.748208 0.000000
0.393371 0.747523 0.000000
0.426748 0.746449 0.000000
0.459960 0.745374 0.000000
0.493016 0.744301 0.000000
0.525926 0.743228 0.000000
0.558698 0.742156 0.000000
0.591339 0.741085 0.000000
0.623856 0.740015 0.000000
0.656255 0.738945 0.000000
0.688543 0.737876 0.000000
0.720725 0.736808 0.000000
0.752806 0.735740 0.000000
0.784792 0.734673 0.000000
0.816689 0.733607 0.000000
0.848502 0.732542 0.000000
0.880237 0.731477 0.000000
0.911902 0.730414 0.000000
0.943503 0.729351 0.000000
0.975051 0.728288 0.000000
1.000000 0.727226 0.000000
1.000000 0.726166 0.000000
1.000000 0.725105 0.000000
0.010874 0.779983 0.000000
0.047355 0.780165 0.000000
0.083087 0.780347 0.000000
0.118362 0.780531 0.000000
0.153324 0.780714 0.000000
0.188058 0.780899 0.000000
0.222620 0.781084 0.000000
0.257052 0.781270 0.000000
0.291384 0.781457 0.000000
0.325383 0.780804 0.000000
0.359058 0.779683 0.000000
0.392542 0.778563 0.000000
0.425847 0.777443 0.000000
0.458987 0.776325 0.000000
0.491971 0.775207 0.000000
0.524810 0.774089 0.000000
0.557510 0.772973 0.000000
0.590079 0.771857 0.000000
0.622524 0.770742 0.000000
0.654852 0.769628 0.000000
0.687068 0.768514 0.000000
0.719178 0.767401 0.000000
0.751188 0.766289 0.000000
0.783103 0.765177 0.000000
0.814928 0.764067 0.000000
0.846669 0.762957 0.000000
0.878332 0.761848 0.000000
0.909924 0.760739 0.000000
0.941454 0.759631 0.000000
0.972930 0.758524 0.000000
1.000000 0.757418 0.000000
1.000000 0.756313 0.000000
1.000000 0.755208 0.000000
0.010251 0.813300 0.000000
0.046818 0.813529 0.000000
0.082634 0.813759 0.000000
0.117991 0.813990 0.000000
0.153034 0.814221 0.000000
0.187848 0.814453 0.000000
0.222490 0.814686 0.000000
0.256850 0.814071 0.000000
0.290890 0.812904 0.000000
0.324700 0.811738 0.000000
0.358303 0.810572 0.000000
0.391714 0.809407 0.000000
0.424947 0.808243 0.000000
0.458015 0.807080 0.000000
0.490928 0.805917 0.000000
0.523694 0.804756 0.000000
0.556322 0.803594 0.000000
0.588820 0.802434 0.000000
0.621193 0.801274 0.000000
0.653449 0.800115 0.000000
0.685594 0.798957 0.000000
0.717632 0.797800 0.000000
0.749570 0.796643 0.000000
0.781413 0.795487 0.000000
0.813166 0.794332 0.000000
0.844835 0.793177 0.000000
0.876427 0.792023 0.000000
0.907947 0.790870 0.000000
0.939404 0.789718 0.000000
0.970807 0.788566 0.000000
1.000000 0.787415 0.000000
1.000000 0.786265 0.000000
1.000000 0.785116 0.000000
0.009636 0.846789 0.000000
0.046290 0.847066 0.000000
0.082189 0.847343 0.000000
0.117629 0.847621 0.000000
0.152753 0.847900 0.000000
0.187592 0.847331 0.000000
0.222096 0.846117 0.000000
0.256315 0.844905 0.000000
0.290281 0.843694 0.000000
0.324019 0.842483 0.000000
0.357549 0.841273 0.000000
0.390887 0.840063 0.000000
0.424049 0.838855 0.000000
0.457044 0.837647 0.000000
0.489884 0.836439 0.000000
0.522579 0.835233 0.000000
0.555135 0.834027 0.000000
0.587561 0.832822 0.000000
0.619863 0.831618 0.000000
0.652047 0.830415 0.000000
0.684120 0.829212 0.000000
0.716086 0.828010 0.000000
0.747952 0.826808 0.000000
0.779723 0.825608 0.000000
0.811404 0.824408 0.000000
0.843001 0.823209 0.000000
0.874521 0.822010 0.000000
0.905969 0.820813 0.000000
0.937353 0.819616 0.000000
0.968684 0.818420 0.000000
0.999975 0.817224 0.000000
1.000000 0.816030 0.000000
1.000000 0.814836 0.000000
0.009031 0.880457 0.000000
0.045770 0.880781 0.000000
0.081754 0.881106 0.000000
0.117307 0.880589 0.000000
0.152450 0.879330 0.000000
0.187207 0.878071 0.000000
0.221636 0.876814 0.000000
0.255782 0.875557 0.000000
0.289674 0.874301 0.000000
0.323339 0.873045 0.000000
0.356796 0.871790 0.000000
0.390062 0.870536 0.000000
0.423151 0.869283 0.000000
0.456074 0.868031 0.000000
0.488842 0.866779 0.000000
0.521464 0.865528 0.000000
0.553948 0.864278 0.000000
0.586302 0.863028 0.000000
0.618532 0.861779 0.000000
