data/luts/film_emulation/FilmConvert/FilmConvert_Nitrate_LuxuryRE.cube
# FilmConvert Nitrate - Luxury Real Estate Edition
# Professional Color Grading LUT for Premium Properties
# Optimized for Architectural and Lifestyle Imagery
# Format: 3D Cube LUT
TITLE "FilmConvert_Nitrate_LuxuryRE"
# LUT Configuration
LUT_3D_SIZE 5
DOMAIN_MIN 0.0 0.0 0.0
DOMAIN_MAX 1.0 1.0 1.0
0.027706 0.043456 0.056056
0.289063 0.033960 0.042093
0.543906 0.024463 0.028985
0.812056 0.021064 0.013107
1.000000 0.013694 0.000535
0.013424 0.293102 0.033923
0.291968 0.292760 0.017153
0.555885 0.288524 0.003621
0.820866 0.284334 0.000000
1.000000 0.280191 0.000000
0.015490 0.551145 0.006777
0.291427 0.549952 0.000000
0.560297 0.548805 0.000000
0.827251 0.546447 0.000000
1.000000 0.540094 0.000000
0.010251 0.813300 0.000000
0.290890 0.812904 0.000000
0.556322 0.803594 0.000000
0.813166 0.794332 0.000000
1.000000 0.785116 0.000000
0.008323 1.000000 0.000000
0.286062 1.000000 0.000000
0.546842 1.000000 0.000000
0.788855 1.000000 0.000000
0.947251 0.928432 0.134451
0.021186 0.039836 0.318085
0.284100 0.030339 0.306967
0.540452 0.020842 0.296701
0.811709 0.018248 0.283180
1.000000 0.010896 0.273434
0.008046 0.290676 0.301193
0.289774 0.291139 0.286771
0.555253 0.286920 0.276057
0.821783 0.282748 0.266244
1.000000 0.278623 0.257368
0.012953 0.550685 0.278750
0.290518 0.549509 0.267947
0.560967 0.548381 0.258057
0.824126 0.544019 0.252809
1.000000 0.537684 0.249245
0.009035 0.814001 0.258819
0.289577 0.809349 0.253499
0.553490 0.800057 0.250945
0.808834 0.790812 0.247437
1.000000 0.781615 0.243010
0.007382 1.000000 0.252572
0.283562 1.000000 0.250052
0.542839 1.000000 0.246589
0.784950 1.000000 0.244806
0.879744 0.866541 0.425862
0.015092 0.036215 0.570618
0.279573 0.026718 0.562201
0.548642 0.022821 0.551274
0.811828 0.015439 0.543322
1.000000 0.008105 0.536258
0.014162 0.293773 0.555367
0.288052 0.289525 0.546460
0.555101 0.285324 0.538420
0.823188 0.281170 0.531279
1.000000 0.277088 0.525070
0.010900 0.550231 0.540652
0.290101 0.549073 0.532513
0.562138 0.547963 0.525283
0.820525 0.541598 0.520008
1.000000 0.535281 0.513766
0.008325 0.814709 0.525569
0.287792 0.805801 0.521171
0.550193 0.796527 0.515930
0.804047 0.787300 0.509734
1.000000 0.778120 0.502615
0.005979 1.000000 0.518023
0.280611 1.000000 0.512806
0.538394 1.000000 0.506643
0.763531 0.971747 0.518556
0.822116 0.814089 0.618345
0.009432 0.032594 0.821398
0.275488 0.023097 0.815632
0.547686 0.020001 0.806872
0.812421 0.012638 0.801554
1.000000 0.005321 0.797123
0.011288 0.292148 0.810519
0.286805 0.287918 0.804239
0.555434 0.283735 0.798822
0.825087 0.279599 0.794302
1.000000 0.275800 0.788654
0.009335 0.549784 0.800593
0.290182 0.548644 0.795065
0.559565 0.545531 0.789343
0.816453 0.539184 0.781430
1.000000 0.532885 0.772547
0.007635 0.811562 0.789958
0.285540 0.802259 0.783061
0.546439 0.793003 0.775171
0.798809 0.783794 0.766322
1.000000 0.769903 0.759387
0.004123 1.000000 0.777724
0.277213 1.000000 0.769846
0.523900 1.000000 0.763904
0.740131 0.903978 0.724391
0.774619 0.771075 0.721161
0.004212 0.028973 1.000000
0.271851 0.019476 1.000000
0.547200 0.017188 1.000000
0.813493 0.009842 1.000000
1.000000 0.002544 1.000000
0.008888 0.290530 1.000000
0.286042 0.286318 1.000000
0.556259 0.282152 1.000000
0.827487 0.278034 1.000000
1.000000 0.274519 1.000000
0.008266 0.549344 1.000000
0.290766 0.548222 1.000000
0.556520 0.543105 1.000000
0.811916 0.536777 1.000000
1.000000 0.530495 1.000000
0.006471 0.808010 1.000000
0.282827 0.798725 1.000000
0.542232 0.789487 1.000000
0.793129 0.780296 1.000000
1.000000 0.764220 1.000000
0.001818 1.000000 1.000000
0.273376 1.000000 1.000000
0.520518 1.000000 1.000000
0.726323 0.845648 0.841595
0.737500 0.737500 0.737500
