01_Film_Emulation/Kodak/Kodak_2393_D55.cube
# Kodak 2393 D55 Film Emulation LUT
# Professional Film Print Stock Emulation
# Created for Cinematic Color Grading
# Format: 3D Cube LUT
TITLE "Kodak_2393_D55"
# LUT Configuration
LUT_3D_SIZE 9
DOMAIN_MIN 0.0 0.0 0.0
DOMAIN_MAX 1.0 1.0 1.0
0.002449 0.007028 0.009295
0.112746 0.008619 0.009310
0.240390 0.010460 0.009328
0.377419 0.012436 0.009348
0.521022 0.014508 0.009368
0.652656 0.016565 0.009388
0.777759 0.018520 0.009407
0.879433 0.020328 0.009424
0.960096 0.021810 0.009439
0.005206 0.113123 0.010326
0.115504 0.114713 0.010342
0.243147 0.116554 0.010360
0.380176 0.118531 0.010379
0.523567 0.120603 0.010399
0.655202 0.122660 0.010419
0.780304 0.124615 0.010438
0.881597 0.126422 0.010455
0.962259 0.127905 0.010470
0.008397 0.235903 0.011520
0.118695 0.237494 0.011535
0.246339 0.239335 0.011553
0.383367 0.241311 0.011572
0.526513 0.243384 0.011592
0.658147 0.245440 0.011612
0.783250 0.247395 0.011631
0.884101 0.249203 0.011649
0.964763 0.250686 0.011663
0.011823 0.367711 0.012801
0.122120 0.369302 0.012816
0.249764 0.371143 0.012834
0.386793 0.373119 0.012853
0.529675 0.375191 0.012874
0.661309 0.377248 0.012894
0.786412 0.379203 0.012913
0.886789 0.381011 0.012930
0.967451 0.382493 0.012944
0.015415 0.505924 0.014144
0.125713 0.507515 0.014160
0.253356 0.509356 0.014178
0.390385 0.511333 0.014197
0.532991 0.513405 0.014217
0.664625 0.515462 0.014237
0.789728 0.517417 0.014256
0.889607 0.519224 0.014274
0.970269 0.520707 0.014288
0.018980 0.643095 0.015478
0.129278 0.644686 0.015493
0.256922 0.646527 0.015511
0.393950 0.648503 0.015530
0.536282 0.650576 0.015550
0.667916 0.652632 0.015570
0.793019 0.654587 0.015589
0.892404 0.656395 0.015607
0.973067 0.657878 0.015621
0.022369 0.773459 0.016745
0.132666 0.775050 0.016760
0.260310 0.776891 0.016778
0.397338 0.778867 0.016797
0.539409 0.780940 0.016817
0.671044 0.782997 0.016837
0.796146 0.784951 0.016856
0.895063 0.786759 0.016874
0.975725 0.788242 0.016888
0.025502 0.879915 0.017916
0.135799 0.881267 0.017932
0.263443 0.882832 0.017950
0.400472 0.884512 0.017969
0.542302 0.886273 0.017989
0.673936 0.888021 0.018009
0.799039 0.889683 0.018028
0.897521 0.891219 0.018046
0.978183 0.892480 0.018060
0.028072 0.963969 0.018878
0.138369 0.965321 0.018893
0.266013 0.966886 0.018911
0.403042 0.968566 0.018930
0.544674 0.970328 0.018950
0.676308 0.972076 0.018970
0.801199 0.973737 0.018989
0.899538 0.975274 0.019007
0.980200 0.976534 0.019021
0.002449 0.007028 0.112380
0.112746 0.008619 0.112396
0.240390 0.010460 0.112414
0.377419 0.012436 0.112433
0.521022 0.014508 0.112453
0.652656 0.016565 0.112473
0.777759 0.018520 0.112492
0.879433 0.020328 0.112510
0.960096 0.021810 0.112524
0.005206 0.113123 0.113412
0.115504 0.114713 0.113427
0.243147 0.116554 0.113445
0.380176 0.118531 0.113464
0.523567 0.120603 0.113484
0.655202 0.122660 0.113504
0.780304 0.124615 0.113523
0.881597 0.126422 0.113541
0.962259 0.127905 0.113555
0.008397 0.235903 0.114605
0.118695 0.237494 0.114621
0.246339 0.239335 0.114638
0.383367 0.241311 0.114658
0.526513 0.243384 0.114678
0.658147 0.245440 0.114698
0.783250 0.247395 0.114717
0.884101 0.249203 0.114734
0.964763 0.250686 0.114749
0.011823 0.367711 0.115886
0.122120 0.369302 0.115902
0.249764 0.371143 0.115920
0.386793 0.373119 0.115939
0.529675 0.375191 0.115959
0.661309 0.377248 0.115979
0.786412 0.379203 0.115998
0.886789 0.381011 0.116016
0.967451 0.382493 0.116030
0.015415 0.505924 0.117230
0.125713 0.507515 0.117245
0.253356 0.509356 0.117263
0.390385 0.511333 0.117282
0.532991 0.513405 0.117302
0.664625 0.515462 0.117322
0.789728 0.517417 0.117341
0.889607 0.519224 0.117359
0.970269 0.520707 0.117373
0.018980 0.643095 0.118563
0.129278 0.644686 0.118578
0.256922 0.646527 0.118596
0.393950 0.648503 0.118616
0.536282 0.650576 0.118636
0.667916 0.652632 0.118656
0.793019 0.654587 0.118675
0.892404 0.656395 0.118692
0.973067 0.657878 0.118707
0.022369 0.773459 0.119830
0.132666 0.775050 0.119846
0.260310 0.776891 0.119864
0.397338 0.778867 0.119883
0.539409 0.780940 0.119903
0.671044 0.782997 0.119923
0.796146 0.784951 0.119942
0.895063 0.786759 0.119959
0.975725 0.788242 0.119974
0.025502 0.879915 0.121002
0.135799 0.881267 0.121017
0.263443 0.882832 0.121035
0.400472 0.884512 0.121055
0.542302 0.886273 0.121075
0.673936 0.888021 0.121095
0.799039 0.889683 0.121114
0.897521 0.891219 0.121131
0.978183 0.892480 0.121146
0.028072 0.963969 0.121963
0.138369 0.965321 0.121979
0.266013 0.966886 0.121997
0.403042 0.968566 0.122016
0.544674 0.970328 0.122036
0.676308 0.972076 0.122056
0.801199 0.973737 0.122075
0.899538 0.975274 0.122092
0.980200 0.976534 0.122107
0.002449 0.007028 0.231678
0.112746 0.008619 0.231694
0.240390 0.010460 0.231712
0.377419 0.012436 0.231731
0.521022 0.014508 0.231751
0.652656 0.016565 0.231771
0.777759 0.018520 0.231790
0.879433 0.020328 0.231808
0.960096 0.021810 0.231822
0.005206 0.113123 0.232710
0.115504 0.114713 0.232725
0.243147 0.116554 0.232743
0.380176 0.118531 0.232762
0.523567 0.120603 0.232782
0.655202 0.122660 0.232802
0.780304 0.124615 0.232821
0.881597 0.126422 0.232839
0.962259 0.127905 0.232853
0.008397 0.235903 0.233903
0.118695 0.237494 0.233918
0.246339 0.239335 0.233936
0.383367 0.241311 0.233956
0.526513 0.243384 0.233976
0.658147 0.245440 0.233996
0.783250 0.247395 0.234015
0.884101 0.249203 0.234032
0.964763 0.250686 0.234047
0.011823 0.367711 0.235184
0.122120 0.369302 0.235200
0.249764 0.371143 0.235218
0.386793 0.373119 0.235237
0.529675 0.375191 0.235257
0.661309 0.377248 0.235277
0.786412 0.379203 0.235296
0.886789 0.381011 0.235313
0.967451 0.382493 0.235328
0.015415 0.505924 0.236528
0.125713 0.507515 0.236543
0.253356 0.509356 0.236561
0.390385 0.511333 0.236580
0.532991 0.513405 0.236600
0.664625 0.515462 0.236620
0.789728 0.517417 0.236639
0.889607 0.519224 0.236657
0.970269 0.520707 0.236671
0.018980 0.643095 0.237861
0.129278 0.644686 0.237876
0.256922 0.646527 0.237894
0.393950 0.648503 0.237913
0.536282 0.650576 0.237934
0.667916 0.652632 0.237954
0.793019 0.654587 0.237973
0.892404 0.656395 0.237990
0.973067 0.657878 0.238005
0.022369 0.773459 0.239128
0.132666 0.775050 0.239144
0.260310 0.776891 0.239161
0.397338 0.778867 0.239181
0.539409 0.780940 0.239201
0.671044 0.782997 0.239221
0.796146 0.784951 0.239240
0.895063 0.786759 0.239257
0.975725 0.788242 0.239272
0.025502 0.879915 0.240300
0.135799 0.881267 0.240315
0.263443 0.882832 0.240333
0.400472 0.884512 0.240352
0.542302 0.886273 0.240373
0.673936 0.888021 0.240393
0.799039 0.889683 0.240412
0.897521 0.891219 0.240429
0.978183 0.892480 0.240444
0.028072 0.963969 0.241261
0.138369 0.965321 0.241277
0.266013 0.966886 0.241294
0.403042 0.968566 0.241314
0.544674 0.970328 0.241334
0.676308 0.972076 0.241354
0.801199 0.973737 0.241373
0.899538 0.975274 0.241390
0.980200 0.976534 0.241405
0.002449 0.007028 0.359747
0.112746 0.008619 0.359763
0.240390 0.010460 0.359781
0.377419 0.012436 0.359800
0.521022 0.014508 0.359820
0.652656 0.016565 0.359840
0.777759 0.018520 0.359859
0.879433 0.020328 0.359877
0.960096 0.021810 0.359891
0.005206 0.113123 0.360779
0.115504 0.114713 0.360794
0.243147 0.116554 0.360812
0.380176 0.118531 0.360831
0.523567 0.120603 0.360851
0.655202 0.122660 0.360871
0.780304 0.124615 0.360890
0.881597 0.126422 0.360908
0.962259 0.127905 0.360922
0.008397 0.235903 0.361972
0.118695 0.237494 0.361987
0.246339 0.239335 0.362005
0.383367 0.241311 0.362025
0.526513 0.243384 0.362045
0.658147 0.245440 0.362065
0.783250 0.247395 0.362084
0.884101 0.249203 0.362101
0.964763 0.250686 0.362116
0.011823 0.367711 0.363253
0.122120 0.369302 0.363269
0.249764 0.371143 0.363287
0.386793 0.373119 0.363306
0.529675 0.375191 0.363326
0.661309 0.377248 0.363346
0.786412 0.379203 0.363365
0.886789 0.381011 0.363382
0.967451 0.382493 0.363397
0.015415 0.505924 0.364597
0.125713 0.507515 0.364612
0.253356 0.509356 0.364630
0.390385 0.511333 0.364649
0.532991 0.513405 0.364669
0.664625 0.515462 0.364689
0.789728 0.517417 0.364708
0.889607 0.519224 0.364726
0.970269 0.520707 0.364740
0.018980 0.643095 0.365930
0.129278 0.644686 0.365945
0.256922 0.646527 0.365963
0.393950 0.648503 0.365982
0.536282 0.650576 0.366003
0.667916 0.652632 0.366023
0.793019 0.654587 0.366042
0.892404 0.656395 0.366059
0.973067 0.657878 0.366074
0.022369 0.773459 0.367197
0.132666 0.775050 0.367213
0.260310 0.776891 0.367230
0.397338 0.778867 0.367250
0.539409 0.780940 0.367270
0.671044 0.782997 0.367290
0.796146 0.784951 0.367309
0.895063 0.786759 0.367326
0.975725 0.788242 0.367341
0.025502 0.879915 0.368369
0.135799 0.881267 0.368384
0.263443 0.882832 0.368402
0.400472 0.884512 0.368421
0.542302 0.886273 0.368442
0.673936 0.888021 0.368462
0.799039 0.889683 0.368481
0.897521 0.891219 0.368498
0.978183 0.892480 0.368513
0.028072 0.963969 0.369330
0.138369 0.965321 0.369346
0.266013 0.966886 0.369363
0.403042 0.968566 0.369383
0.544674 0.970328 0.369403
0.676308 0.972076 0.369423
0.801199 0.973737 0.369442
0.899538 0.975274 0.369459
0.980200 0.976534 0.369474
0.002449 0.007028 0.494504
0.112746 0.008619 0.494520
0.240390 0.010460 0.494539
0.377419 0.012436 0.494560
0.521022 0.014508 0.494581
0.652656 0.016565 0.494602
0.777759 0.018520 0.494622
0.879433 0.020328 0.494641
0.960096 0.021810 0.494656
0.005206 0.113123 0.495595
0.115504 0.114713 0.495611
0.243147 0.116554 0.495630
0.380176 0.118531 0.495650
0.523567 0.120603 0.495671
0.655202 0.122660 0.495693
0.780304 0.124615 0.495713
0.881597 0.126422 0.495731
0.962259 0.127905 0.495747
0.008397 0.235903 0.496857
0.118695 0.237494 0.496873
0.246339 0.239335 0.496892
0.383367 0.241311 0.496912
0.526513 0.243384 0.496934
0.658147 0.245440 0.496955
0.783250 0.247395 0.496975
0.884101 0.249203 0.496993
0.964763 0.250686 0.497009
0.011823 0.367711 0.498212
0.122120 0.369302 0.498228
0.249764 0.371143 0.498247
0.386793 0.373119 0.498267
0.529675 0.375191 0.498289
0.661309 0.377248 0.498310
0.786412 0.379203 0.498330
0.886789 0.381011 0.498348
0.967451 0.382493 0.498364
0.015415 0.505924 0.499633
0.125713 0.507515 0.499649
0.253356 0.509356 0.499668
0.390385 0.511333 0.499688
0.532991 0.513405 0.499709
0.664625 0.515462 0.499731
0.789728 0.517417 0.499751
0.889607 0.519224 0.499769
0.970269 0.520707 0.499785
0.018980 0.643095 0.501043
0.129278 0.644686 0.501059
0.256922 0.646527 0.501078
0.393950 0.648503 0.501098
0.536282 0.650576 0.501120
0.667916 0.652632 0.501141
0.793019 0.654587 0.501161
0.892404 0.656395 0.501179
0.973067 0.657878 0.501195
0.022369 0.773459 0.502383
0.132666 0.775050 0.502399
0.260310 0.776891 0.502418
0.397338 0.778867 0.502438
0.539409 0.780940 0.502460
0.671044 0.782997 0.502481
0.796146 0.784951 0.502501
0.895063 0.786759 0.502520
0.975725 0.788242 0.502535
0.025502 0.879915 0.503622
0.135799 0.881267 0.503639
0.263443 0.882832 0.503657
0.400472 0.884512 0.503678
0.542302 0.886273 0.503699
0.673936 0.888021 0.503720
0.799039 0.889683 0.503740
0.897521 0.891219 0.503759
0.978183 0.892480 0.503774
0.028072 0.963969 0.504639
0.138369 0.965321 0.504655
0.266013 0.966886 0.504674
0.403042 0.968566 0.504694
0.544674 0.970328 0.504716
0.676308 0.972076 0.504737
0.801199 0.973737 0.504757
0.899538 0.975274 0.504775
0.980200 0.976534 0.504791
0.002449 0.007028 0.635463
0.112746 0.008619 0.635479
0.240390 0.010460 0.635498
0.377419 0.012436 0.635518
0.521022 0.014508 0.635539
0.652656 0.016565 0.635561
0.777759 0.018520 0.635581
0.879433 0.020328 0.635599
0.960096 0.021810 0.635614
0.005206 0.113123 0.636553
0.115504 0.114713 0.636570
0.243147 0.116554 0.636588
0.380176 0.118531 0.636609
0.523567 0.120603 0.636630
0.655202 0.122660 0.636651
0.780304 0.124615 0.636671
0.881597 0.126422 0.636690
0.962259 0.127905 0.636705
0.008397 0.235903 0.637815
0.118695 0.237494 0.637832
0.246339 0.239335 0.637851
0.383367 0.241311 0.637871
0.526513 0.243384 0.637892
0.658147 0.245440 0.637913
0.783250 0.247395 0.637933
0.884101 0.249203 0.637952
0.964763 0.250686 0.637967
0.011823 0.367711 0.639170
0.122120 0.369302 0.639187
0.249764 0.371143 0.639206
0.386793 0.373119 0.639226
0.529675 0.375191 0.639247
0.661309 0.377248 0.639268
0.786412 0.379203 0.639288
0.886789 0.381011 0.639307
0.967451 0.382493 0.639322
0.015415 0.505924 0.640591
0.125713 0.507515 0.640608
0.253356 0.509356 0.640626
0.390385 0.511333 0.640647
0.532991 0.513405 0.640668
0.664625 0.515462 0.640689
0.789728 0.517417 0.640709
0.889607 0.519224 0.640728
0.970269 0.520707 0.640743
0.018980 0.643095 0.642001
0.129278 0.644686 0.642018
0.256922 0.646527 0.642037
0.393950 0.648503 0.642057
0.536282 0.650576 0.642078
0.667916 0.652632 0.642099
0.793019 0.654587 0.642119
0.892404 0.656395 0.642138
0.973067 0.657878 0.642153
0.022369 0.773459 0.643341
0.132666 0.775050 0.643358
0.260310 0.776891 0.643377
0.397338 0.778867 0.643397
0.539409 0.780940 0.643418
0.671044 0.782997 0.643439
0.796146 0.784951 0.643460
0.895063 0.786759 0.643478
0.975725 0.788242 0.643493
0.025502 0.879915 0.644581
0.135799 0.881267 0.644597
0.263443 0.882832 0.644616
0.400472 0.884512 0.644636
0.542302 0.886273 0.644658
0.673936 0.888021 0.644679
0.799039 0.889683 0.644699
0.897521 0.891219 0.644717
0.978183 0.892480 0.644733
0.028072 0.963969 0.645597
0.138369 0.965321 0.645614
0.266013 0.966886 0.645633
0.403042 0.968566 0.645653
0.544674 0.970328 0.645674
0.676308 0.972076 0.645695
0.801199 0.973737 0.645715
0.899538 0.975274 0.645734
0.980200 0.976534 0.645749
0.002449 0.007028 0.769427
0.112746 0.008619 0.769443
0.240390 0.010460 0.769462
0.377419 0.012436 0.769482
0.521022 0.014508 0.769504
0.652656 0.016565 0.769525
0.777759 0.018520 0.769545
0.879433 0.020328 0.769563
0.960096 0.021810 0.769579
0.005206 0.113123 0.770517
0.115504 0.114713 0.770534
0.243147 0.116554 0.770553
0.380176 0.118531 0.770573
0.523567 0.120603 0.770594
0.655202 0.122660 0.770615
0.780304 0.124615 0.770635
0.881597 0.126422 0.770654
0.962259 0.127905 0.770669
0.008397 0.235903 0.771779
0.118695 0.237494 0.771796
0.246339 0.239335 0.771815
0.383367 0.241311 0.771835
0.526513 0.243384 0.771856
0.658147 0.245440 0.771878
0.783250 0.247395 0.771898
0.884101 0.249203 0.771916
0.964763 0.250686 0.771931
0.011823 0.367711 0.773134
0.122120 0.369302 0.773151
0.249764 0.371143 0.773170
0.386793 0.373119 0.773190
0.529675 0.375191 0.773211
0.661309 0.377248 0.773232
0.786412 0.379203 0.773253
0.886789 0.381011 0.773271
0.967451 0.382493 0.773286
0.015415 0.505924 0.774555
0.125713 0.507515 0.774572
0.253356 0.509356 0.774591
0.390385 0.511333 0.774611
0.532991 0.513405 0.774632
0.664625 0.515462 0.774653
0.789728 0.517417 0.774673
0.889607 0.519224 0.774692
0.970269 0.520707 0.774707
0.018980 0.643095 0.775965
0.129278 0.644686 0.775982
0.256922 0.646527 0.776001
0.393950 0.648503 0.776021
0.536282 0.650576 0.776042
0.667916 0.652632 0.776063
0.793019 0.654587 0.776084
0.892404 0.656395 0.776102
0.973067 0.657878 0.776117
0.022369 0.773459 0.777306
0.132666 0.775050 0.777322
0.260310 0.776891 0.777341
0.397338 0.778867 0.777361
0.539409 0.780940 0.777382
0.671044 0.782997 0.777404
0.796146 0.784951 0.777424
0.895063 0.786759 0.777442
0.975725 0.788242 0.777458
0.025502 0.879915 0.778545
0.135799 0.881267 0.778561
0.263443 0.882832 0.778580
0.400472 0.884512 0.778600
0.542302 0.886273 0.778622
0.673936 0.888021 0.778643
0.799039 0.889683 0.778663
0.897521 0.891219 0.778682
0.978183 0.892480 0.778697
0.028072 0.963969 0.779561
0.138369 0.965321 0.779578
0.266013 0.966886 0.779597
0.403042 0.968566 0.779617
0.544674 0.970328 0.779638
0.676308 0.972076 0.779659
0.801199 0.973737 0.779680
0.899538 0.975274 0.779698
0.980200 0.976534 0.779713
0.002449 0.007028 0.879317
0.112746 0.008619 0.879331
0.240390 0.010460 0.879347
0.377419 0.012436 0.879364
0.521022 0.014508 0.879382
0.652656 0.016565 0.879400
0.777759 0.018520 0.879417
0.879433 0.020328 0.879433
0.960096 0.021810 0.879446
0.005206 0.113123 0.880244
0.115504 0.114713 0.880258
0.243147 0.116554 0.880274
0.380176 0.118531 0.880291
0.523567 0.120603 0.880309
0.655202 0.122660 0.880327
0.780304 0.124615 0.880344
0.881597 0.126422 0.880360
0.962259 0.127905 0.880373
0.008397 0.235903 0.881317
0.118695 0.237494 0.881330
0.246339 0.239335 0.881347
0.383367 0.241311 0.881364
0.526513 0.243384 0.881382
0.658147 0.245440 0.881400
0.783250 0.247395 0.881417
0.884101 0.249203 0.881433
0.964763 0.250686 0.881446
0.011823 0.367711 0.882468
0.122120 0.369302 0.882482
0.249764 0.371143 0.882498
0.386793 0.373119 0.882516
0.529675 0.375191 0.882534
0.661309 0.377248 0.882552
0.786412 0.379203 0.882569
0.886789 0.381011 0.882585
0.967451 0.382493 0.882597
0.015415 0.505924 0.883676
0.125713 0.507515 0.883690
0.253356 0.509356 0.883706
0.390385 0.511333 0.883723
0.532991 0.513405 0.883741
0.664625 0.515462 0.883759
0.789728 0.517417 0.883776
0.889607 0.519224 0.883792
0.970269 0.520707 0.883805
0.018980 0.643095 0.884875
0.129278 0.644686 0.884889
0.256922 0.646527 0.884905
0.393950 0.648503 0.884922
0.536282 0.650576 0.884940
0.667916 0.652632 0.884958
0.793019 0.654587 0.884975
0.892404 0.656395 0.884991
0.973067 0.657878 0.885004
0.022369 0.773459 0.886014
0.132666 0.775050 0.886028
0.260310 0.776891 0.886044
0.397338 0.778867 0.886061
0.539409 0.780940 0.886079
0.671044 0.782997 0.886097
0.796146 0.784951 0.886114
0.895063 0.786759 0.886130
0.975725 0.788242 0.886143
0.025502 0.879915 0.887067
0.135799 0.881267 0.887081
0.263443 0.882832 0.887097
0.400472 0.884512 0.887114
0.542302 0.886273 0.887133
0.673936 0.888021 0.887151
0.799039 0.889683 0.887168
0.897521 0.891219 0.887183
0.978183 0.892480 0.887196
0.028072 0.963969 0.887931
0.138369 0.965321 0.887945
0.266013 0.966886 0.887961
0.403042 0.968566 0.887979
0.544674 0.970328 0.887997
0.676308 0.972076 0.888015
0.801199 0.973737 0.888032
0.899538 0.975274 0.888047
0.980200 0.976534 0.888060
0.002449 0.007028 0.965692
0.112746 0.008619 0.965706
0.240390 0.010460 0.965722
0.377419 0.012436 0.965740
0.521022 0.014508 0.965758
0.652656 0.016565 0.965776
0.777759 0.018520 0.965793
0.879433 0.020328 0.965809
0.960096 0.021810 0.965822
0.005206 0.113123 0.966619
0.115504 0.114713 0.966633
0.243147 0.116554 0.966649
0.380176 0.118531 0.966667
0.523567 0.120603 0.966685
0.655202 0.122660 0.966703
0.780304 0.124615 0.966720
0.881597 0.126422 0.966736
0.962259 0.127905 0.966749
0.008397 0.235903 0.967692
0.118695 0.237494 0.967706
0.246339 0.239335 0.967722
0.383367 0.241311 0.967740
0.526513 0.243384 0.967758
0.658147 0.245440 0.967776
0.783250 0.247395 0.967793
0.884101 0.249203 0.967809
0.964763 0.250686 0.967821
0.011823 0.367711 0.968844
0.122120 0.369302 0.968858
0.249764 0.371143 0.968874
0.386793 0.373119 0.968891
0.529675 0.375191 0.968909
0.661309 0.377248 0.968927
0.786412 0.379203 0.968944
0.886789 0.381011 0.968960
0.967451 0.382493 0.968973
0.015415 0.505924 0.970052
0.125713 0.507515 0.970066
0.253356 0.509356 0.970082
0.390385 0.511333 0.970099
0.532991 0.513405 0.970117
0.664625 0.515462 0.970135
0.789728 0.517417 0.970152
0.889607 0.519224 0.970168
0.970269 0.520707 0.970181
0.018980 0.643095 0.971250
0.129278 0.644686 0.971264
0.256922 0.646527 0.971280
0.393950 0.648503 0.971298
0.536282 0.650576 0.971316
0.667916 0.652632 0.971334
0.793019 0.654587 0.971351
0.892404 0.656395 0.971367
0.973067 0.657878 0.971380
0.022369 0.773459 0.972389
0.132666 0.775050 0.972403
0.260310 0.776891 0.972419
0.397338 0.778867 0.972437
0.539409 0.780940 0.972455
0.671044 0.782997 0.972473
0.796146 0.784951 0.972490
0.895063 0.786759 0.972506
0.975725 0.788242 0.972519
0.025502 0.879915 0.973443
0.135799 0.881267 0.973457
0.263443 0.882832 0.973473
0.400472 0.884512 0.973490
0.542302 0.886273 0.973508
0.673936 0.888021 0.973526
0.799039 0.889683 0.973543
0.897521 0.891219 0.973559
0.978183 0.892480 0.973572
0.028072 0.963969 0.974307
0.138369 0.965321 0.974321
0.266013 0.966886 0.974337
0.403042 0.968566 0.974354
0.544674 0.970328 0.974372
0.676308 0.972076 0.974390
0.801199 0.973737 0.974407
0.899538 0.975274 0.974423
0.980200 0.976534 0.974436
