01_Film_Emulation/Kodak/Kodak_2393_D55.cube
# Kodak 2393 D55 Film Emulation LUT
# Professional Film Print Stock Emulation
# Created for Cinematic Color Grading
# Format: 3D Cube LUT
TITLE "Kodak_2393_D55"
# LUT Configuration
LUT_3D_SIZE 5
DOMAIN_MIN 0.0 0.0 0.0
DOMAIN_MAX 1.0 1.0 1.0
0.002449 0.007028 0.009295
0.240390 0.010460 0.009328
0.521022 0.014508 0.009368
0.777759 0.018520 0.009407
0.960096 0.021810 0.009439
0.008397 0.235903 0.011520
0.246339 0.239335 0.011553
0.526513 0.243384 0.011592
0.783250 0.247395 0.011631
0.964763 0.250686 0.011663
0.015415 0.505924 0.014144
0.253356 0.509356 0.014178
0.532991 0.513405 0.014217
0.789728 0.517417 0.014256
0.970269 0.520707 0.014288
0.022369 0.773459 0.016745
0.260310 0.776891 0.016778
0.539409 0.780940 0.016817
0.796146 0.784951 0.016856
0.975725 0.788242 0.016888
0.028072 0.963969 0.018878
0.266013 0.966886 0.018911
0.544674 0.970328 0.018950
0.801199 0.973737 0.018989
0.980200 0.976534 0.019021
0.002449 0.007028 0.231678
0.240390 0.010460 0.231712
0.521022 0.014508 0.231751
0.777759 0.018520 0.231790
0.960096 0.021810 0.231822
0.008397 0.235903 0.233903
0.246339 0.239335 0.233936
0.526513 0.243384 0.233976
0.783250 0.247395 0.234015
0.964763 0.250686 0.234047
0.015415 0.505924 0.236528
0.253356 0.509356 0.236561
0.532991 0.513405 0.236600
0.789728 0.517417 0.236639
0.970269 0.520707 0.236671
0.022369 0.773459 0.239128
0.260310 0.776891 0.239161
0.539409 0.780940 0.239201
0.796146 0.784951 0.239240
0.975725 0.788242 0.239272
0.028072 0.963969 0.241261
0.266013 0.966886 0.241294
0.544674 0.970328 0.241334
0.801199 0.973737 0.241373
0.980200 0.976534 0.241405
0.002449 0.007028 0.494504
0.240390 0.010460 0.494539
0.521022 0.014508 0.494581
0.777759 0.018520 0.494622
0.960096 0.021810 0.494656
0.008397 0.235903 0.496857
0.246339 0.239335 0.496892
0.526513 0.243384 0.496934
0.783250 0.247395 0.496975
0.964763 0.250686 0.497009
0.015415 0.505924 0.499633
0.253356 0.509356 0.499668
0.532991 0.513405 0.499709
0.789728 0.517417 0.499751
0.970269 0.520707 0.499785
0.022369 0.773459 0.502383
0.260310 0.776891 0.502418
0.539409 0.780940 0.502460
0.796146 0.784951 0.502501
0.975725 0.788242 0.502535
0.028072 0.963969 0.504639
0.266013 0.966886 0.504674
0.544674 0.970328 0.504716
0.801199 0.973737 0.504757
0.980200 0.976534 0.504791
0.002449 0.007028 0.769427
0.240390 0.010460 0.769462
0.521022 0.014508 0.769504
0.777759 0.018520 0.769545
0.960096 0.021810 0.769579
0.008397 0.235903 0.771779
0.246339 0.239335 0.771815
0.526513 0.243384 0.771856
0.783250 0.247395 0.771898
0.964763 0.250686 0.771931
0.015415 0.505924 0.774555
0.253356 0.509356 0.774591
0.532991 0.513405 0.774632
0.789728 0.517417 0.774673
0.970269 0.520707 0.774707
0.022369 0.773459 0.777306
0.260310 0.776891 0.777341
0.539409 0.780940 0.777382
0.796146 0.784951 0.777424
0.975725 0.788242 0.777458
0.028072 0.963969 0.779561
0.266013 0.966886 0.779597
0.544674 0.970328 0.779638
0.801199 0.973737 0.779680
0.980200 0.976534 0.779713
0.002449 0.007028 0.965692
0.240390 0.010460 0.965722
0.521022 0.014508 0.965758
0.777759 0.018520 0.965793
0.960096 0.021810 0.965822
0.008397 0.235903 0.967692
0.246339 0.239335 0.967722
0.526513 0.243384 0.967758
0.783250 0.247395 0.967793
0.964763 0.250686 0.967821
0.015415 0.505924 0.970052
0.253356 0.509356 0.970082
0.532991 0.513405 0.970117
0.789728 0.517417 0.970152
0.970269 0.520707 0.970181
0.022369 0.773459 0.972389
0.260310 0.776891 0.972419
0.539409 0.780940 0.972455
0.796146 0.784951 0.972490
0.975725 0.788242 0.972519
0.028072 0.963969 0.974307
0.266013 0.966886 0.974337
0.544674 0.970328 0.974372
0.801199 0.973737 0.974407
0.980200 0.976534 0.974436
