01_Film_Emulation/Kodak/Kodak_2393_D55.cube
# Kodak 2393 D55 Film Emulation LUT
# Professional Film Print Stock Emulation
# Created for Cinematic Color Grading
# Format: 3D Cube LUT
TITLE "Kodak_2393_D55"
# LUT Configuration
LUT_3D_SIZE 33
DOMAIN_MIN 0.0 0.0 0.0
DOMAIN_MAX 1.0 1.0 1.0
0.002449 0.007028 0.009295
0.027195 0.007385 0.009298
0.054285 0.007775 0.009302
0.082925 0.008188 0.009306
0.112746 0.008619 0.009310
0.143530 0.009063 0.009315
0.175131 0.009518 0.009319
0.207444 0.009984 0.009324
0.240390 0.010460 0.009328
0.273907 0.010943 0.009333
0.307943 0.011434 0.009338
0.342459 0.011932 0.009343
0.377419 0.012436 0.009348
0.412792 0.012946 0.009352
0.448554 0.013462 0.009358
0.484681 0.013983 0.009363
0.521022 0.014508 0.009368
0.554451 0.015031 0.009373
0.587546 0.015548 0.009378
0.620289 0.016059 0.009383
0.652656 0.016565 0.009388
0.684621 0.017065 0.009393
0.716152 0.017557 0.009397
0.747212 0.018043 0.009402
0.777759 0.018520 0.009407
0.806576 0.018988 0.009411
0.831515 0.019447 0.009416
0.855836 0.019894 0.009420
0.879433 0.020328 0.009424
0.902154 0.020745 0.009428
0.923747 0.021142 0.009432
0.943716 0.021509 0.009436
0.960096 0.021810 0.009439
0.003068 0.030831 0.009526
0.027814 0.031188 0.009530
0.054904 0.031579 0.009534
0.083544 0.031992 0.009538
0.113365 0.032422 0.009542
0.144149 0.032866 0.009546
0.175750 0.033322 0.009551
0.208063 0.033788 0.009555
0.241009 0.034263 0.009560
0.274525 0.034747 0.009564
0.308562 0.035238 0.009569
0.343078 0.035735 0.009574
0.378037 0.036240 0.009579
0.413411 0.036750 0.009584
0.449172 0.037266 0.009589
0.485300 0.037787 0.009594
0.521593 0.038312 0.009599
0.555022 0.038834 0.009604
0.588117 0.039351 0.009609
0.620860 0.039863 0.009614
0.653227 0.040369 0.009619
0.685192 0.040868 0.009624
0.716723 0.041361 0.009629
0.747784 0.041846 0.009633
0.778330 0.042324 0.009638
0.807062 0.042792 0.009643
0.832001 0.043250 0.009647
0.856321 0.043697 0.009651
0.879919 0.044131 0.009656
0.902639 0.044549 0.009660
0.924233 0.044946 0.009664
0.944202 0.045313 0.009667
0.960581 0.045614 0.009670
0.003745 0.056889 0.009780
0.028491 0.057246 0.009783
0.055581 0.057637 0.009787
0.084221 0.058050 0.009791
0.114042 0.058480 0.009795
0.144826 0.058924 0.009799
0.176427 0.059380 0.009804
0.208740 0.059846 0.009808
0.241686 0.060321 0.009813
0.275203 0.060804 0.009818
0.309239 0.061295 0.009822
0.343755 0.061793 0.009827
0.378714 0.062297 0.009832
0.414088 0.062807 0.009837
0.449850 0.063323 0.009842
0.485977 0.063844 0.009847
0.522218 0.064370 0.009852
0.555647 0.064892 0.009857
0.588743 0.065409 0.009862
0.621486 0.065921 0.009867
0.653852 0.066426 0.009872
0.685817 0.066926 0.009877
0.717348 0.067419 0.009882
0.748409 0.067904 0.009887
0.778955 0.068381 0.009891
0.807593 0.068850 0.009896
0.832532 0.069308 0.009900
0.856853 0.069755 0.009905
0.880450 0.070189 0.009909
0.903171 0.070606 0.009913
0.924764 0.071003 0.009917
0.944733 0.071371 0.009920
0.961112 0.071672 0.009923
0.004461 0.084438 0.010047
0.029207 0.084795 0.010051
0.056297 0.085185 0.010055
0.084937 0.085598 0.010059
0.114758 0.086029 0.010063
0.145542 0.086473 0.010067
0.177143 0.086928 0.010072
0.209456 0.087394 0.010076
0.242402 0.087870 0.010081
0.275919 0.088353 0.010085
0.309955 0.088844 0.010090
0.344471 0.089342 0.010095
0.379430 0.089846 0.010100
0.414804 0.090356 0.010105
0.450566 0.090872 0.010110
0.486693 0.091393 0.010115
0.522879 0.091918 0.010120
0.556308 0.092441 0.010125
0.589404 0.092958 0.010130
0.622146 0.093469 0.010135
0.654513 0.093975 0.010140
0.686478 0.094475 0.010145
0.718009 0.094967 0.010150
0.749070 0.095453 0.010154
0.779616 0.095930 0.010159
0.808155 0.096398 0.010164
0.833094 0.096857 0.010168
0.857415 0.097304 0.010172
0.881012 0.097738 0.010177
0.903733 0.098155 0.010181
0.925326 0.098552 0.010185
0.945295 0.098919 0.010188
0.961674 0.099220 0.010191
0.005206 0.113123 0.010326
0.029953 0.113479 0.010330
0.057043 0.113870 0.010333
0.085683 0.114283 0.010337
0.115504 0.114713 0.010342
0.146287 0.115157 0.010346
0.177888 0.115613 0.010350
0.210201 0.116079 0.010355
0.243147 0.116554 0.010360
0.276664 0.117038 0.010364
0.310701 0.117529 0.010369
0.345217 0.118027 0.010374
0.380176 0.118531 0.010379
0.415549 0.119041 0.010384
0.451311 0.119557 0.010389
0.487439 0.120078 0.010394
0.523567 0.120603 0.010399
0.556996 0.121126 0.010404
0.590092 0.121643 0.010409
0.622835 0.122154 0.010414
0.655202 0.122660 0.010419
0.687166 0.123159 0.010424
0.718697 0.123652 0.010429
0.749758 0.124137 0.010433
0.780304 0.124615 0.010438
0.808740 0.125083 0.010442
0.833679 0.125542 0.010447
0.857999 0.125989 0.010451
0.881597 0.126422 0.010455
0.904318 0.126840 0.010460
0.925911 0.127237 0.010463
0.945880 0.127604 0.010467
0.962259 0.127905 0.010470
0.005976 0.142734 0.010614
0.030722 0.143090 0.010617
0.057812 0.143481 0.010621
0.086452 0.143894 0.010625
0.116273 0.144324 0.010629
0.147057 0.144768 0.010634
0.178658 0.145224 0.010638
0.210971 0.145690 0.010643
0.243917 0.146165 0.010647
0.277434 0.146649 0.010652
0.311471 0.147140 0.010657
0.345986 0.147638 0.010662
0.380946 0.148142 0.010667
0.416319 0.148652 0.010672
0.452081 0.149168 0.010677
0.488208 0.149689 0.010682
0.524277 0.150214 0.010687
0.557706 0.150737 0.010692
0.590802 0.151254 0.010697
0.623545 0.151765 0.010702
0.655912 0.152271 0.010707
0.687876 0.152770 0.010712
0.719407 0.153263 0.010716
0.750468 0.153748 0.010721
0.781015 0.154226 0.010726
0.809343 0.154694 0.010730
0.834283 0.155153 0.010735
0.858603 0.155600 0.010739
0.882201 0.156033 0.010743
0.904921 0.156451 0.010747
0.926515 0.156848 0.010751
0.946483 0.157215 0.010755
0.962863 0.157516 0.010758
0.006766 0.173130 0.010909
0.031512 0.173487 0.010913
0.058602 0.173878 0.010917
0.087242 0.174291 0.010921
0.117063 0.174721 0.010925
0.147847 0.175165 0.010929
0.179448 0.175621 0.010934
0.211761 0.176087 0.010938
0.244707 0.176562 0.010943
0.278224 0.177046 0.010948
0.312261 0.177537 0.010952
0.346776 0.178034 0.010957
0.381736 0.178539 0.010962
0.417109 0.179049 0.010967
0.452871 0.179565 0.010972
0.488998 0.180086 0.010977
0.525007 0.180611 0.010982
0.558435 0.181133 0.010987
0.591531 0.181651 0.010992
0.624274 0.182162 0.010997
0.656641 0.182668 0.011002
0.688606 0.183167 0.011007
0.720137 0.183660 0.011012
0.751197 0.184145 0.011017
0.781744 0.184623 0.011021
0.809963 0.185091 0.011026
0.834902 0.185549 0.011030
0.859223 0.185996 0.011035
0.882821 0.186430 0.011039
0.905541 0.186848 0.011043
0.927134 0.187245 0.011047
0.947103 0.187612 0.011050
0.963483 0.187913 0.011053
0.007574 0.204212 0.011212
0.032320 0.204569 0.011215
0.059410 0.204960 0.011219
0.088050 0.205373 0.011223
0.117871 0.205803 0.011227
0.148655 0.206247 0.011231
0.180256 0.206703 0.011236
0.212569 0.207169 0.011240
0.245515 0.207644 0.011245
0.279031 0.208128 0.011250
0.313068 0.208619 0.011254
0.347584 0.209116 0.011259
0.382543 0.209621 0.011264
0.417917 0.210131 0.011269
0.453679 0.210647 0.011274
0.489806 0.211168 0.011279
0.525752 0.211693 0.011284
0.559181 0.212215 0.011289
0.592277 0.212732 0.011294
0.625020 0.213244 0.011299
0.657387 0.213750 0.011304
0.689351 0.214249 0.011309
0.720882 0.214742 0.011314
0.751943 0.215227 0.011319
0.782490 0.215705 0.011323
0.810597 0.216173 0.011328
0.835536 0.216631 0.011332
0.859857 0.217078 0.011337
0.883455 0.217512 0.011341
0.906175 0.217930 0.011345
0.927768 0.218327 0.011349
0.947737 0.218694 0.011352
0.964117 0.218995 0.011355
0.008397 0.235903 0.011520
0.033144 0.236260 0.011523
0.060234 0.236651 0.011527
0.088874 0.237064 0.011531
0.118695 0.237494 0.011535
0.149479 0.237938 0.011539
0.181079 0.238394 0.011544
0.213393 0.238860 0.011548
0.246339 0.239335 0.011553
0.279855 0.239818 0.011558
0.313892 0.240309 0.011562
0.348408 0.240807 0.011567
0.383367 0.241311 0.011572
0.418741 0.241821 0.011577
0.454502 0.242337 0.011582
0.490630 0.242858 0.011587
0.526513 0.243384 0.011592
0.559941 0.243906 0.011597
0.593037 0.244423 0.011602
0.625780 0.244935 0.011607
0.658147 0.245440 0.011612
0.690112 0.245940 0.011617
0.721643 0.246433 0.011622
0.752703 0.246918 0.011627
0.783250 0.247395 0.011631
0.811243 0.247864 0.011636
0.836183 0.248322 0.011640
0.860503 0.248769 0.011645
0.884101 0.249203 0.011649
0.906821 0.249621 0.011653
0.928415 0.250018 0.011657
0.948383 0.250385 0.011660
0.964763 0.250686 0.011663
0.009235 0.268143 0.011833
0.033982 0.268500 0.011836
0.061072 0.268890 0.011840
0.089712 0.269303 0.011844
0.119533 0.269733 0.011848
0.150316 0.270177 0.011853
0.181917 0.270633 0.011857
0.214230 0.271099 0.011862
0.247176 0.271574 0.011866
0.280693 0.272058 0.011871
0.314730 0.272549 0.011876
0.349246 0.273047 0.011881
0.384205 0.273551 0.011886
0.419578 0.274061 0.011891
0.455340 0.274577 0.011896
0.491468 0.275098 0.011901
0.527286 0.275623 0.011906
0.560715 0.276146 0.011911
0.593811 0.276663 0.011916
0.626554 0.277174 0.011921
0.658921 0.277680 0.011926
0.690885 0.278179 0.011931
0.722416 0.278672 0.011935
0.753477 0.279157 0.011940
0.784023 0.279635 0.011945
0.811901 0.280103 0.011949
0.836840 0.280562 0.011954
0.861161 0.281009 0.011958
0.884758 0.281442 0.011962
0.907479 0.281860 0.011966
0.929072 0.282257 0.011970
0.949041 0.282624 0.011974
0.965420 0.282925 0.011977
0.010086 0.300883 0.012151
0.034833 0.301240 0.012155
0.061923 0.301630 0.012158
0.090562 0.302043 0.012163
0.120384 0.302473 0.012167
0.151167 0.302917 0.012171
0.182768 0.303373 0.012175
0.215081 0.303839 0.012180
0.248027 0.304315 0.012185
0.281544 0.304798 0.012189
0.315581 0.305289 0.012194
0.350096 0.305787 0.012199
0.385056 0.306291 0.012204
0.420429 0.306801 0.012209
0.456191 0.307317 0.012214
0.492318 0.307838 0.012219
0.528072 0.308363 0.012224
0.561500 0.308886 0.012229
0.594596 0.309403 0.012234
0.627339 0.309914 0.012239
0.659706 0.310420 0.012244
0.691671 0.310920 0.012249
0.723202 0.311412 0.012254
0.754262 0.311898 0.012258
0.784809 0.312375 0.012263
0.812568 0.312843 0.012267
0.837508 0.313302 0.012272
0.861828 0.313749 0.012276
0.885426 0.314183 0.012281
0.908146 0.314600 0.012285
0.929740 0.314997 0.012288
0.949709 0.315364 0.012292
0.966088 0.315665 0.012295
0.010949 0.334083 0.012474
0.035696 0.334440 0.012477
0.062785 0.334831 0.012481
0.091425 0.335244 0.012485
0.121246 0.335674 0.012489
0.152030 0.336118 0.012494
0.183631 0.336574 0.012498
0.215944 0.337040 0.012503
0.248890 0.337515 0.012507
0.282407 0.337998 0.012512
0.316444 0.338489 0.012517
0.350959 0.338987 0.012522
0.385919 0.339491 0.012527
0.421292 0.340002 0.012531
0.457054 0.340517 0.012536
0.493181 0.341038 0.012542
0.528868 0.341564 0.012547
0.562297 0.342086 0.012552
0.595393 0.342603 0.012557
0.628136 0.343115 0.012562
0.660503 0.343621 0.012567
0.692467 0.344120 0.012571
0.723998 0.344613 0.012576
0.755059 0.345098 0.012581
0.785605 0.345575 0.012586
0.813246 0.346044 0.012590
0.838185 0.346502 0.012595
0.862505 0.346949 0.012599
0.886103 0.347383 0.012603
0.908823 0.347801 0.012607
0.930417 0.348198 0.012611
0.950386 0.348565 0.012615
0.966765 0.348866 0.012618
0.011823 0.367711 0.012801
0.036570 0.368068 0.012804
0.063659 0.368458 0.012808
0.092299 0.368871 0.012812
0.122120 0.369302 0.012816
0.152904 0.369746 0.012821
0.184505 0.370201 0.012825
0.216818 0.370667 0.012830
0.249764 0.371143 0.012834
0.283281 0.371626 0.012839
0.317318 0.372117 0.012844
0.351833 0.372615 0.012848
0.386793 0.373119 0.012853
0.422166 0.373629 0.012858
0.457928 0.374145 0.012863
0.494055 0.374666 0.012868
0.529675 0.375191 0.012874
0.563104 0.375714 0.012879
0.596200 0.376231 0.012884
0.628942 0.376742 0.012889
0.661309 0.377248 0.012894
0.693274 0.377748 0.012898
0.724805 0.378240 0.012903
0.755866 0.378726 0.012908
0.786412 0.379203 0.012913
0.813931 0.379671 0.012917
0.838870 0.380130 0.012922
0.863191 0.380577 0.012926
0.886789 0.381011 0.012930
0.909509 0.381428 0.012934
0.931102 0.381825 0.012938
0.951071 0.382192 0.012942
0.967451 0.382493 0.012944
0.012708 0.401736 0.013132
0.037454 0.402093 0.013135
0.064544 0.402484 0.013139
0.093184 0.402897 0.013143
0.123005 0.403327 0.013147
0.153789 0.403771 0.013151
0.185390 0.404227 0.013156
0.217703 0.404693 0.013160
0.250649 0.405168 0.013165
0.284165 0.405652 0.013170
0.318202 0.406143 0.013174
0.352718 0.406640 0.013179
0.387677 0.407145 0.013184
0.423051 0.407655 0.013189
0.458812 0.408171 0.013194
0.494940 0.408692 0.013199
0.530491 0.409217 0.013204
0.563920 0.409739 0.013209
0.597016 0.410256 0.013214
0.629759 0.410768 0.013219
0.662126 0.411274 0.013224
0.694090 0.411773 0.013229
0.725621 0.412266 0.013234
0.756682 0.412751 0.013239
0.787228 0.413229 0.013243
0.814625 0.413697 0.013248
0.839564 0.414155 0.013252
0.863885 0.414602 0.013257
0.887483 0.415036 0.013261
0.910203 0.415454 0.013265
0.931796 0.415851 0.013269
0.951765 0.416218 0.013272
0.968145 0.416519 0.013275
0.013602 0.436136 0.013466
0.038348 0.436492 0.013469
0.065438 0.436883 0.013473
0.094078 0.437296 0.013477
0.123899 0.437726 0.013481
0.154683 0.438170 0.013486
0.186284 0.438626 0.013490
0.218597 0.439092 0.013495
0.251543 0.439567 0.013499
0.285059 0.440051 0.013504
0.319096 0.440542 0.013509
0.353612 0.441040 0.013514
0.388571 0.441544 0.013518
0.423945 0.442054 0.013523
0.459706 0.442570 0.013528
0.495834 0.443091 0.013533
0.531316 0.443616 0.013539
0.564745 0.444138 0.013544
0.597841 0.444656 0.013549
0.630584 0.445167 0.013554
0.662951 0.445673 0.013559
0.694915 0.446172 0.013563
0.726446 0.446665 0.013568
0.757507 0.447150 0.013573
0.788054 0.447628 0.013578
0.815327 0.448096 0.013582
0.840266 0.448555 0.013587
0.864586 0.449002 0.013591
0.888184 0.449435 0.013595
0.910905 0.449853 0.013599
0.932498 0.450250 0.013603
0.952467 0.450617 0.013607
0.968846 0.450918 0.013610
0.014505 0.470886 0.013804
0.039251 0.471243 0.013807
0.066341 0.471634 0.013811
0.094981 0.472047 0.013815
0.124802 0.472477 0.013819
0.155586 0.472921 0.013823
0.187187 0.473377 0.013828
0.219500 0.473843 0.013832
0.252446 0.474318 0.013837
0.285962 0.474802 0.013842
0.319999 0.475293 0.013846
0.354515 0.475790 0.013851
0.389474 0.476295 0.013856
0.424848 0.476805 0.013861
0.460610 0.477321 0.013866
0.496737 0.477842 0.013871
0.532150 0.478367 0.013876
0.565579 0.478889 0.013881
0.598675 0.479407 0.013886
0.631418 0.479918 0.013891
0.663785 0.480424 0.013896
0.695749 0.480923 0.013901
0.727280 0.481416 0.013906
0.758341 0.481901 0.013911
0.788887 0.482379 0.013915
0.816035 0.482847 0.013920
0.840974 0.483305 0.013924
0.865295 0.483753 0.013929
0.888893 0.484186 0.013933
0.911613 0.484604 0.013937
0.933206 0.485001 0.013941
0.953175 0.485368 0.013944
0.969555 0.485669 0.013947
0.015415 0.505924 0.014144
0.040162 0.506281 0.014148
0.067252 0.506672 0.014152
0.095892 0.507085 0.014156
0.125713 0.507515 0.014160
0.156496 0.507959 0.014164
0.188097 0.508415 0.014168
0.220410 0.508881 0.014173
0.253356 0.509356 0.014178
0.286873 0.509840 0.014182
0.320910 0.510331 0.014187
0.355426 0.510828 0.014192
0.390385 0.511333 0.014197
0.425758 0.511843 0.014202
0.461520 0.512359 0.014207
0.497648 0.512880 0.014212
0.532991 0.513405 0.014217
0.566420 0.513927 0.014222
0.599515 0.514444 0.014227
0.632258 0.514956 0.014232
0.664625 0.515462 0.014237
0.696590 0.515961 0.014242
0.728121 0.516454 0.014247
0.759181 0.516939 0.014251
0.789728 0.517417 0.014256
0.816750 0.517885 0.014260
0.841689 0.518343 0.014265
0.866010 0.518790 0.014269
0.889607 0.519224 0.014274
0.912328 0.519642 0.014278
0.933921 0.520039 0.014281
0.953890 0.520406 0.014285
0.970269 0.520707 0.014288
0.016321 0.540759 0.014483
0.041067 0.541116 0.014486
0.068157 0.541507 0.014490
0.096797 0.541920 0.014494
0.126618 0.542350 0.014498
0.157402 0.542794 0.014503
0.189003 0.543250 0.014507
0.221316 0.543716 0.014512
0.254262 0.544191 0.014516
0.287778 0.544674 0.014521
0.321815 0.545165 0.014526
0.356331 0.545663 0.014530
0.391290 0.546167 0.014535
0.426664 0.546677 0.014540
0.462426 0.547193 0.014545
0.498553 0.547714 0.014550
0.533827 0.548240 0.014556
0.567255 0.548762 0.014561
0.600351 0.549279 0.014566
0.633094 0.549791 0.014571
0.665461 0.550296 0.014576
0.697425 0.550796 0.014580
0.728956 0.551289 0.014585
0.760017 0.551774 0.014590
0.790564 0.552251 0.014595
0.817460 0.552720 0.014599
0.842399 0.553178 0.014604
0.866720 0.553625 0.014608
0.890318 0.554059 0.014612
0.913038 0.554477 0.014616
0.934631 0.554873 0.014620
0.954600 0.555241 0.014624
0.970980 0.555542 0.014627
0.017217 0.575247 0.014818
0.041964 0.575604 0.014822
0.069053 0.575994 0.014825
0.097693 0.576408 0.014829
0.127514 0.576838 0.014834
0.158298 0.577282 0.014838
0.189899 0.577737 0.014842
0.222212 0.578204 0.014847
0.255158 0.578679 0.014851
0.288675 0.579162 0.014856
0.322712 0.579653 0.014861
0.357227 0.580151 0.014866
0.392187 0.580655 0.014871
0.427560 0.581165 0.014876
0.463322 0.581681 0.014881
0.499449 0.582202 0.014886
0.534654 0.582727 0.014891
0.568083 0.583250 0.014896
0.601179 0.583767 0.014901
0.633921 0.584279 0.014906
0.666288 0.584784 0.014911
0.698253 0.585284 0.014916
0.729784 0.585776 0.014920
0.760845 0.586262 0.014925
0.791391 0.586739 0.014930
0.818163 0.587207 0.014934
0.843103 0.587666 0.014939
0.867423 0.588113 0.014943
0.891021 0.588547 0.014947
0.913741 0.588964 0.014951
0.935335 0.589361 0.014955
0.955303 0.589728 0.014959
0.971683 0.590029 0.014962
0.018104 0.609367 0.015150
0.042850 0.609724 0.015153
0.069940 0.610114 0.015157
0.098580 0.610528 0.015161
0.128401 0.610958 0.015165
0.159185 0.611402 0.015169
0.190786 0.611857 0.015174
0.223099 0.612323 0.015178
0.256045 0.612799 0.015183
0.289562 0.613282 0.015188
0.323598 0.613773 0.015193
0.358114 0.614271 0.015197
0.393074 0.614775 0.015202
0.428447 0.615285 0.015207
0.464209 0.615801 0.015212
0.500336 0.616322 0.015217
0.535472 0.616847 0.015222
0.568901 0.617370 0.015227
0.601997 0.617887 0.015233
0.634740 0.618399 0.015237
0.667107 0.618904 0.015242
0.699071 0.619404 0.015247
0.730602 0.619896 0.015252
0.761663 0.620382 0.015257
0.792210 0.620859 0.015261
0.818859 0.621327 0.015266
0.843798 0.621786 0.015270
0.868119 0.622233 0.015275
0.891717 0.622667 0.015279
0.914437 0.623084 0.015283
0.936030 0.623481 0.015287
0.955999 0.623848 0.015290
0.972379 0.624149 0.015293
0.018980 0.643095 0.015478
0.043727 0.643452 0.015481
0.070817 0.643843 0.015485
0.099457 0.644256 0.015489
0.129278 0.644686 0.015493
0.160062 0.645130 0.015497
0.191662 0.645586 0.015502
0.223976 0.646052 0.015506
0.256922 0.646527 0.015511
0.290438 0.647010 0.015516
0.324475 0.647501 0.015520
0.358991 0.647999 0.015525
0.393950 0.648503 0.015530
0.429324 0.649013 0.015535
0.465085 0.649529 0.015540
0.501213 0.650050 0.015545
0.536282 0.650576 0.015550
0.569710 0.651098 0.015555
0.602806 0.651615 0.015560
0.635549 0.652127 0.015565
0.667916 0.652632 0.015570
0.699881 0.653132 0.015575
0.731412 0.653625 0.015580
0.762472 0.654110 0.015585
0.793019 0.654587 0.015589
0.819547 0.655056 0.015594
0.844486 0.655514 0.015598
0.868807 0.655961 0.015603
0.892404 0.656395 0.015607
0.915125 0.656813 0.015611
0.936718 0.657209 0.015615
0.956687 0.657577 0.015618
0.973067 0.657878 0.015621
0.019846 0.676404 0.015801
0.044593 0.676761 0.015805
0.071682 0.677151 0.015809
0.100322 0.677565 0.015813
0.130143 0.677995 0.015817
0.160927 0.678439 0.015821
0.192528 0.678894 0.015826
0.224841 0.679360 0.015830
0.257787 0.679836 0.015835
0.291304 0.680319 0.015839
0.325341 0.680810 0.015844
0.359856 0.681308 0.015849
0.394816 0.681812 0.015854
0.430189 0.682322 0.015859
0.465951 0.682838 0.015864
0.502078 0.683359 0.015869
0.537081 0.683884 0.015874
0.570510 0.684407 0.015879
0.603605 0.684924 0.015884
0.636348 0.685436 0.015889
0.668715 0.685941 0.015894
0.700680 0.686441 0.015899
0.732211 0.686933 0.015904
0.763271 0.687419 0.015908
0.793818 0.687896 0.015913
0.820226 0.688364 0.015918
0.845165 0.688823 0.015922
0.869486 0.689270 0.015926
0.893084 0.689704 0.015931
0.915804 0.690121 0.015935
0.937397 0.690518 0.015938
0.957366 0.690885 0.015942
0.973746 0.691186 0.015945
0.020700 0.709261 0.016121
0.045447 0.709618 0.016124
0.072536 0.710009 0.016128
0.101176 0.710422 0.016132
0.130997 0.710852 0.016136
0.161781 0.711296 0.016140
0.193382 0.711751 0.016145
0.225695 0.712218 0.016149
0.258641 0.712693 0.016154
0.292158 0.713176 0.016159
0.326195 0.713667 0.016163
0.360710 0.714165 0.016168
0.395670 0.714669 0.016173
0.431043 0.715179 0.016178
0.466805 0.715695 0.016183
0.502932 0.716216 0.016188
0.537869 0.716742 0.016193
0.571298 0.717264 0.016198
0.604394 0.717781 0.016203
0.637137 0.718293 0.016208
0.669504 0.718798 0.016213
0.701468 0.719298 0.016218
0.732999 0.719790 0.016223
0.764060 0.720276 0.016228
0.794606 0.720753 0.016232
0.820896 0.721221 0.016237
0.845835 0.721680 0.016241
0.870156 0.722127 0.016246
0.893754 0.722561 0.016250
0.916474 0.722978 0.016254
0.938067 0.723375 0.016258
0.958036 0.723742 0.016261
0.974416 0.724043 0.016264
0.021541 0.741628 0.016435
0.046288 0.741985 0.016439
0.073378 0.742376 0.016443
0.102018 0.742789 0.016447
0.131839 0.743219 0.016451
0.162622 0.743663 0.016455
0.194223 0.744119 0.016459
0.226536 0.744585 0.016464
0.259482 0.745060 0.016469
0.292999 0.745543 0.016473
0.327036 0.746034 0.016478
0.361552 0.746532 0.016483
0.396511 0.747036 0.016488
0.431884 0.747546 0.016493
0.467646 0.748062 0.016498
0.503774 0.748583 0.016503
0.538646 0.749109 0.016508
0.572074 0.749631 0.016513
0.605170 0.750148 0.016518
0.637913 0.750660 0.016523
0.670280 0.751165 0.016528
0.702244 0.751665 0.016533
0.733775 0.752158 0.016538
0.764836 0.752643 0.016542
0.795383 0.753120 0.016547
0.821556 0.753589 0.016552
0.846495 0.754047 0.016556
0.870816 0.754494 0.016560
0.894414 0.754928 0.016565
0.917134 0.755346 0.016569
0.938727 0.755742 0.016572
0.958696 0.756110 0.016576
0.975076 0.756411 0.016579
0.022369 0.773459 0.016745
0.047115 0.773816 0.016748
0.074205 0.774207 0.016752
0.102845 0.774620 0.016756
0.132666 0.775050 0.016760
0.163450 0.775494 0.016764
0.195051 0.775950 0.016769
0.227364 0.776416 0.016773
0.260310 0.776891 0.016778
0.293826 0.777374 0.016783
0.327863 0.777865 0.016788
0.362379 0.778363 0.016792
0.397338 0.778867 0.016797
0.432712 0.779378 0.016802
0.468473 0.779893 0.016807
0.504601 0.780414 0.016812
0.539409 0.780940 0.016817
0.572838 0.781462 0.016822
0.605934 0.781979 0.016827
0.638677 0.782491 0.016832
0.671044 0.782997 0.016837
0.703008 0.783496 0.016842
0.734539 0.783989 0.016847
0.765600 0.784474 0.016852
0.796146 0.784951 0.016856
0.822205 0.785420 0.016861
0.847145 0.785878 0.016865
0.871465 0.786325 0.016870
0.895063 0.786759 0.016874
0.917783 0.787177 0.016878
0.939377 0.787574 0.016882
0.959345 0.787941 0.016885
0.975725 0.788242 0.016888
0.023181 0.803993 0.017048
0.047927 0.804296 0.017052
0.075017 0.804628 0.017056
0.103657 0.804980 0.017060
0.133478 0.805345 0.017064
0.164262 0.805723 0.017068
0.195863 0.806110 0.017073
0.228176 0.806506 0.017077
0.261122 0.806910 0.017082
0.294638 0.807321 0.017086
0.328675 0.807738 0.017091
0.363191 0.808161 0.017096
0.398150 0.808590 0.017101
0.433524 0.809024 0.017106
0.469285 0.809462 0.017111
0.505413 0.809905 0.017116
0.540159 0.810352 0.017121
0.573587 0.810796 0.017126
0.606683 0.811235 0.017131
0.639426 0.811670 0.017136
0.671793 0.812100 0.017141
0.703758 0.812524 0.017146
0.735289 0.812943 0.017151
0.766349 0.813356 0.017155
0.796896 0.813761 0.017160
0.822842 0.814159 0.017165
0.847782 0.814549 0.017169
0.872102 0.814929 0.017173
0.895700 0.815298 0.017178
0.918420 0.815653 0.017182
0.940014 0.815990 0.017186
0.959983 0.816302 0.017189
0.976362 0.816558 0.017192
0.023975 0.829981 0.017345
0.048722 0.830284 0.017349
0.075811 0.830616 0.017353
0.104451 0.830968 0.017357
0.134272 0.831333 0.017361
0.165056 0.831711 0.017365
0.196657 0.832098 0.017370
0.228970 0.832494 0.017374
0.261916 0.832898 0.017379
0.295433 0.833309 0.017384
0.329470 0.833726 0.017388
0.363985 0.834149 0.017393
0.398945 0.834578 0.017398
0.434318 0.835012 0.017403
0.470080 0.835450 0.017408
0.506207 0.835893 0.017413
0.540892 0.836340 0.017418
0.574321 0.836784 0.017423
0.607417 0.837223 0.017428
0.640160 0.837658 0.017433
0.672527 0.838088 0.017438
