assets/luts/film_emulation/Kodak/Kodak_2393_D55_HDR.cube
# Kodak_2393_D55 HDR
# HDR optimized Kodak_2393_D55 for luxury real estate
# Format: 3D Cube LUT
TITLE "Kodak_2393_D55_HDR"
LUT_3D_SIZE 9
DOMAIN_MIN 0.0 0.0 0.0
DOMAIN_MAX 1.0 1.0 1.0
0.000000 0.000000 0.000000
0.138696 0.000000 0.000000
0.267943 0.000000 0.000000
0.393849 0.000000 0.000000
0.517632 0.000000 0.000000
0.639862 0.000000 0.000000
0.760866 0.000000 0.000000
0.880862 0.000000 0.000000
1.000000 0.000000 0.000000
0.000000 0.138696 0.000000
0.138696 0.138696 0.000000
0.267943 0.138696 0.000000
0.393849 0.138696 0.000000
0.517632 0.138696 0.000000
0.639862 0.138696 0.000000
0.760866 0.138696 0.000000
0.880862 0.138696 0.000000
1.000000 0.138696 0.000000
0.000000 0.267943 0.000000
0.138696 0.267943 0.000000
0.267943 0.267943 0.000000
0.393849 0.267943 0.000000
0.517632 0.267943 0.000000
0.639862 0.267943 0.000000
0.760866 0.267943 0.000000
0.880862 0.267943 0.000000
1.000000 0.267943 0.000000
0.000000 0.393849 0.000000
0.138696 0.393849 0.000000
0.267943 0.393849 0.000000
0.393849 0.393849 0.000000
0.517632 0.393849 0.000000
0.639862 0.393849 0.000000
0.760866 0.393849 0.000000
0.880862 0.393849 0.000000
1.000000 0.393849 0.000000
0.000000 0.517632 0.000000
0.138696 0.517632 0.000000
0.267943 0.517632 0.000000
0.393849 0.517632 0.000000
0.517632 0.517632 0.000000
0.639862 0.517632 0.000000
0.760866 0.517632 0.000000
0.880862 0.517632 0.000000
1.000000 0.517632 0.000000
0.000000 0.639862 0.000000
0.138696 0.639862 0.000000
0.267943 0.639862 0.000000
0.393849 0.639862 0.000000
0.517632 0.639862 0.000000
0.639862 0.639862 0.000000
0.760866 0.639862 0.000000
0.880862 0.639862 0.000000
1.000000 0.639862 0.000000
0.000000 0.760866 0.000000
0.138696 0.760866 0.000000
0.267943 0.760866 0.000000
0.393849 0.760866 0.000000
0.517632 0.760866 0.000000
0.639862 0.760866 0.000000
0.760866 0.760866 0.000000
0.880862 0.760866 0.000000
1.000000 0.760866 0.000000
0.000000 0.880862 0.000000
0.138696 0.880862 0.000000
0.267943 0.880862 0.000000
0.393849 0.880862 0.000000
0.517632 0.880862 0.000000
0.639862 0.880862 0.000000
0.760866 0.880862 0.000000
0.880862 0.880862 0.000000
1.000000 0.880862 0.000000
0.000000 1.000000 0.000000
0.138696 1.000000 0.000000
0.267943 1.000000 0.000000
0.393849 1.000000 0.000000
0.517632 1.000000 0.000000
0.639862 1.000000 0.000000
0.760866 1.000000 0.000000
0.880862 1.000000 0.000000
1.000000 1.000000 0.000000
0.000000 0.000000 0.138696
0.138696 0.000000 0.138696
0.267943 0.000000 0.138696
0.393849 0.000000 0.138696
0.517632 0.000000 0.138696
0.639862 0.000000 0.138696
0.760866 0.000000 0.138696
0.880862 0.000000 0.138696
1.000000 0.000000 0.138696
0.000000 0.138696 0.138696
0.138696 0.138696 0.138696
0.267943 0.138696 0.138696
0.393849 0.138696 0.138696
0.517632 0.138696 0.138696
0.639862 0.138696 0.138696
0.760866 0.138696 0.138696
0.880862 0.138696 0.138696
1.000000 0.138696 0.138696
0.000000 0.267943 0.138696
0.138696 0.267943 0.138696
0.267943 0.267943 0.138696
0.393849 0.267943 0.138696
0.517632 0.267943 0.138696
0.639862 0.267943 0.138696
0.760866 0.267943 0.138696
0.880862 0.267943 0.138696
1.000000 0.267943 0.138696
0.000000 0.393849 0.138696
0.138696 0.393849 0.138696
0.267943 0.393849 0.138696
0.393849 0.393849 0.138696
0.517632 0.393849 0.138696
0.639862 0.393849 0.138696
0.760866 0.393849 0.138696
0.880862 0.393849 0.138696
1.000000 0.393849 0.138696
0.000000 0.517632 0.138696
0.138696 0.517632 0.138696
0.267943 0.517632 0.138696
0.393849 0.517632 0.138696
0.517632 0.517632 0.138696
0.639862 0.517632 0.138696
0.760866 0.517632 0.138696
0.880862 0.517632 0.138696
1.000000 0.517632 0.138696
0.000000 0.639862 0.138696
0.138696 0.639862 0.138696
0.267943 0.639862 0.138696
0.393849 0.639862 0.138696
0.517632 0.639862 0.138696
0.639862 0.639862 0.138696
0.760866 0.639862 0.138696
0.880862 0.639862 0.138696
1.000000 0.639862 0.138696
0.000000 0.760866 0.138696
0.138696 0.760866 0.138696
0.267943 0.760866 0.138696
0.393849 0.760866 0.138696
0.517632 0.760866 0.138696
0.639862 0.760866 0.138696
0.760866 0.760866 0.138696
0.880862 0.760866 0.138696
1.000000 0.760866 0.138696
0.000000 0.880862 0.138696
0.138696 0.880862 0.138696
0.267943 0.880862 0.138696
0.393849 0.880862 0.138696
0.517632 0.880862 0.138696
0.639862 0.880862 0.138696
0.760866 0.880862 0.138696
0.880862 0.880862 0.138696
1.000000 0.880862 0.138696
0.000000 1.000000 0.138696
0.138696 1.000000 0.138696
0.267943 1.000000 0.138696
0.393849 1.000000 0.138696
0.517632 1.000000 0.138696
0.639862 1.000000 0.138696
0.760866 1.000000 0.138696
0.880862 1.000000 0.138696
1.000000 1.000000 0.138696
0.000000 0.000000 0.267943
0.138696 0.000000 0.267943
0.267943 0.000000 0.267943
0.393849 0.000000 0.267943
0.517632 0.000000 0.267943
0.639862 0.000000 0.267943
0.760866 0.000000 0.267943
0.880862 0.000000 0.267943
1.000000 0.000000 0.267943
0.000000 0.138696 0.267943
0.138696 0.138696 0.267943
0.267943 0.138696 0.267943
0.393849 0.138696 0.267943
0.517632 0.138696 0.267943
0.639862 0.138696 0.267943
0.760866 0.138696 0.267943
0.880862 0.138696 0.267943
1.000000 0.138696 0.267943
0.000000 0.267943 0.267943
0.138696 0.267943 0.267943
0.267943 0.267943 0.267943
0.393849 0.267943 0.267943
0.517632 0.267943 0.267943
0.639862 0.267943 0.267943
0.760866 0.267943 0.267943
0.880862 0.267943 0.267943
1.000000 0.267943 0.267943
0.000000 0.393849 0.267943
0.138696 0.393849 0.267943
0.267943 0.393849 0.267943
0.393849 0.393849 0.267943
0.517632 0.393849 0.267943
0.639862 0.393849 0.267943
0.760866 0.393849 0.267943
0.880862 0.393849 0.267943
1.000000 0.393849 0.267943
0.000000 0.517632 0.267943
0.138696 0.517632 0.267943
0.267943 0.517632 0.267943
0.393849 0.517632 0.267943
0.517632 0.517632 0.267943
0.639862 0.517632 0.267943
0.760866 0.517632 0.267943
0.880862 0.517632 0.267943
1.000000 0.517632 0.267943
0.000000 0.639862 0.267943
0.138696 0.639862 0.267943
0.267943 0.639862 0.267943
0.393849 0.639862 0.267943
0.517632 0.639862 0.267943
0.639862 0.639862 0.267943
0.760866 0.639862 0.267943
0.880862 0.639862 0.267943
1.000000 0.639862 0.267943
0.000000 0.760866 0.267943
0.138696 0.760866 0.267943
0.267943 0.760866 0.267943
0.393849 0.760866 0.267943
0.517632 0.760866 0.267943
0.639862 0.760866 0.267943
0.760866 0.760866 0.267943
0.880862 0.760866 0.267943
1.000000 0.760866 0.267943
0.000000 0.880862 0.267943
0.138696 0.880862 0.267943
0.267943 0.880862 0.267943
0.393849 0.880862 0.267943
0.517632 0.880862 0.267943
0.639862 0.880862 0.267943
0.760866 0.880862 0.267943
0.880862 0.880862 0.267943
1.000000 0.880862 0.267943
0.000000 1.000000 0.267943
0.138696 1.000000 0.267943
0.267943 1.000000 0.267943
0.393849 1.000000 0.267943
0.517632 1.000000 0.267943
0.639862 1.000000 0.267943
0.760866 1.000000 0.267943
0.880862 1.000000 0.267943
1.000000 1.000000 0.267943
0.000000 0.000000 0.393849
0.138696 0.000000 0.393849
0.267943 0.000000 0.393849
0.393849 0.000000 0.393849
0.517632 0.000000 0.393849
0.639862 0.000000 0.393849
0.760866 0.000000 0.393849
0.880862 0.000000 0.393849
1.000000 0.000000 0.393849
0.000000 0.138696 0.393849
0.138696 0.138696 0.393849
0.267943 0.138696 0.393849
0.393849 0.138696 0.393849
0.517632 0.138696 0.393849
0.639862 0.138696 0.393849
0.760866 0.138696 0.393849
0.880862 0.138696 0.393849
1.000000 0.138696 0.393849
0.000000 0.267943 0.393849
0.138696 0.267943 0.393849
0.267943 0.267943 0.393849
0.393849 0.267943 0.393849
0.517632 0.267943 0.393849
0.639862 0.267943 0.393849
0.760866 0.267943 0.393849
0.880862 0.267943 0.393849
1.000000 0.267943 0.393849
0.000000 0.393849 0.393849
0.138696 0.393849 0.393849
0.267943 0.393849 0.393849
0.393849 0.393849 0.393849
0.517632 0.393849 0.393849
0.639862 0.393849 0.393849
0.760866 0.393849 0.393849
0.880862 0.393849 0.393849
1.000000 0.393849 0.393849
0.000000 0.517632 0.393849
0.138696 0.517632 0.393849
0.267943 0.517632 0.393849
0.393849 0.517632 0.393849
0.517632 0.517632 0.393849
0.639862 0.517632 0.393849
0.760866 0.517632 0.393849
0.880862 0.517632 0.393849
1.000000 0.517632 0.393849
0.000000 0.639862 0.393849
0.138696 0.639862 0.393849
0.267943 0.639862 0.393849
0.393849 0.639862 0.393849
0.517632 0.639862 0.393849
0.639862 0.639862 0.393849
0.760866 0.639862 0.393849
0.880862 0.639862 0.393849
1.000000 0.639862 0.393849
0.000000 0.760866 0.393849
0.138696 0.760866 0.393849
0.267943 0.760866 0.393849
0.393849 0.760866 0.393849
0.517632 0.760866 0.393849
0.639862 0.760866 0.393849
0.760866 0.760866 0.393849
0.880862 0.760866 0.393849
1.000000 0.760866 0.393849
0.000000 0.880862 0.393849
0.138696 0.880862 0.393849
0.267943 0.880862 0.393849
0.393849 0.880862 0.393849
0.517632 0.880862 0.393849
0.639862 0.880862 0.393849
0.760866 0.880862 0.393849
0.880862 0.880862 0.393849
1.000000 0.880862 0.393849
0.000000 1.000000 0.393849
0.138696 1.000000 0.393849
0.267943 1.000000 0.393849
0.393849 1.000000 0.393849
0.517632 1.000000 0.393849
0.639862 1.000000 0.393849
0.760866 1.000000 0.393849
0.880862 1.000000 0.393849
1.000000 1.000000 0.393849
0.000000 0.000000 0.517632
0.138696 0.000000 0.517632
0.267943 0.000000 0.517632
0.393849 0.000000 0.517632
0.517632 0.000000 0.517632
0.639862 0.000000 0.517632
0.760866 0.000000 0.517632
0.880862 0.000000 0.517632
1.000000 0.000000 0.517632
0.000000 0.138696 0.517632
0.138696 0.138696 0.517632
0.267943 0.138696 0.517632
0.393849 0.138696 0.517632
0.517632 0.138696 0.517632
0.639862 0.138696 0.517632
0.760866 0.138696 0.517632
0.880862 0.138696 0.517632
1.000000 0.138696 0.517632
0.000000 0.267943 0.517632
0.138696 0.267943 0.517632
0.267943 0.267943 0.517632
0.393849 0.267943 0.517632
0.517632 0.267943 0.517632
0.639862 0.267943 0.517632
0.760866 0.267943 0.517632
0.880862 0.267943 0.517632
1.000000 0.267943 0.517632
0.000000 0.393849 0.517632
0.138696 0.393849 0.517632
0.267943 0.393849 0.517632
0.393849 0.393849 0.517632
0.517632 0.393849 0.517632
0.639862 0.393849 0.517632
0.760866 0.393849 0.517632
0.880862 0.393849 0.517632
1.000000 0.393849 0.517632
0.000000 0.517632 0.517632
0.138696 0.517632 0.517632
0.267943 0.517632 0.517632
0.393849 0.517632 0.517632
0.517632 0.517632 0.517632
0.639862 0.517632 0.517632
0.760866 0.517632 0.517632
0.880862 0.517632 0.517632
1.000000 0.517632 0.517632
0.000000 0.639862 0.517632
0.138696 0.639862 0.517632
0.267943 0.639862 0.517632
0.393849 0.639862 0.517632
0.517632 0.639862 0.517632
0.639862 0.639862 0.517632
0.760866 0.639862 0.517632
0.880862 0.639862 0.517632
1.000000 0.639862 0.517632
0.000000 0.760866 0.517632
0.138696 0.760866 0.517632
0.267943 0.760866 0.517632
0.393849 0.760866 0.517632
0.517632 0.760866 0.517632
0.639862 0.760866 0.517632
0.760866 0.760866 0.517632
0.880862 0.760866 0.517632
1.000000 0.760866 0.517632
0.000000 0.880862 0.517632
0.138696 0.880862 0.517632
0.267943 0.880862 0.517632
0.393849 0.880862 0.517632
0.517632 0.880862 0.517632
0.639862 0.880862 0.517632
0.760866 0.880862 0.517632
0.880862 0.880862 0.517632
1.000000 0.880862 0.517632
0.000000 1.000000 0.517632
0.138696 1.000000 0.517632
0.267943 1.000000 0.517632
0.393849 1.000000 0.517632
0.517632 1.000000 0.517632
0.639862 1.000000 0.517632
0.760866 1.000000 0.517632
0.880862 1.000000 0.517632
1.000000 1.000000 0.517632
0.000000 0.000000 0.639862
0.138696 0.000000 0.639862
0.267943 0.000000 0.639862
0.393849 0.000000 0.639862
0.517632 0.000000 0.639862
0.639862 0.000000 0.639862
0.760866 0.000000 0.639862
0.880862 0.000000 0.639862
1.000000 0.000000 0.639862
0.000000 0.138696 0.639862
0.138696 0.138696 0.639862
0.267943 0.138696 0.639862
0.393849 0.138696 0.639862
0.517632 0.138696 0.639862
0.639862 0.138696 0.639862
0.760866 0.138696 0.639862
0.880862 0.138696 0.639862
1.000000 0.138696 0.639862
0.000000 0.267943 0.639862
0.138696 0.267943 0.639862
0.267943 0.267943 0.639862
0.393849 0.267943 0.639862
0.517632 0.267943 0.639862
0.639862 0.267943 0.639862
0.760866 0.267943 0.639862
0.880862 0.267943 0.639862
1.000000 0.267943 0.639862
0.000000 0.393849 0.639862
0.138696 0.393849 0.639862
0.267943 0.393849 0.639862
0.393849 0.393849 0.639862
0.517632 0.393849 0.639862
0.639862 0.393849 0.639862
0.760866 0.393849 0.639862
0.880862 0.393849 0.639862
1.000000 0.393849 0.639862
0.000000 0.517632 0.639862
0.138696 0.517632 0.639862
0.267943 0.517632 0.639862
0.393849 0.517632 0.639862
0.517632 0.517632 0.639862
0.639862 0.517632 0.639862
0.760866 0.517632 0.639862
0.880862 0.517632 0.639862
1.000000 0.517632 0.639862
0.000000 0.639862 0.639862
0.138696 0.639862 0.639862
0.267943 0.639862 0.639862
0.393849 0.639862 0.639862
0.517632 0.639862 0.639862
0.639862 0.639862 0.639862
0.760866 0.639862 0.639862
0.880862 0.639862 0.639862
1.000000 0.639862 0.639862
0.000000 0.760866 0.639862
0.138696 0.760866 0.639862
0.267943 0.760866 0.639862
0.393849 0.760866 0.639862
0.517632 0.760866 0.639862
0.639862 0.760866 0.639862
0.760866 0.760866 0.639862
0.880862 0.760866 0.639862
1.000000 0.760866 0.639862
0.000000 0.880862 0.639862
0.138696 0.880862 0.639862
0.267943 0.880862 0.639862
0.393849 0.880862 0.639862
0.517632 0.880862 0.639862
0.639862 0.880862 0.639862
0.760866 0.880862 0.639862
0.880862 0.880862 0.639862
1.000000 0.880862 0.639862
0.000000 1.000000 0.639862
0.138696 1.000000 0.639862
0.267943 1.000000 0.639862
0.393849 1.000000 0.639862
0.517632 1.000000 0.639862
0.639862 1.000000 0.639862
0.760866 1.000000 0.639862
0.880862 1.000000 0.639862
1.000000 1.000000 0.639862
0.000000 0.000000 0.760866
0.138696 0.000000 0.760866
0.267943 0.000000 0.760866
0.393849 0.000000 0.760866
0.517632 0.000000 0.760866
0.639862 0.000000 0.760866
0.760866 0.000000 0.760866
0.880862 0.000000 0.760866
1.000000 0.000000 0.760866
0.000000 0.138696 0.760866
0.138696 0.138696 0.760866
0.267943 0.138696 0.760866
0.393849 0.138696 0.760866
0.517632 0.138696 0.760866
0.639862 0.138696 0.760866
0.760866 0.138696 0.760866
0.880862 0.138696 0.760866
1.000000 0.138696 0.760866
0.000000 0.267943 0.760866
0.138696 0.267943 0.760866
0.267943 0.267943 0.760866
0.393849 0.267943 0.760866
0.517632 0.267943 0.760866
0.639862 0.267943 0.760866
0.760866 0.267943 0.760866
0.880862 0.267943 0.760866
1.000000 0.267943 0.760866
0.000000 0.393849 0.760866
0.138696 0.393849 0.760866
0.267943 0.393849 0.760866
0.393849 0.393849 0.760866
0.517632 0.393849 0.760866
0.639862 0.393849 0.760866
0.760866 0.393849 0.760866
0.880862 0.393849 0.760866
1.000000 0.393849 0.760866
0.000000 0.517632 0.760866
0.138696 0.517632 0.760866
0.267943 0.517632 0.760866
0.393849 0.517632 0.760866
0.517632 0.517632 0.760866
0.639862 0.517632 0.760866
0.760866 0.517632 0.760866
0.880862 0.517632 0.760866
1.000000 0.517632 0.760866
0.000000 0.639862 0.760866
0.138696 0.639862 0.760866
0.267943 0.639862 0.760866
0.393849 0.639862 0.760866
0.517632 0.639862 0.760866
0.639862 0.639862 0.760866
0.760866 0.639862 0.760866
0.880862 0.639862 0.760866
1.000000 0.639862 0.760866
0.000000 0.760866 0.760866
0.138696 0.760866 0.760866
0.267943 0.760866 0.760866
0.393849 0.760866 0.760866
0.517632 0.760866 0.760866
0.639862 0.760866 0.760866
0.760866 0.760866 0.760866
0.880862 0.760866 0.760866
1.000000 0.760866 0.760866
0.000000 0.880862 0.760866
0.138696 0.880862 0.760866
0.267943 0.880862 0.760866
0.393849 0.880862 0.760866
0.517632 0.880862 0.760866
0.639862 0.880862 0.760866
0.760866 0.880862 0.760866
0.880862 0.880862 0.760866
1.000000 0.880862 0.760866
0.000000 1.000000 0.760866
0.138696 1.000000 0.760866
0.267943 1.000000 0.760866
0.393849 1.000000 0.760866
0.517632 1.000000 0.760866
0.639862 1.000000 0.760866
0.760866 1.000000 0.760866
0.880862 1.000000 0.760866
1.000000 1.000000 0.760866
0.000000 0.000000 0.880862
0.138696 0.000000 0.880862
0.267943 0.000000 0.880862
0.393849 0.000000 0.880862
0.517632 0.000000 0.880862
0.639862 0.000000 0.880862
0.760866 0.000000 0.880862
0.880862 0.000000 0.880862
1.000000 0.000000 0.880862
0.000000 0.138696 0.880862
0.138696 0.138696 0.880862
0.267943 0.138696 0.880862
0.393849 0.138696 0.880862
0.517632 0.138696 0.880862
0.639862 0.138696 0.880862
0.760866 0.138696 0.880862
0.880862 0.138696 0.880862
1.000000 0.138696 0.880862
0.000000 0.267943 0.880862
0.138696 0.267943 0.880862
0.267943 0.267943 0.880862
0.393849 0.267943 0.880862
0.517632 0.267943 0.880862
0.639862 0.267943 0.880862
0.760866 0.267943 0.880862
0.880862 0.267943 0.880862
1.000000 0.267943 0.880862
0.000000 0.393849 0.880862
0.138696 0.393849 0.880862
0.267943 0.393849 0.880862
0.393849 0.393849 0.880862
0.517632 0.393849 0.880862
0.639862 0.393849 0.880862
0.760866 0.393849 0.880862
0.880862 0.393849 0.880862
1.000000 0.393849 0.880862
0.000000 0.517632 0.880862
0.138696 0.517632 0.880862
0.267943 0.517632 0.880862
0.393849 0.517632 0.880862
0.517632 0.517632 0.880862
0.639862 0.517632 0.880862
0.760866 0.517632 0.880862
0.880862 0.517632 0.880862
1.000000 0.517632 0.880862
0.000000 0.639862 0.880862
0.138696 0.639862 0.880862
0.267943 0.639862 0.880862
0.393849 0.639862 0.880862
0.517632 0.639862 0.880862
0.639862 0.639862 0.880862
0.760866 0.639862 0.880862
0.880862 0.639862 0.880862
1.000000 0.639862 0.880862
0.000000 0.760866 0.880862
0.138696 0.760866 0.880862
0.267943 0.760866 0.880862
0.393849 0.760866 0.880862
0.517632 0.760866 0.880862
0.639862 0.760866 0.880862
0.760866 0.760866 0.880862
0.880862 0.760866 0.880862
1.000000 0.760866 0.880862
0.000000 0.880862 0.880862
0.138696 0.880862 0.880862
0.267943 0.880862 0.880862
0.393849 0.880862 0.880862
0.517632 0.880862 0.880862
0.639862 0.880862 0.880862
0.760866 0.880862 0.880862
0.880862 0.880862 0.880862
1.000000 0.880862 0.880862
0.000000 1.000000 0.880862
0.138696 1.000000 0.880862
0.267943 1.000000 0.880862
0.393849 1.000000 0.880862
0.517632 1.000000 0.880862
0.639862 1.000000 0.880862
0.760866 1.000000 0.880862
0.880862 1.000000 0.880862
1.000000 1.000000 0.880862
0.000000 0.000000 1.000000
0.138696 0.000000 1.000000
0.267943 0.000000 1.000000
0.393849 0.000000 1.000000
0.517632 0.000000 1.000000
0.639862 0.000000 1.000000
0.760866 0.000000 1.000000
0.880862 0.000000 1.000000
1.000000 0.000000 1.000000
0.000000 0.138696 1.000000
0.138696 0.138696 1.000000
0.267943 0.138696 1.000000
0.393849 0.138696 1.000000
0.517632 0.138696 1.000000
0.639862 0.138696 1.000000
0.760866 0.138696 1.000000
0.880862 0.138696 1.000000
1.000000 0.138696 1.000000
0.000000 0.267943 1.000000
0.138696 0.267943 1.000000
0.267943 0.267943 1.000000
0.393849 0.267943 1.000000
0.517632 0.267943 1.000000
0.639862 0.267943 1.000000
0.760866 0.267943 1.000000
0.880862 0.267943 1.000000
1.000000 0.267943 1.000000
0.000000 0.393849 1.000000
0.138696 0.393849 1.000000
0.267943 0.393849 1.000000
0.393849 0.393849 1.000000
0.517632 0.393849 1.000000
0.639862 0.393849 1.000000
0.760866 0.393849 1.000000
0.880862 0.393849 1.000000
1.000000 0.393849 1.000000
0.000000 0.517632 1.000000
0.138696 0.517632 1.000000
0.267943 0.517632 1.000000
0.393849 0.517632 1.000000
0.517632 0.517632 1.000000
0.639862 0.517632 1.000000
0.760866 0.517632 1.000000
0.880862 0.517632 1.000000
1.000000 0.517632 1.000000
0.000000 0.639862 1.000000
0.138696 0.639862 1.000000
0.267943 0.639862 1.000000
0.393849 0.639862 1.000000
0.517632 0.639862 1.000000
0.639862 0.639862 1.000000
0.760866 0.639862 1.000000
0.880862 0.639862 1.000000
1.000000 0.639862 1.000000
0.000000 0.760866 1.000000
0.138696 0.760866 1.000000
0.267943 0.760866 1.000000
0.393849 0.760866 1.000000
0.517632 0.760866 1.000000
0.639862 0.760866 1.000000
0.760866 0.760866 1.000000
0.880862 0.760866 1.000000
1.000000 0.760866 1.000000
0.000000 0.880862 1.000000
0.138696 0.880862 1.000000
0.267943 0.880862 1.000000
0.393849 0.880862 1.000000
0.517632 0.880862 1.000000
0.639862 0.880862 1.000000
0.760866 0.880862 1.000000
0.880862 0.880862 1.000000
1.000000 0.880862 1.000000
0.000000 1.000000 1.000000
0.138696 1.000000 1.000000
0.267943 1.000000 1.000000
0.393849 1.000000 1.000000
0.517632 1.000000 1.000000
0.639862 1.000000 1.000000
0.760866 1.000000 1.000000
0.880862 1.000000 1.000000
1.000000 1.000000 1.000000
