assets/luts/film_emulation/Kodak/Kodak_2393_D55_HDR.cube
# Kodak_2393_D55 HDR
# HDR optimized Kodak_2393_D55 for luxury real estate
# Format: 3D Cube LUT
TITLE "Kodak_2393_D55_HDR"
LUT_3D_SIZE 33
DOMAIN_MIN 0.0 0.0 0.0
DOMAIN_MAX 1.0 1.0 1.0
0.000000 0.000000 0.000000
0.037163 0.000000 0.000000
0.071794 0.000000 0.000000
0.105529 0.000000 0.000000
0.138696 0.000000 0.000000
0.171447 0.000000 0.000000
0.203869 0.000000 0.000000
0.236021 0.000000 0.000000
0.267943 0.000000 0.000000
0.299666 0.000000 0.000000
0.331213 0.000000 0.000000
0.362602 0.000000 0.000000
0.393849 0.000000 0.000000
0.424966 0.000000 0.000000
0.455963 0.000000 0.000000
0.486849 0.000000 0.000000
0.517632 0.000000 0.000000
0.548320 0.000000 0.000000
0.578917 0.000000 0.000000
0.609429 0.000000 0.000000
0.639862 0.000000 0.000000
0.670218 0.000000 0.000000
0.700501 0.000000 0.000000
0.730717 0.000000 0.000000
0.760866 0.000000 0.000000
0.790953 0.000000 0.000000
0.820979 0.000000 0.000000
0.850948 0.000000 0.000000
0.880862 0.000000 0.000000
0.910722 0.000000 0.000000
0.940530 0.000000 0.000000
0.970289 0.000000 0.000000
1.000000 0.000000 0.000000
0.000000 0.037163 0.000000
0.037163 0.037163 0.000000
0.071794 0.037163 0.000000
0.105529 0.037163 0.000000
0.138696 0.037163 0.000000
0.171447 0.037163 0.000000
0.203869 0.037163 0.000000
0.236021 0.037163 0.000000
0.267943 0.037163 0.000000
0.299666 0.037163 0.000000
0.331213 0.037163 0.000000
0.362602 0.037163 0.000000
0.393849 0.037163 0.000000
0.424966 0.037163 0.000000
0.455963 0.037163 0.000000
0.486849 0.037163 0.000000
0.517632 0.037163 0.000000
0.548320 0.037163 0.000000
0.578917 0.037163 0.000000
0.609429 0.037163 0.000000
0.639862 0.037163 0.000000
0.670218 0.037163 0.000000
0.700501 0.037163 0.000000
0.730717 0.037163 0.000000
0.760866 0.037163 0.000000
0.790953 0.037163 0.000000
0.820979 0.037163 0.000000
0.850948 0.037163 0.000000
0.880862 0.037163 0.000000
0.910722 0.037163 0.000000
0.940530 0.037163 0.000000
0.970289 0.037163 0.000000
1.000000 0.037163 0.000000
0.000000 0.071794 0.000000
0.037163 0.071794 0.000000
0.071794 0.071794 0.000000
0.105529 0.071794 0.000000
0.138696 0.071794 0.000000
0.171447 0.071794 0.000000
0.203869 0.071794 0.000000
0.236021 0.071794 0.000000
0.267943 0.071794 0.000000
0.299666 0.071794 0.000000
0.331213 0.071794 0.000000
0.362602 0.071794 0.000000
0.393849 0.071794 0.000000
0.424966 0.071794 0.000000
0.455963 0.071794 0.000000
0.486849 0.071794 0.000000
0.517632 0.071794 0.000000
0.548320 0.071794 0.000000
0.578917 0.071794 0.000000
0.609429 0.071794 0.000000
0.639862 0.071794 0.000000
0.670218 0.071794 0.000000
0.700501 0.071794 0.000000
0.730717 0.071794 0.000000
0.760866 0.071794 0.000000
0.790953 0.071794 0.000000
0.820979 0.071794 0.000000
0.850948 0.071794 0.000000
0.880862 0.071794 0.000000
0.910722 0.071794 0.000000
0.940530 0.071794 0.000000
0.970289 0.071794 0.000000
1.000000 0.071794 0.000000
0.000000 0.105529 0.000000
0.037163 0.105529 0.000000
0.071794 0.105529 0.000000
0.105529 0.105529 0.000000
0.138696 0.105529 0.000000
0.171447 0.105529 0.000000
0.203869 0.105529 0.000000
0.236021 0.105529 0.000000
0.267943 0.105529 0.000000
0.299666 0.105529 0.000000
0.331213 0.105529 0.000000
0.362602 0.105529 0.000000
0.393849 0.105529 0.000000
0.424966 0.105529 0.000000
0.455963 0.105529 0.000000
0.486849 0.105529 0.000000
0.517632 0.105529 0.000000
0.548320 0.105529 0.000000
0.578917 0.105529 0.000000
0.609429 0.105529 0.000000
0.639862 0.105529 0.000000
0.670218 0.105529 0.000000
0.700501 0.105529 0.000000
0.730717 0.105529 0.000000
0.760866 0.105529 0.000000
0.790953 0.105529 0.000000
0.820979 0.105529 0.000000
0.850948 0.105529 0.000000
0.880862 0.105529 0.000000
0.910722 0.105529 0.000000
0.940530 0.105529 0.000000
0.970289 0.105529 0.000000
1.000000 0.105529 0.000000
0.000000 0.138696 0.000000
0.037163 0.138696 0.000000
0.071794 0.138696 0.000000
0.105529 0.138696 0.000000
0.138696 0.138696 0.000000
0.171447 0.138696 0.000000
0.203869 0.138696 0.000000
0.236021 0.138696 0.000000
0.267943 0.138696 0.000000
0.299666 0.138696 0.000000
0.331213 0.138696 0.000000
0.362602 0.138696 0.000000
0.393849 0.138696 0.000000
0.424966 0.138696 0.000000
0.455963 0.138696 0.000000
0.486849 0.138696 0.000000
0.517632 0.138696 0.000000
0.548320 0.138696 0.000000
0.578917 0.138696 0.000000
0.609429 0.138696 0.000000
0.639862 0.138696 0.000000
0.670218 0.138696 0.000000
0.700501 0.138696 0.000000
0.730717 0.138696 0.000000
0.760866 0.138696 0.000000
0.790953 0.138696 0.000000
0.820979 0.138696 0.000000
0.850948 0.138696 0.000000
0.880862 0.138696 0.000000
0.910722 0.138696 0.000000
0.940530 0.138696 0.000000
0.970289 0.138696 0.000000
1.000000 0.138696 0.000000
0.000000 0.171447 0.000000
0.037163 0.171447 0.000000
0.071794 0.171447 0.000000
0.105529 0.171447 0.000000
0.138696 0.171447 0.000000
0.171447 0.171447 0.000000
0.203869 0.171447 0.000000
0.236021 0.171447 0.000000
0.267943 0.171447 0.000000
0.299666 0.171447 0.000000
0.331213 0.171447 0.000000
0.362602 0.171447 0.000000
0.393849 0.171447 0.000000
0.424966 0.171447 0.000000
0.455963 0.171447 0.000000
0.486849 0.171447 0.000000
0.517632 0.171447 0.000000
0.548320 0.171447 0.000000
0.578917 0.171447 0.000000
0.609429 0.171447 0.000000
0.639862 0.171447 0.000000
0.670218 0.171447 0.000000
0.700501 0.171447 0.000000
0.730717 0.171447 0.000000
0.760866 0.171447 0.000000
0.790953 0.171447 0.000000
0.820979 0.171447 0.000000
0.850948 0.171447 0.000000
0.880862 0.171447 0.000000
0.910722 0.171447 0.000000
0.940530 0.171447 0.000000
0.970289 0.171447 0.000000
1.000000 0.171447 0.000000
0.000000 0.203869 0.000000
0.037163 0.203869 0.000000
0.071794 0.203869 0.000000
0.105529 0.203869 0.000000
0.138696 0.203869 0.000000
0.171447 0.203869 0.000000
0.203869 0.203869 0.000000
0.236021 0.203869 0.000000
0.267943 0.203869 0.000000
0.299666 0.203869 0.000000
0.331213 0.203869 0.000000
0.362602 0.203869 0.000000
0.393849 0.203869 0.000000
0.424966 0.203869 0.000000
0.455963 0.203869 0.000000
0.486849 0.203869 0.000000
0.517632 0.203869 0.000000
0.548320 0.203869 0.000000
0.578917 0.203869 0.000000
0.609429 0.203869 0.000000
0.639862 0.203869 0.000000
0.670218 0.203869 0.000000
0.700501 0.203869 0.000000
0.730717 0.203869 0.000000
0.760866 0.203869 0.000000
0.790953 0.203869 0.000000
0.820979 0.203869 0.000000
0.850948 0.203869 0.000000
0.880862 0.203869 0.000000
0.910722 0.203869 0.000000
0.940530 0.203869 0.000000
0.970289 0.203869 0.000000
1.000000 0.203869 0.000000
0.000000 0.236021 0.000000
0.037163 0.236021 0.000000
0.071794 0.236021 0.000000
0.105529 0.236021 0.000000
0.138696 0.236021 0.000000
0.171447 0.236021 0.000000
0.203869 0.236021 0.000000
0.236021 0.236021 0.000000
0.267943 0.236021 0.000000
0.299666 0.236021 0.000000
0.331213 0.236021 0.000000
0.362602 0.236021 0.000000
0.393849 0.236021 0.000000
0.424966 0.236021 0.000000
0.455963 0.236021 0.000000
0.486849 0.236021 0.000000
0.517632 0.236021 0.000000
0.548320 0.236021 0.000000
0.578917 0.236021 0.000000
0.609429 0.236021 0.000000
0.639862 0.236021 0.000000
0.670218 0.236021 0.000000
0.700501 0.236021 0.000000
0.730717 0.236021 0.000000
0.760866 0.236021 0.000000
0.790953 0.236021 0.000000
0.820979 0.236021 0.000000
0.850948 0.236021 0.000000
0.880862 0.236021 0.000000
0.910722 0.236021 0.000000
0.940530 0.236021 0.000000
0.970289 0.236021 0.000000
1.000000 0.236021 0.000000
0.000000 0.267943 0.000000
0.037163 0.267943 0.000000
0.071794 0.267943 0.000000
0.105529 0.267943 0.000000
0.138696 0.267943 0.000000
0.171447 0.267943 0.000000
0.203869 0.267943 0.000000
0.236021 0.267943 0.000000
0.267943 0.267943 0.000000
0.299666 0.267943 0.000000
0.331213 0.267943 0.000000
0.362602 0.267943 0.000000
0.393849 0.267943 0.000000
0.424966 0.267943 0.000000
0.455963 0.267943 0.000000
0.486849 0.267943 0.000000
0.517632 0.267943 0.000000
0.548320 0.267943 0.000000
0.578917 0.267943 0.000000
0.609429 0.267943 0.000000
0.639862 0.267943 0.000000
0.670218 0.267943 0.000000
0.700501 0.267943 0.000000
0.730717 0.267943 0.000000
0.760866 0.267943 0.000000
0.790953 0.267943 0.000000
0.820979 0.267943 0.000000
0.850948 0.267943 0.000000
0.880862 0.267943 0.000000
0.910722 0.267943 0.000000
0.940530 0.267943 0.000000
0.970289 0.267943 0.000000
1.000000 0.267943 0.000000
0.000000 0.299666 0.000000
0.037163 0.299666 0.000000
0.071794 0.299666 0.000000
0.105529 0.299666 0.000000
0.138696 0.299666 0.000000
0.171447 0.299666 0.000000
0.203869 0.299666 0.000000
0.236021 0.299666 0.000000
0.267943 0.299666 0.000000
0.299666 0.299666 0.000000
0.331213 0.299666 0.000000
0.362602 0.299666 0.000000
0.393849 0.299666 0.000000
0.424966 0.299666 0.000000
0.455963 0.299666 0.000000
0.486849 0.299666 0.000000
0.517632 0.299666 0.000000
0.548320 0.299666 0.000000
0.578917 0.299666 0.000000
0.609429 0.299666 0.000000
0.639862 0.299666 0.000000
0.670218 0.299666 0.000000
0.700501 0.299666 0.000000
0.730717 0.299666 0.000000
0.760866 0.299666 0.000000
0.790953 0.299666 0.000000
0.820979 0.299666 0.000000
0.850948 0.299666 0.000000
0.880862 0.299666 0.000000
0.910722 0.299666 0.000000
0.940530 0.299666 0.000000
0.970289 0.299666 0.000000
1.000000 0.299666 0.000000
0.000000 0.331213 0.000000
0.037163 0.331213 0.000000
0.071794 0.331213 0.000000
0.105529 0.331213 0.000000
0.138696 0.331213 0.000000
0.171447 0.331213 0.000000
0.203869 0.331213 0.000000
0.236021 0.331213 0.000000
0.267943 0.331213 0.000000
0.299666 0.331213 0.000000
0.331213 0.331213 0.000000
0.362602 0.331213 0.000000
0.393849 0.331213 0.000000
0.424966 0.331213 0.000000
0.455963 0.331213 0.000000
0.486849 0.331213 0.000000
0.517632 0.331213 0.000000
0.548320 0.331213 0.000000
0.578917 0.331213 0.000000
0.609429 0.331213 0.000000
0.639862 0.331213 0.000000
0.670218 0.331213 0.000000
0.700501 0.331213 0.000000
0.730717 0.331213 0.000000
0.760866 0.331213 0.000000
0.790953 0.331213 0.000000
0.820979 0.331213 0.000000
0.850948 0.331213 0.000000
0.880862 0.331213 0.000000
0.910722 0.331213 0.000000
0.940530 0.331213 0.000000
0.970289 0.331213 0.000000
1.000000 0.331213 0.000000
0.000000 0.362602 0.000000
0.037163 0.362602 0.000000
0.071794 0.362602 0.000000
0.105529 0.362602 0.000000
0.138696 0.362602 0.000000
0.171447 0.362602 0.000000
0.203869 0.362602 0.000000
0.236021 0.362602 0.000000
0.267943 0.362602 0.000000
0.299666 0.362602 0.000000
0.331213 0.362602 0.000000
0.362602 0.362602 0.000000
0.393849 0.362602 0.000000
0.424966 0.362602 0.000000
0.455963 0.362602 0.000000
0.486849 0.362602 0.000000
0.517632 0.362602 0.000000
0.548320 0.362602 0.000000
0.578917 0.362602 0.000000
0.609429 0.362602 0.000000
0.639862 0.362602 0.000000
0.670218 0.362602 0.000000
0.700501 0.362602 0.000000
0.730717 0.362602 0.000000
0.760866 0.362602 0.000000
0.790953 0.362602 0.000000
0.820979 0.362602 0.000000
0.850948 0.362602 0.000000
0.880862 0.362602 0.000000
0.910722 0.362602 0.000000
0.940530 0.362602 0.000000
0.970289 0.362602 0.000000
1.000000 0.362602 0.000000
0.000000 0.393849 0.000000
0.037163 0.393849 0.000000
0.071794 0.393849 0.000000
0.105529 0.393849 0.000000
0.138696 0.393849 0.000000
0.171447 0.393849 0.000000
0.203869 0.393849 0.000000
0.236021 0.393849 0.000000
0.267943 0.393849 0.000000
0.299666 0.393849 0.000000
0.331213 0.393849 0.000000
0.362602 0.393849 0.000000
0.393849 0.393849 0.000000
0.424966 0.393849 0.000000
0.455963 0.393849 0.000000
0.486849 0.393849 0.000000
0.517632 0.393849 0.000000
0.548320 0.393849 0.000000
0.578917 0.393849 0.000000
0.609429 0.393849 0.000000
0.639862 0.393849 0.000000
0.670218 0.393849 0.000000
0.700501 0.393849 0.000000
0.730717 0.393849 0.000000
0.760866 0.393849 0.000000
0.790953 0.393849 0.000000
0.820979 0.393849 0.000000
0.850948 0.393849 0.000000
0.880862 0.393849 0.000000
0.910722 0.393849 0.000000
0.940530 0.393849 0.000000
0.970289 0.393849 0.000000
1.000000 0.393849 0.000000
0.000000 0.424966 0.000000
0.037163 0.424966 0.000000
0.071794 0.424966 0.000000
0.105529 0.424966 0.000000
0.138696 0.424966 0.000000
0.171447 0.424966 0.000000
0.203869 0.424966 0.000000
0.236021 0.424966 0.000000
0.267943 0.424966 0.000000
0.299666 0.424966 0.000000
0.331213 0.424966 0.000000
0.362602 0.424966 0.000000
0.393849 0.424966 0.000000
0.424966 0.424966 0.000000
0.455963 0.424966 0.000000
0.486849 0.424966 0.000000
0.517632 0.424966 0.000000
0.548320 0.424966 0.000000
0.578917 0.424966 0.000000
0.609429 0.424966 0.000000
0.639862 0.424966 0.000000
0.670218 0.424966 0.000000
0.700501 0.424966 0.000000
0.730717 0.424966 0.000000
0.760866 0.424966 0.000000
0.790953 0.424966 0.000000
0.820979 0.424966 0.000000
0.850948 0.424966 0.000000
0.880862 0.424966 0.000000
0.910722 0.424966 0.000000
0.940530 0.424966 0.000000
0.970289 0.424966 0.000000
1.000000 0.424966 0.000000
0.000000 0.455963 0.000000
0.037163 0.455963 0.000000
0.071794 0.455963 0.000000
0.105529 0.455963 0.000000
0.138696 0.455963 0.000000
0.171447 0.455963 0.000000
0.203869 0.455963 0.000000
0.236021 0.455963 0.000000
0.267943 0.455963 0.000000
0.299666 0.455963 0.000000
0.331213 0.455963 0.000000
0.362602 0.455963 0.000000
0.393849 0.455963 0.000000
0.424966 0.455963 0.000000
0.455963 0.455963 0.000000
0.486849 0.455963 0.000000
0.517632 0.455963 0.000000
0.548320 0.455963 0.000000
0.578917 0.455963 0.000000
0.609429 0.455963 0.000000
0.639862 0.455963 0.000000
0.670218 0.455963 0.000000
0.700501 0.455963 0.000000
0.730717 0.455963 0.000000
0.760866 0.455963 0.000000
0.790953 0.455963 0.000000
0.820979 0.455963 0.000000
0.850948 0.455963 0.000000
0.880862 0.455963 0.000000
0.910722 0.455963 0.000000
0.940530 0.455963 0.000000
0.970289 0.455963 0.000000
1.000000 0.455963 0.000000
0.000000 0.486849 0.000000
0.037163 0.486849 0.000000
0.071794 0.486849 0.000000
0.105529 0.486849 0.000000
0.138696 0.486849 0.000000
0.171447 0.486849 0.000000
0.203869 0.486849 0.000000
0.236021 0.486849 0.000000
0.267943 0.486849 0.000000
0.299666 0.486849 0.000000
0.331213 0.486849 0.000000
0.362602 0.486849 0.000000
0.393849 0.486849 0.000000
0.424966 0.486849 0.000000
0.455963 0.486849 0.000000
0.486849 0.486849 0.000000
0.517632 0.486849 0.000000
0.548320 0.486849 0.000000
0.578917 0.486849 0.000000
0.609429 0.486849 0.000000
0.639862 0.486849 0.000000
0.670218 0.486849 0.000000
0.700501 0.486849 0.000000
0.730717 0.486849 0.000000
0.760866 0.486849 0.000000
0.790953 0.486849 0.000000
0.820979 0.486849 0.000000
0.850948 0.486849 0.000000
0.880862 0.486849 0.000000
0.910722 0.486849 0.000000
0.940530 0.486849 0.000000
0.970289 0.486849 0.000000
1.000000 0.486849 0.000000
0.000000 0.517632 0.000000
0.037163 0.517632 0.000000
0.071794 0.517632 0.000000
0.105529 0.517632 0.000000
0.138696 0.517632 0.000000
0.171447 0.517632 0.000000
0.203869 0.517632 0.000000
0.236021 0.517632 0.000000
0.267943 0.517632 0.000000
0.299666 0.517632 0.000000
0.331213 0.517632 0.000000
0.362602 0.517632 0.000000
0.393849 0.517632 0.000000
0.424966 0.517632 0.000000
0.455963 0.517632 0.000000
0.486849 0.517632 0.000000
0.517632 0.517632 0.000000
0.548320 0.517632 0.000000
0.578917 0.517632 0.000000
0.609429 0.517632 0.000000
0.639862 0.517632 0.000000
0.670218 0.517632 0.000000
0.700501 0.517632 0.000000
0.730717 0.517632 0.000000
0.760866 0.517632 0.000000
0.790953 0.517632 0.000000
0.820979 0.517632 0.000000
0.850948 0.517632 0.000000
0.880862 0.517632 0.000000
0.910722 0.517632 0.000000
0.940530 0.517632 0.000000
0.970289 0.517632 0.000000
1.000000 0.517632 0.000000
0.000000 0.548320 0.000000
0.037163 0.548320 0.000000
0.071794 0.548320 0.000000
0.105529 0.548320 0.000000
0.138696 0.548320 0.000000
0.171447 0.548320 0.000000
0.203869 0.548320 0.000000
0.236021 0.548320 0.000000
0.267943 0.548320 0.000000
0.299666 0.548320 0.000000
0.331213 0.548320 0.000000
0.362602 0.548320 0.000000
0.393849 0.548320 0.000000
0.424966 0.548320 0.000000
0.455963 0.548320 0.000000
0.486849 0.548320 0.000000
0.517632 0.548320 0.000000
0.548320 0.548320 0.000000
0.578917 0.548320 0.000000
0.609429 0.548320 0.000000
0.639862 0.548320 0.000000
0.670218 0.548320 0.000000
0.700501 0.548320 0.000000
0.730717 0.548320 0.000000
0.760866 0.548320 0.000000
0.790953 0.548320 0.000000
0.820979 0.548320 0.000000
0.850948 0.548320 0.000000
0.880862 0.548320 0.000000
0.910722 0.548320 0.000000
0.940530 0.548320 0.000000
0.970289 0.548320 0.000000
1.000000 0.548320 0.000000
0.000000 0.578917 0.000000
0.037163 0.578917 0.000000
0.071794 0.578917 0.000000
0.105529 0.578917 0.000000
0.138696 0.578917 0.000000
0.171447 0.578917 0.000000
0.203869 0.578917 0.000000
0.236021 0.578917 0.000000
0.267943 0.578917 0.000000
0.299666 0.578917 0.000000
0.331213 0.578917 0.000000
0.362602 0.578917 0.000000
0.393849 0.578917 0.000000
0.424966 0.578917 0.000000
0.455963 0.578917 0.000000
0.486849 0.578917 0.000000
0.517632 0.578917 0.000000
0.548320 0.578917 0.000000
0.578917 0.578917 0.000000
0.609429 0.578917 0.000000
0.639862 0.578917 0.000000
0.670218 0.578917 0.000000
0.700501 0.578917 0.000000
0.730717 0.578917 0.000000
0.760866 0.578917 0.000000
0.790953 0.578917 0.000000
0.820979 0.578917 0.000000
0.850948 0.578917 0.000000
0.880862 0.578917 0.000000
0.910722 0.578917 0.000000
0.940530 0.578917 0.000000
0.970289 0.578917 0.000000
1.000000 0.578917 0.000000
0.000000 0.609429 0.000000
0.037163 0.609429 0.000000
0.071794 0.609429 0.000000
0.105529 0.609429 0.000000
0.138696 0.609429 0.000000
0.171447 0.609429 0.000000
0.203869 0.609429 0.000000
0.236021 0.609429 0.000000
0.267943 0.609429 0.000000
0.299666 0.609429 0.000000
0.331213 0.609429 0.000000
0.362602 0.609429 0.000000
0.393849 0.609429 0.000000
0.424966 0.609429 0.000000
0.455963 0.609429 0.000000
0.486849 0.609429 0.000000
0.517632 0.609429 0.000000
0.548320 0.609429 0.000000
0.578917 0.609429 0.000000
0.609429 0.609429 0.000000
0.639862 0.609429 0.000000
0.670218 0.609429 0.000000
0.700501 0.609429 0.000000
0.730717 0.609429 0.000000
0.760866 0.609429 0.000000
0.790953 0.609429 0.000000
0.820979 0.609429 0.000000
0.850948 0.609429 0.000000
0.880862 0.609429 0.000000
0.910722 0.609429 0.000000
0.940530 0.609429 0.000000
0.970289 0.609429 0.000000
1.000000 0.609429 0.000000
0.000000 0.639862 0.000000
0.037163 0.639862 0.000000
0.071794 0.639862 0.000000
0.105529 0.639862 0.000000
0.138696 0.639862 0.000000
0.171447 0.639862 0.000000
0.203869 0.639862 0.000000
0.236021 0.639862 0.000000
0.267943 0.639862 0.000000
0.299666 0.639862 0.000000
0.331213 0.639862 0.000000
0.362602 0.639862 0.000000
0.393849 0.639862 0.000000
0.424966 0.639862 0.000000
0.455963 0.639862 0.000000
0.486849 0.639862 0.000000
0.517632 0.639862 0.000000
0.548320 0.639862 0.000000
0.578917 0.639862 0.000000
0.609429 0.639862 0.000000
0.639862 0.639862 0.000000
0.670218 0.639862 0.000000
0.700501 0.639862 0.000000
0.730717 0.639862 0.000000
0.760866 0.639862 0.000000
0.790953 0.639862 0.000000
0.820979 0.639862 0.000000
0.850948 0.639862 0.000000
0.880862 0.639862 0.000000
0.910722 0.639862 0.000000
0.940530 0.639862 0.000000
0.970289 0.639862 0.000000
1.000000 0.639862 0.000000
0.000000 0.670218 0.000000
0.037163 0.670218 0.000000
0.071794 0.670218 0.000000
0.105529 0.670218 0.000000
0.138696 0.670218 0.000000
0.171447 0.670218 0.000000
0.203869 0.670218 0.000000
0.236021 0.670218 0.000000
0.267943 0.670218 0.000000
0.299666 0.670218 0.000000
0.331213 0.670218 0.000000
0.362602 0.670218 0.000000
0.393849 0.670218 0.000000
0.424966 0.670218 0.000000
0.455963 0.670218 0.000000
0.486849 0.670218 0.000000
0.517632 0.670218 0.000000
0.548320 0.670218 0.000000
0.578917 0.670218 0.000000
0.609429 0.670218 0.000000
0.639862 0.670218 0.000000
0.670218 0.670218 0.000000
0.700501 0.670218 0.000000
0.730717 0.670218 0.000000
0.760866 0.670218 0.000000
0.790953 0.670218 0.000000
0.820979 0.670218 0.000000
0.850948 0.670218 0.000000
0.880862 0.670218 0.000000
0.910722 0.670218 0.000000
0.940530 0.670218 0.000000
0.970289 0.670218 0.000000
1.000000 0.670218 0.000000
0.000000 0.700501 0.000000
0.037163 0.700501 0.000000
0.071794 0.700501 0.000000
0.105529 0.700501 0.000000
0.138696 0.700501 0.000000
0.171447 0.700501 0.000000
0.203869 0.700501 0.000000
0.236021 0.700501 0.000000
0.267943 0.700501 0.000000
0.299666 0.700501 0.000000
0.331213 0.700501 0.000000
0.362602 0.700501 0.000000
0.393849 0.700501 0.000000
0.424966 0.700501 0.000000
0.455963 0.700501 0.000000
0.486849 0.700501 0.000000
0.517632 0.700501 0.000000
0.548320 0.700501 0.000000
0.578917 0.700501 0.000000
0.609429 0.700501 0.000000
0.639862 0.700501 0.000000
0.670218 0.700501 0.000000
0.700501 0.700501 0.000000
0.730717 0.700501 0.000000
0.760866 0.700501 0.000000
0.790953 0.700501 0.000000
0.820979 0.700501 0.000000
0.850948 0.700501 0.000000
0.880862 0.700501 0.000000
0.910722 0.700501 0.000000
0.940530 0.700501 0.000000
0.970289 0.700501 0.000000
1.000000 0.700501 0.000000
0.000000 0.730717 0.000000
0.037163 0.730717 0.000000
0.071794 0.730717 0.000000
0.105529 0.730717 0.000000
0.138696 0.730717 0.000000
0.171447 0.730717 0.000000
0.203869 0.730717 0.000000
0.236021 0.730717 0.000000
0.267943 0.730717 0.000000
0.299666 0.730717 0.000000
0.331213 0.730717 0.000000
0.362602 0.730717 0.000000
0.393849 0.730717 0.000000
0.424966 0.730717 0.000000
0.455963 0.730717 0.000000
0.486849 0.730717 0.000000
0.517632 0.730717 0.000000
0.548320 0.730717 0.000000
0.578917 0.730717 0.000000
0.609429 0.730717 0.000000
0.639862 0.730717 0.000000
0.670218 0.730717 0.000000
0.700501 0.730717 0.000000
0.730717 0.730717 0.000000
0.760866 0.730717 0.000000
0.790953 0.730717 0.000000
0.820979 0.730717 0.000000
0.850948 0.730717 0.000000
0.880862 0.730717 0.000000
0.910722 0.730717 0.000000
0.940530 0.730717 0.000000
0.970289 0.730717 0.000000
1.000000 0.730717 0.000000
0.000000 0.760866 0.000000
0.037163 0.760866 0.000000
0.071794 0.760866 0.000000
0.105529 0.760866 0.000000
0.138696 0.760866 0.000000
0.171447 0.760866 0.000000
0.203869 0.760866 0.000000
0.236021 0.760866 0.000000
0.267943 0.760866 0.000000
0.299666 0.760866 0.000000
0.331213 0.760866 0.000000
0.362602 0.760866 0.000000
0.393849 0.760866 0.000000
0.424966 0.760866 0.000000
0.455963 0.760866 0.000000
0.486849 0.760866 0.000000
0.517632 0.760866 0.000000
0.548320 0.760866 0.000000
0.578917 0.760866 0.000000
0.609429 0.760866 0.000000
0.639862 0.760866 0.000000
0.670218 0.760866 0.000000
0.700501 0.760866 0.000000
0.730717 0.760866 0.000000
0.760866 0.760866 0.000000
0.790953 0.760866 0.000000
0.820979 0.760866 0.000000
0.850948 0.760866 0.000000
0.880862 0.760866 0.000000
0.910722 0.760866 0.000000
0.940530 0.760866 0.000000
0.970289 0.760866 0.000000
1.000000 0.760866 0.000000
0.000000 0.790953 0.000000
0.037163 0.790953 0.000000
0.071794 0.790953 0.000000
0.105529 0.790953 0.000000
0.138696 0.790953 0.000000
0.171447 0.790953 0.000000
0.203869 0.790953 0.000000
0.236021 0.790953 0.000000
0.267943 0.790953 0.000000
0.299666 0.790953 0.000000
0.331213 0.790953 0.000000
0.362602 0.790953 0.000000
0.393849 0.790953 0.000000
0.424966 0.790953 0.000000
0.455963 0.790953 0.000000
0.486849 0.790953 0.000000
0.517632 0.790953 0.000000
0.548320 0.790953 0.000000
0.578917 0.790953 0.000000
0.609429 0.790953 0.000000
0.639862 0.790953 0.000000
0.670218 0.790953 0.000000
0.700501 0.790953 0.000000
0.730717 0.790953 0.000000
0.760866 0.790953 0.000000
0.790953 0.790953 0.000000
0.820979 0.790953 0.000000
0.850948 0.790953 0.000000
0.880862 0.790953 0.000000
0.910722 0.790953 0.000000
0.940530 0.790953 0.000000
0.970289 0.790953 0.000000
1.000000 0.790953 0.000000
0.000000 0.820979 0.000000
0.037163 0.820979 0.000000
0.071794 0.820979 0.000000
0.105529 0.820979 0.000000
0.138696 0.820979 0.000000
0.171447 0.820979 0.000000
0.203869 0.820979 0.000000
0.236021 0.820979 0.000000
0.267943 0.820979 0.000000
0.299666 0.820979 0.000000
0.331213 0.820979 0.000000
0.362602 0.820979 0.000000
0.393849 0.820979 0.000000
0.424966 0.820979 0.000000
0.455963 0.820979 0.000000
0.486849 0.820979 0.000000
0.517632 0.820979 0.000000
0.548320 0.820979 0.000000
0.578917 0.820979 0.000000
0.609429 0.820979 0.000000
0.639862 0.820979 0.000000
0.670218 0.820979 0.000000
0.700501 0.820979 0.000000
0.730717 0.820979 0.000000
