assets/luts/film_emulation/Kodak/Kodak_2393_D55_HDR.cube
# Kodak_2393_D55 HDR
# HDR optimized Kodak_2393_D55 for luxury real estate
# Format: 3D Cube LUT
TITLE "Kodak_2393_D55_HDR"
LUT_3D_SIZE 5
DOMAIN_MIN 0.0 0.0 0.0
DOMAIN_MAX 1.0 1.0 1.0
0.000000 0.000000 0.000000
0.267943 0.000000 0.000000
0.517632 0.000000 0.000000
0.760866 0.000000 0.000000
1.000000 0.000000 0.000000
0.000000 0.267943 0.000000
0.267943 0.267943 0.000000
0.517632 0.267943 0.000000
0.760866 0.267943 0.000000
1.000000 0.267943 0.000000
0.000000 0.517632 0.000000
0.267943 0.517632 0.000000
0.517632 0.517632 0.000000
0.760866 0.517632 0.000000
1.000000 0.517632 0.000000
0.000000 0.760866 0.000000
0.267943 0.760866 0.000000
0.517632 0.760866 0.000000
0.760866 0.760866 0.000000
1.000000 0.760866 0.000000
0.000000 1.000000 0.000000
0.267943 1.000000 0.000000
0.517632 1.000000 0.000000
0.760866 1.000000 0.000000
1.000000 1.000000 0.000000
0.000000 0.000000 0.267943
0.267943 0.000000 0.267943
0.517632 0.000000 0.267943
0.760866 0.000000 0.267943
1.000000 0.000000 0.267943
0.000000 0.267943 0.267943
0.267943 0.267943 0.267943
0.517632 0.267943 0.267943
0.760866 0.267943 0.267943
1.000000 0.267943 0.267943
0.000000 0.517632 0.267943
0.267943 0.517632 0.267943
0.517632 0.517632 0.267943
0.760866 0.517632 0.267943
1.000000 0.517632 0.267943
0.000000 0.760866 0.267943
0.267943 0.760866 0.267943
0.517632 0.760866 0.267943
0.760866 0.760866 0.267943
1.000000 0.760866 0.267943
0.000000 1.000000 0.267943
0.267943 1.000000 0.267943
0.517632 1.000000 0.267943
0.760866 1.000000 0.267943
1.000000 1.000000 0.267943
0.000000 0.000000 0.517632
0.267943 0.000000 0.517632
0.517632 0.000000 0.517632
0.760866 0.000000 0.517632
1.000000 0.000000 0.517632
0.000000 0.267943 0.517632
0.267943 0.267943 0.517632
0.517632 0.267943 0.517632
0.760866 0.267943 0.517632
1.000000 0.267943 0.517632
0.000000 0.517632 0.517632
0.267943 0.517632 0.517632
0.517632 0.517632 0.517632
0.760866 0.517632 0.517632
1.000000 0.517632 0.517632
0.000000 0.760866 0.517632
0.267943 0.760866 0.517632
0.517632 0.760866 0.517632
0.760866 0.760866 0.517632
1.000000 0.760866 0.517632
0.000000 1.000000 0.517632
0.267943 1.000000 0.517632
0.517632 1.000000 0.517632
0.760866 1.000000 0.517632
1.000000 1.000000 0.517632
0.000000 0.000000 0.760866
0.267943 0.000000 0.760866
0.517632 0.000000 0.760866
0.760866 0.000000 0.760866
1.000000 0.000000 0.760866
0.000000 0.267943 0.760866
0.267943 0.267943 0.760866
0.517632 0.267943 0.760866
0.760866 0.267943 0.760866
1.000000 0.267943 0.760866
0.000000 0.517632 0.760866
0.267943 0.517632 0.760866
0.517632 0.517632 0.760866
0.760866 0.517632 0.760866
1.000000 0.517632 0.760866
0.000000 0.760866 0.760866
0.267943 0.760866 0.760866
0.517632 0.760866 0.760866
0.760866 0.760866 0.760866
1.000000 0.760866 0.760866
0.000000 1.000000 0.760866
0.267943 1.000000 0.760866
0.517632 1.000000 0.760866
0.760866 1.000000 0.760866
1.000000 1.000000 0.760866
0.000000 0.000000 1.000000
0.267943 0.000000 1.000000
0.517632 0.000000 1.000000
0.760866 0.000000 1.000000
1.000000 0.000000 1.000000
0.000000 0.267943 1.000000
0.267943 0.267943 1.000000
0.517632 0.267943 1.000000
0.760866 0.267943 1.000000
1.000000 0.267943 1.000000
0.000000 0.517632 1.000000
0.267943 0.517632 1.000000
0.517632 0.517632 1.000000
0.760866 0.517632 1.000000
1.000000 0.517632 1.000000
0.000000 0.760866 1.000000
0.267943 0.760866 1.000000
0.517632 0.760866 1.000000
0.760866 0.760866 1.000000
1.000000 0.760866 1.000000
0.000000 1.000000 1.000000
0.267943 1.000000 1.000000
0.517632 1.000000 1.000000
0.760866 1.000000 1.000000
1.000000 1.000000 1.000000
