data/luts/location/California/Montecito_Golden_Hour_HDR.cube
# Montecito_Golden_Hour HDR
# HDR optimized Montecito_Golden_Hour for luxury real estate
# Format: 3D Cube LUT
TITLE "Montecito_Golden_Hour_HDR"
LUT_3D_SIZE 33
DOMAIN_MIN 0.0 0.0 0.0
DOMAIN_MAX 1.0 1.0 1.0
0.000000 0.000000 0.000000
0.033750 0.000000 0.000000
0.067500 0.000000 0.000000
0.101250 0.000000 0.000000
0.135000 0.000000 0.000000
0.168750 0.000000 0.000000
0.202500 0.000000 0.000000
0.236250 0.000000 0.000000
0.270000 0.000000 0.000000
0.303750 0.000000 0.000000
0.337500 0.000000 0.000000
0.371250 0.000000 0.000000
0.405000 0.000000 0.000000
0.438750 0.000000 0.000000
0.472500 0.000000 0.000000
0.506250 0.000000 0.000000
0.540000 0.000000 0.000000
0.573750 0.000000 0.000000
0.607500 0.000000 0.000000
0.641250 0.000000 0.000000
0.675000 0.000000 0.000000
0.708750 0.000000 0.000000
0.742500 0.000000 0.000000
0.776250 0.000000 0.000000
0.810000 0.000000 0.000000
0.843750 0.000000 0.000000
0.877500 0.000000 0.000000
0.911250 0.000000 0.000000
0.945000 0.000000 0.000000
0.978750 0.000000 0.000000
1.000000 0.000000 0.000000
1.000000 0.000000 0.000000
1.000000 0.000000 0.000000
0.000000 0.032188 0.000000
0.033750 0.032188 0.000000
0.067500 0.032188 0.000000
0.101250 0.032188 0.000000
0.135000 0.032188 0.000000
0.168750 0.032188 0.000000
0.202500 0.032188 0.000000
0.236250 0.032188 0.000000
0.270000 0.032188 0.000000
0.303750 0.032188 0.000000
0.337500 0.032188 0.000000
0.371250 0.032188 0.000000
0.405000 0.032188 0.000000
0.438750 0.032188 0.000000
0.472500 0.032188 0.000000
0.506250 0.032188 0.000000
0.540000 0.032188 0.000000
0.573750 0.032188 0.000000
0.607500 0.032188 0.000000
0.641250 0.032188 0.000000
0.675000 0.032188 0.000000
0.708750 0.032188 0.000000
0.742500 0.032188 0.000000
0.776250 0.032188 0.000000
0.810000 0.032188 0.000000
0.843750 0.032188 0.000000
0.877500 0.032188 0.000000
0.911250 0.032188 0.000000
0.945000 0.032188 0.000000
0.978750 0.032188 0.000000
1.000000 0.032188 0.000000
1.000000 0.032188 0.000000
1.000000 0.032188 0.000000
0.000000 0.064375 0.000000
0.033750 0.064375 0.000000
0.067500 0.064375 0.000000
0.101250 0.064375 0.000000
0.135000 0.064375 0.000000
0.168750 0.064375 0.000000
0.202500 0.064375 0.000000
0.236250 0.064375 0.000000
0.270000 0.064375 0.000000
0.303750 0.064375 0.000000
0.337500 0.064375 0.000000
0.371250 0.064375 0.000000
0.405000 0.064375 0.000000
0.438750 0.064375 0.000000
0.472500 0.064375 0.000000
0.506250 0.064375 0.000000
0.540000 0.064375 0.000000
0.573750 0.064375 0.000000
0.607500 0.064375 0.000000
0.641250 0.064375 0.000000
0.675000 0.064375 0.000000
0.708750 0.064375 0.000000
0.742500 0.064375 0.000000
0.776250 0.064375 0.000000
0.810000 0.064375 0.000000
0.843750 0.064375 0.000000
0.877500 0.064375 0.000000
0.911250 0.064375 0.000000
0.945000 0.064375 0.000000
0.978750 0.064375 0.000000
1.000000 0.064375 0.000000
1.000000 0.064375 0.000000
1.000000 0.064375 0.000000
0.000000 0.096562 0.000000
0.033750 0.096562 0.000000
0.067500 0.096562 0.000000
0.101250 0.096562 0.000000
0.135000 0.096562 0.000000
0.168750 0.096562 0.000000
0.202500 0.096562 0.000000
0.236250 0.096562 0.000000
0.270000 0.096562 0.000000
0.303750 0.096562 0.000000
0.337500 0.096562 0.000000
0.371250 0.096562 0.000000
0.405000 0.096562 0.000000
0.438750 0.096562 0.000000
0.472500 0.096562 0.000000
0.506250 0.096562 0.000000
0.540000 0.096562 0.000000
0.573750 0.096562 0.000000
0.607500 0.096562 0.000000
0.641250 0.096562 0.000000
0.675000 0.096562 0.000000
0.708750 0.096562 0.000000
0.742500 0.096562 0.000000
0.776250 0.096562 0.000000
0.810000 0.096562 0.000000
0.843750 0.096562 0.000000
0.877500 0.096562 0.000000
0.911250 0.096562 0.000000
0.945000 0.096562 0.000000
0.978750 0.096562 0.000000
1.000000 0.096562 0.000000
1.000000 0.096562 0.000000
1.000000 0.096562 0.000000
0.000000 0.128750 0.000000
0.033750 0.128750 0.000000
0.067500 0.128750 0.000000
0.101250 0.128750 0.000000
0.135000 0.128750 0.000000
0.168750 0.128750 0.000000
0.202500 0.128750 0.000000
0.236250 0.128750 0.000000
0.270000 0.128750 0.000000
0.303750 0.128750 0.000000
0.337500 0.128750 0.000000
0.371250 0.128750 0.000000
0.405000 0.128750 0.000000
0.438750 0.128750 0.000000
0.472500 0.128750 0.000000
0.506250 0.128750 0.000000
0.540000 0.128750 0.000000
0.573750 0.128750 0.000000
0.607500 0.128750 0.000000
0.641250 0.128750 0.000000
0.675000 0.128750 0.000000
0.708750 0.128750 0.000000
0.742500 0.128750 0.000000
0.776250 0.128750 0.000000
0.810000 0.128750 0.000000
0.843750 0.128750 0.000000
0.877500 0.128750 0.000000
0.911250 0.128750 0.000000
0.945000 0.128750 0.000000
0.978750 0.128750 0.000000
1.000000 0.128750 0.000000
1.000000 0.128750 0.000000
1.000000 0.128750 0.000000
0.000000 0.160938 0.000000
0.033750 0.160938 0.000000
0.067500 0.160938 0.000000
0.101250 0.160938 0.000000
0.135000 0.160938 0.000000
0.168750 0.160938 0.000000
0.202500 0.160938 0.000000
0.236250 0.160938 0.000000
0.270000 0.160938 0.000000
0.303750 0.160938 0.000000
0.337500 0.160938 0.000000
0.371250 0.160938 0.000000
0.405000 0.160938 0.000000
0.438750 0.160938 0.000000
0.472500 0.160938 0.000000
0.506250 0.160938 0.000000
0.540000 0.160938 0.000000
0.573750 0.160938 0.000000
0.607500 0.160938 0.000000
0.641250 0.160938 0.000000
0.675000 0.160938 0.000000
0.708750 0.160938 0.000000
0.742500 0.160938 0.000000
0.776250 0.160938 0.000000
0.810000 0.160938 0.000000
0.843750 0.160938 0.000000
0.877500 0.160938 0.000000
0.911250 0.160938 0.000000
0.945000 0.160938 0.000000
0.978750 0.160938 0.000000
1.000000 0.160938 0.000000
1.000000 0.160938 0.000000
1.000000 0.160938 0.000000
0.000000 0.193125 0.000000
0.033750 0.193125 0.000000
0.067500 0.193125 0.000000
0.101250 0.193125 0.000000
0.135000 0.193125 0.000000
0.168750 0.193125 0.000000
0.202500 0.193125 0.000000
0.236250 0.193125 0.000000
0.270000 0.193125 0.000000
0.303750 0.193125 0.000000
0.337500 0.193125 0.000000
0.371250 0.193125 0.000000
0.405000 0.193125 0.000000
0.438750 0.193125 0.000000
0.472500 0.193125 0.000000
0.506250 0.193125 0.000000
0.540000 0.193125 0.000000
0.573750 0.193125 0.000000
0.607500 0.193125 0.000000
0.641250 0.193125 0.000000
0.675000 0.193125 0.000000
0.708750 0.193125 0.000000
0.742500 0.193125 0.000000
0.776250 0.193125 0.000000
0.810000 0.193125 0.000000
0.843750 0.193125 0.000000
0.877500 0.193125 0.000000
0.911250 0.193125 0.000000
0.945000 0.193125 0.000000
0.978750 0.193125 0.000000
1.000000 0.193125 0.000000
1.000000 0.193125 0.000000
1.000000 0.193125 0.000000
0.000000 0.225312 0.000000
0.033750 0.225312 0.000000
0.067500 0.225312 0.000000
0.101250 0.225312 0.000000
0.135000 0.225312 0.000000
0.168750 0.225312 0.000000
0.202500 0.225312 0.000000
0.236250 0.225312 0.000000
0.270000 0.225312 0.000000
0.303750 0.225312 0.000000
0.337500 0.225312 0.000000
0.371250 0.225312 0.000000
0.405000 0.225312 0.000000
0.438750 0.225312 0.000000
0.472500 0.225312 0.000000
0.506250 0.225312 0.000000
0.540000 0.225312 0.000000
0.573750 0.225312 0.000000
0.607500 0.225312 0.000000
0.641250 0.225312 0.000000
0.675000 0.225312 0.000000
0.708750 0.225312 0.000000
0.742500 0.225312 0.000000
0.776250 0.225312 0.000000
0.810000 0.225312 0.000000
0.843750 0.225312 0.000000
0.877500 0.225312 0.000000
0.911250 0.225312 0.000000
0.945000 0.225312 0.000000
0.978750 0.225312 0.000000
1.000000 0.225312 0.000000
1.000000 0.225312 0.000000
1.000000 0.225312 0.000000
0.000000 0.257500 0.000000
0.033750 0.257500 0.000000
0.067500 0.257500 0.000000
0.101250 0.257500 0.000000
0.135000 0.257500 0.000000
0.168750 0.257500 0.000000
0.202500 0.257500 0.000000
0.236250 0.257500 0.000000
0.270000 0.257500 0.000000
0.303750 0.257500 0.000000
0.337500 0.257500 0.000000
0.371250 0.257500 0.000000
0.405000 0.257500 0.000000
0.438750 0.257500 0.000000
0.472500 0.257500 0.000000
0.506250 0.257500 0.000000
0.540000 0.257500 0.000000
0.573750 0.257500 0.000000
0.607500 0.257500 0.000000
0.641250 0.257500 0.000000
0.675000 0.257500 0.000000
0.708750 0.257500 0.000000
0.742500 0.257500 0.000000
0.776250 0.257500 0.000000
0.810000 0.257500 0.000000
0.843750 0.257500 0.000000
0.877500 0.257500 0.000000
0.911250 0.257500 0.000000
0.945000 0.257500 0.000000
0.978750 0.257500 0.000000
1.000000 0.257500 0.000000
1.000000 0.257500 0.000000
1.000000 0.257500 0.000000
0.000000 0.289687 0.000000
0.033750 0.289687 0.000000
0.067500 0.289687 0.000000
0.101250 0.289687 0.000000
0.135000 0.289687 0.000000
0.168750 0.289687 0.000000
0.202500 0.289687 0.000000
0.236250 0.289687 0.000000
0.270000 0.289687 0.000000
0.303750 0.289687 0.000000
0.337500 0.289687 0.000000
0.371250 0.289687 0.000000
0.405000 0.289687 0.000000
0.438750 0.289687 0.000000
0.472500 0.289687 0.000000
0.506250 0.289687 0.000000
0.540000 0.289687 0.000000
0.573750 0.289687 0.000000
0.607500 0.289687 0.000000
0.641250 0.289687 0.000000
0.675000 0.289687 0.000000
0.708750 0.289687 0.000000
0.742500 0.289687 0.000000
0.776250 0.289687 0.000000
0.810000 0.289687 0.000000
0.843750 0.289687 0.000000
0.877500 0.289687 0.000000
0.911250 0.289687 0.000000
0.945000 0.289687 0.000000
0.978750 0.289687 0.000000
1.000000 0.289687 0.000000
1.000000 0.289687 0.000000
1.000000 0.289687 0.000000
0.000000 0.321875 0.000000
0.033750 0.321875 0.000000
0.067500 0.321875 0.000000
0.101250 0.321875 0.000000
0.135000 0.321875 0.000000
0.168750 0.321875 0.000000
0.202500 0.321875 0.000000
0.236250 0.321875 0.000000
0.270000 0.321875 0.000000
0.303750 0.321875 0.000000
0.337500 0.321875 0.000000
0.371250 0.321875 0.000000
0.405000 0.321875 0.000000
0.438750 0.321875 0.000000
0.472500 0.321875 0.000000
0.506250 0.321875 0.000000
0.540000 0.321875 0.000000
0.573750 0.321875 0.000000
0.607500 0.321875 0.000000
0.641250 0.321875 0.000000
0.675000 0.321875 0.000000
0.708750 0.321875 0.000000
0.742500 0.321875 0.000000
0.776250 0.321875 0.000000
0.810000 0.321875 0.000000
0.843750 0.321875 0.000000
0.877500 0.321875 0.000000
0.911250 0.321875 0.000000
0.945000 0.321875 0.000000
0.978750 0.321875 0.000000
1.000000 0.321875 0.000000
1.000000 0.321875 0.000000
1.000000 0.321875 0.000000
0.000000 0.354063 0.000000
0.033750 0.354063 0.000000
0.067500 0.354063 0.000000
0.101250 0.354063 0.000000
0.135000 0.354063 0.000000
0.168750 0.354063 0.000000
0.202500 0.354063 0.000000
0.236250 0.354063 0.000000
0.270000 0.354063 0.000000
0.303750 0.354063 0.000000
0.337500 0.354063 0.000000
0.371250 0.354063 0.000000
0.405000 0.354063 0.000000
0.438750 0.354063 0.000000
0.472500 0.354063 0.000000
0.506250 0.354063 0.000000
0.540000 0.354063 0.000000
0.573750 0.354063 0.000000
0.607500 0.354063 0.000000
0.641250 0.354063 0.000000
0.675000 0.354063 0.000000
0.708750 0.354063 0.000000
0.742500 0.354063 0.000000
0.776250 0.354063 0.000000
0.810000 0.354063 0.000000
0.843750 0.354063 0.000000
0.877500 0.354063 0.000000
0.911250 0.354063 0.000000
0.945000 0.354063 0.000000
0.978750 0.354063 0.000000
1.000000 0.354063 0.000000
1.000000 0.354063 0.000000
1.000000 0.354063 0.000000
0.000000 0.386250 0.000000
0.033750 0.386250 0.000000
0.067500 0.386250 0.000000
0.101250 0.386250 0.000000
0.135000 0.386250 0.000000
0.168750 0.386250 0.000000
0.202500 0.386250 0.000000
0.236250 0.386250 0.000000
0.270000 0.386250 0.000000
0.303750 0.386250 0.000000
0.337500 0.386250 0.000000
0.371250 0.386250 0.000000
0.405000 0.386250 0.000000
0.438750 0.386250 0.000000
0.472500 0.386250 0.000000
0.506250 0.386250 0.000000
0.540000 0.386250 0.000000
0.573750 0.386250 0.000000
0.607500 0.386250 0.000000
0.641250 0.386250 0.000000
0.675000 0.386250 0.000000
0.708750 0.386250 0.000000
0.742500 0.386250 0.000000
0.776250 0.386250 0.000000
0.810000 0.386250 0.000000
0.843750 0.386250 0.000000
0.877500 0.386250 0.000000
0.911250 0.386250 0.000000
0.945000 0.386250 0.000000
0.978750 0.386250 0.000000
1.000000 0.386250 0.000000
1.000000 0.386250 0.000000
1.000000 0.386250 0.000000
0.000000 0.418438 0.000000
0.033750 0.418438 0.000000
0.067500 0.418438 0.000000
0.101250 0.418438 0.000000
0.135000 0.418438 0.000000
0.168750 0.418438 0.000000
0.202500 0.418438 0.000000
0.236250 0.418438 0.000000
0.270000 0.418438 0.000000
0.303750 0.418438 0.000000
0.337500 0.418438 0.000000
0.371250 0.418438 0.000000
0.405000 0.418438 0.000000
0.438750 0.418438 0.000000
0.472500 0.418438 0.000000
0.506250 0.418438 0.000000
0.540000 0.418438 0.000000
0.573750 0.418438 0.000000
0.607500 0.418438 0.000000
0.641250 0.418438 0.000000
0.675000 0.418438 0.000000
0.708750 0.418438 0.000000
0.742500 0.418438 0.000000
0.776250 0.418438 0.000000
0.810000 0.418438 0.000000
0.843750 0.418438 0.000000
0.877500 0.418438 0.000000
0.911250 0.418438 0.000000
0.945000 0.418438 0.000000
0.978750 0.418438 0.000000
1.000000 0.418438 0.000000
1.000000 0.418438 0.000000
1.000000 0.418438 0.000000
0.000000 0.450625 0.000000
0.033750 0.450625 0.000000
0.067500 0.450625 0.000000
0.101250 0.450625 0.000000
0.135000 0.450625 0.000000
0.168750 0.450625 0.000000
0.202500 0.450625 0.000000
0.236250 0.450625 0.000000
0.270000 0.450625 0.000000
0.303750 0.450625 0.000000
0.337500 0.450625 0.000000
0.371250 0.450625 0.000000
0.405000 0.450625 0.000000
0.438750 0.450625 0.000000
0.472500 0.450625 0.000000
0.506250 0.450625 0.000000
0.540000 0.450625 0.000000
0.573750 0.450625 0.000000
0.607500 0.450625 0.000000
0.641250 0.450625 0.000000
0.675000 0.450625 0.000000
0.708750 0.450625 0.000000
0.742500 0.450625 0.000000
0.776250 0.450625 0.000000
0.810000 0.450625 0.000000
0.843750 0.450625 0.000000
0.877500 0.450625 0.000000
0.911250 0.450625 0.000000
0.945000 0.450625 0.000000
0.978750 0.450625 0.000000
1.000000 0.450625 0.000000
1.000000 0.450625 0.000000
1.000000 0.450625 0.000000
0.000000 0.482813 0.000000
0.033750 0.482813 0.000000
0.067500 0.482813 0.000000
0.101250 0.482813 0.000000
0.135000 0.482813 0.000000
0.168750 0.482813 0.000000
0.202500 0.482813 0.000000
0.236250 0.482813 0.000000
0.270000 0.482813 0.000000
0.303750 0.482813 0.000000
0.337500 0.482813 0.000000
0.371250 0.482813 0.000000
0.405000 0.482813 0.000000
0.438750 0.482813 0.000000
0.472500 0.482813 0.000000
0.506250 0.482813 0.000000
0.540000 0.482813 0.000000
0.573750 0.482813 0.000000
0.607500 0.482813 0.000000
0.641250 0.482813 0.000000
0.675000 0.482813 0.000000
0.708750 0.482813 0.000000
0.742500 0.482813 0.000000
0.776250 0.482813 0.000000
0.810000 0.482813 0.000000
0.843750 0.482813 0.000000
0.877500 0.482813 0.000000
0.911250 0.482813 0.000000
0.945000 0.482813 0.000000
0.978750 0.482813 0.000000
1.000000 0.482813 0.000000
1.000000 0.482813 0.000000
1.000000 0.482813 0.000000
0.000000 0.515000 0.000000
0.033750 0.515000 0.000000
0.067500 0.515000 0.000000
0.101250 0.515000 0.000000
0.135000 0.515000 0.000000
0.168750 0.515000 0.000000
0.202500 0.515000 0.000000
0.236250 0.515000 0.000000
0.270000 0.515000 0.000000
0.303750 0.515000 0.000000
0.337500 0.515000 0.000000
0.371250 0.515000 0.000000
0.405000 0.515000 0.000000
0.438750 0.515000 0.000000
0.472500 0.515000 0.000000
0.506250 0.515000 0.000000
0.540000 0.515000 0.000000
0.573750 0.515000 0.000000
0.607500 0.515000 0.000000
0.641250 0.515000 0.000000
0.675000 0.515000 0.000000
0.708750 0.515000 0.000000
0.742500 0.515000 0.000000
0.776250 0.515000 0.000000
0.810000 0.515000 0.000000
0.843750 0.515000 0.000000
0.877500 0.515000 0.000000
0.911250 0.515000 0.000000
0.945000 0.515000 0.000000
0.978750 0.515000 0.000000
1.000000 0.515000 0.000000
1.000000 0.515000 0.000000
1.000000 0.515000 0.000000
0.000000 0.547188 0.000000
0.033750 0.547188 0.000000
0.067500 0.547188 0.000000
0.101250 0.547188 0.000000
0.135000 0.547188 0.000000
0.168750 0.547188 0.000000
0.202500 0.547188 0.000000
0.236250 0.547188 0.000000
0.270000 0.547188 0.000000
0.303750 0.547188 0.000000
0.337500 0.547188 0.000000
0.371250 0.547188 0.000000
0.405000 0.547188 0.000000
0.438750 0.547188 0.000000
0.472500 0.547188 0.000000
0.506250 0.547188 0.000000
0.540000 0.547188 0.000000
0.573750 0.547188 0.000000
0.607500 0.547188 0.000000
0.641250 0.547188 0.000000
0.675000 0.547188 0.000000
0.708750 0.547188 0.000000
0.742500 0.547188 0.000000
0.776250 0.547188 0.000000
0.810000 0.547188 0.000000
0.843750 0.547188 0.000000
0.877500 0.547188 0.000000
0.911250 0.547188 0.000000
0.945000 0.547188 0.000000
0.978750 0.547188 0.000000
1.000000 0.547188 0.000000
1.000000 0.547188 0.000000
1.000000 0.547188 0.000000
0.000000 0.579375 0.000000
0.033750 0.579375 0.000000
0.067500 0.579375 0.000000
0.101250 0.579375 0.000000
0.135000 0.579375 0.000000
0.168750 0.579375 0.000000
0.202500 0.579375 0.000000
0.236250 0.579375 0.000000
0.270000 0.579375 0.000000
0.303750 0.579375 0.000000
0.337500 0.579375 0.000000
0.371250 0.579375 0.000000
0.405000 0.579375 0.000000
0.438750 0.579375 0.000000
0.472500 0.579375 0.000000
0.506250 0.579375 0.000000
0.540000 0.579375 0.000000
0.573750 0.579375 0.000000
0.607500 0.579375 0.000000
0.641250 0.579375 0.000000
0.675000 0.579375 0.000000
0.708750 0.579375 0.000000
0.742500 0.579375 0.000000
0.776250 0.579375 0.000000
0.810000 0.579375 0.000000
0.843750 0.579375 0.000000
0.877500 0.579375 0.000000
0.911250 0.579375 0.000000
0.945000 0.579375 0.000000
0.978750 0.579375 0.000000
1.000000 0.579375 0.000000
1.000000 0.579375 0.000000
1.000000 0.579375 0.000000
0.000000 0.611563 0.000000
0.033750 0.611563 0.000000
0.067500 0.611563 0.000000
0.101250 0.611563 0.000000
0.135000 0.611563 0.000000
0.168750 0.611563 0.000000
0.202500 0.611563 0.000000
0.236250 0.611563 0.000000
0.270000 0.611563 0.000000
0.303750 0.611563 0.000000
0.337500 0.611563 0.000000
0.371250 0.611563 0.000000
0.405000 0.611563 0.000000
0.438750 0.611563 0.000000
0.472500 0.611563 0.000000
0.506250 0.611563 0.000000
0.540000 0.611563 0.000000
0.573750 0.611563 0.000000
0.607500 0.611563 0.000000
0.641250 0.611563 0.000000
0.675000 0.611563 0.000000
0.708750 0.611563 0.000000
0.742500 0.611563 0.000000
0.776250 0.611563 0.000000
0.810000 0.611563 0.000000
0.843750 0.611563 0.000000
0.877500 0.611563 0.000000
0.911250 0.611563 0.000000
0.945000 0.611563 0.000000
0.978750 0.611563 0.000000
1.000000 0.611563 0.000000
1.000000 0.611563 0.000000
1.000000 0.611563 0.000000
0.000000 0.643750 0.000000
0.033750 0.643750 0.000000
0.067500 0.643750 0.000000
0.101250 0.643750 0.000000
0.135000 0.643750 0.000000
0.168750 0.643750 0.000000
0.202500 0.643750 0.000000
0.236250 0.643750 0.000000
0.270000 0.643750 0.000000
0.303750 0.643750 0.000000
0.337500 0.643750 0.000000
0.371250 0.643750 0.000000
0.405000 0.643750 0.000000
0.438750 0.643750 0.000000
0.472500 0.643750 0.000000
0.506250 0.643750 0.000000
0.540000 0.643750 0.000000
0.573750 0.643750 0.000000
0.607500 0.643750 0.000000
0.641250 0.643750 0.000000
0.675000 0.643750 0.000000
0.708750 0.643750 0.000000
0.742500 0.643750 0.000000
0.776250 0.643750 0.000000
0.810000 0.643750 0.000000
0.843750 0.643750 0.000000
0.877500 0.643750 0.000000
0.911250 0.643750 0.000000
0.945000 0.643750 0.000000
0.978750 0.643750 0.000000
1.000000 0.643750 0.000000
1.000000 0.643750 0.000000
1.000000 0.643750 0.000000
0.000000 0.675937 0.000000
0.033750 0.675937 0.000000
0.067500 0.675937 0.000000
0.101250 0.675937 0.000000
0.135000 0.675937 0.000000
0.168750 0.675937 0.000000
0.202500 0.675937 0.000000
0.236250 0.675937 0.000000
0.270000 0.675937 0.000000
0.303750 0.675937 0.000000
0.337500 0.675937 0.000000
0.371250 0.675937 0.000000
0.405000 0.675937 0.000000
0.438750 0.675937 0.000000
0.472500 0.675937 0.000000
0.506250 0.675937 0.000000
0.540000 0.675937 0.000000
0.573750 0.675937 0.000000
0.607500 0.675937 0.000000
0.641250 0.675937 0.000000
0.675000 0.675937 0.000000
0.708750 0.675937 0.000000
0.742500 0.675937 0.000000
0.776250 0.675937 0.000000
0.810000 0.675937 0.000000
0.843750 0.675937 0.000000
0.877500 0.675937 0.000000
0.911250 0.675937 0.000000
0.945000 0.675937 0.000000
0.978750 0.675937 0.000000
1.000000 0.675937 0.000000
1.000000 0.675937 0.000000
1.000000 0.675937 0.000000
0.000000 0.708125 0.000000
0.033750 0.708125 0.000000
0.067500 0.708125 0.000000
0.101250 0.708125 0.000000
0.135000 0.708125 0.000000
0.168750 0.708125 0.000000
0.202500 0.708125 0.000000
0.236250 0.708125 0.000000
0.270000 0.708125 0.000000
0.303750 0.708125 0.000000
0.337500 0.708125 0.000000
0.371250 0.708125 0.000000
0.405000 0.708125 0.000000
0.438750 0.708125 0.000000
0.472500 0.708125 0.000000
0.506250 0.708125 0.000000
0.540000 0.708125 0.000000
0.573750 0.708125 0.000000
0.607500 0.708125 0.000000
0.641250 0.708125 0.000000
0.675000 0.708125 0.000000
0.708750 0.708125 0.000000
0.742500 0.708125 0.000000
0.776250 0.708125 0.000000
0.810000 0.708125 0.000000
0.843750 0.708125 0.000000
0.877500 0.708125 0.000000
0.911250 0.708125 0.000000
0.945000 0.708125 0.000000
0.978750 0.708125 0.000000
1.000000 0.708125 0.000000
1.000000 0.708125 0.000000
1.000000 0.708125 0.000000
0.000000 0.740313 0.000000
0.033750 0.740313 0.000000
0.067500 0.740313 0.000000
0.101250 0.740313 0.000000
0.135000 0.740313 0.000000
0.168750 0.740313 0.000000
0.202500 0.740313 0.000000
0.236250 0.740313 0.000000
0.270000 0.740313 0.000000
0.303750 0.740313 0.000000
0.337500 0.740313 0.000000
0.371250 0.740313 0.000000
0.405000 0.740313 0.000000
0.438750 0.740313 0.000000
0.472500 0.740313 0.000000
0.506250 0.740313 0.000000
0.540000 0.740313 0.000000
0.573750 0.740313 0.000000
0.607500 0.740313 0.000000
0.641250 0.740313 0.000000
0.675000 0.740313 0.000000
0.708750 0.740313 0.000000
0.742500 0.740313 0.000000
0.776250 0.740313 0.000000
0.810000 0.740313 0.000000
0.843750 0.740313 0.000000
0.877500 0.740313 0.000000
0.911250 0.740313 0.000000
0.945000 0.740313 0.000000
0.978750 0.740313 0.000000
1.000000 0.740313 0.000000
1.000000 0.740313 0.000000
1.000000 0.740313 0.000000
0.000000 0.772500 0.000000
0.033750 0.772500 0.000000
0.067500 0.772500 0.000000
0.101250 0.772500 0.000000
0.135000 0.772500 0.000000
0.168750 0.772500 0.000000
0.202500 0.772500 0.000000
0.236250 0.772500 0.000000
0.270000 0.772500 0.000000
0.303750 0.772500 0.000000
0.337500 0.772500 0.000000
0.371250 0.772500 0.000000
0.405000 0.772500 0.000000
0.438750 0.772500 0.000000
0.472500 0.772500 0.000000
0.506250 0.772500 0.000000
0.540000 0.772500 0.000000
0.573750 0.772500 0.000000
0.607500 0.772500 0.000000
0.641250 0.772500 0.000000
0.675000 0.772500 0.000000
0.708750 0.772500 0.000000
0.742500 0.772500 0.000000
0.776250 0.772500 0.000000
0.810000 0.772500 0.000000
0.843750 0.772500 0.000000
0.877500 0.772500 0.000000
0.911250 0.772500 0.000000
0.945000 0.772500 0.000000
0.978750 0.772500 0.000000
1.000000 0.772500 0.000000
1.000000 0.772500 0.000000
1.000000 0.772500 0.000000
0.000000 0.804688 0.000000
0.033750 0.804688 0.000000
0.067500 0.804688 0.000000
0.101250 0.804688 0.000000
0.135000 0.804688 0.000000
0.168750 0.804688 0.000000
0.202500 0.804688 0.000000
0.236250 0.804688 0.000000
0.270000 0.804688 0.000000
0.303750 0.804688 0.000000
0.337500 0.804688 0.000000
0.371250 0.804688 0.000000
0.405000 0.804688 0.000000
0.438750 0.804688 0.000000
0.472500 0.804688 0.000000
0.506250 0.804688 0.000000
0.540000 0.804688 0.000000
0.573750 0.804688 0.000000
0.607500 0.804688 0.000000
0.641250 0.804688 0.000000
0.675000 0.804688 0.000000
0.708750 0.804688 0.000000
0.742500 0.804688 0.000000
0.776250 0.804688 0.000000
0.810000 0.804688 0.000000
0.843750 0.804688 0.000000
0.877500 0.804688 0.000000
0.911250 0.804688 0.000000
0.945000 0.804688 0.000000
0.978750 0.804688 0.000000
1.000000 0.804688 0.000000
1.000000 0.804688 0.000000
1.000000 0.804688 0.000000
0.000000 0.836875 0.000000
0.033750 0.836875 0.000000
0.067500 0.836875 0.000000
0.101250 0.836875 0.000000
0.135000 0.836875 0.000000
0.168750 0.836875 0.000000
0.202500 0.836875 0.000000
0.236250 0.836875 0.000000
0.270000 0.836875 0.000000
0.303750 0.836875 0.000000
0.337500 0.836875 0.000000
0.371250 0.836875 0.000000
0.405000 0.836875 0.000000
0.438750 0.836875 0.000000
0.472500 0.836875 0.000000
0.506250 0.836875 0.000000
0.540000 0.836875 0.000000
0.573750 0.836875 0.000000
0.607500 0.836875 0.000000
0.641250 0.836875 0.000000
0.675000 0.836875 0.000000
0.708750 0.836875 0.000000
0.742500 0.836875 0.000000
