data/luts/location/California/Montecito_Golden_Hour_HDR.cube
# Montecito_Golden_Hour HDR
# HDR optimized Montecito_Golden_Hour for luxury real estate
# Format: 3D Cube LUT
TITLE "Montecito_Golden_Hour_HDR"
LUT_3D_SIZE 9
DOMAIN_MIN 0.0 0.0 0.0
DOMAIN_MAX 1.0 1.0 1.0
0.000000 0.000000 0.000000
0.135000 0.000000 0.000000
0.270000 0.000000 0.000000
0.405000 0.000000 0.000000
0.540000 0.000000 0.000000
0.675000 0.000000 0.000000
0.810000 0.000000 0.000000
0.945000 0.000000 0.000000
1.000000 0.000000 0.000000
0.000000 0.128750 0.000000
0.135000 0.128750 0.000000
0.270000 0.128750 0.000000
0.405000 0.128750 0.000000
0.540000 0.128750 0.000000
0.675000 0.128750 0.000000
0.810000 0.128750 0.000000
0.945000 0.128750 0.000000
1.000000 0.128750 0.000000
0.000000 0.257500 0.000000
0.135000 0.257500 0.000000
0.270000 0.257500 0.000000
0.405000 0.257500 0.000000
0.540000 0.257500 0.000000
0.675000 0.257500 0.000000
0.810000 0.257500 0.000000
0.945000 0.257500 0.000000
1.000000 0.257500 0.000000
0.000000 0.386250 0.000000
0.135000 0.386250 0.000000
0.270000 0.386250 0.000000
0.405000 0.386250 0.000000
0.540000 0.386250 0.000000
0.675000 0.386250 0.000000
0.810000 0.386250 0.000000
0.945000 0.386250 0.000000
1.000000 0.386250 0.000000
0.000000 0.515000 0.000000
0.135000 0.515000 0.000000
0.270000 0.515000 0.000000
0.405000 0.515000 0.000000
0.540000 0.515000 0.000000
0.675000 0.515000 0.000000
0.810000 0.515000 0.000000
0.945000 0.515000 0.000000
1.000000 0.515000 0.000000
0.000000 0.643750 0.000000
0.135000 0.643750 0.000000
0.270000 0.643750 0.000000
0.405000 0.643750 0.000000
0.540000 0.643750 0.000000
0.675000 0.643750 0.000000
0.810000 0.643750 0.000000
0.945000 0.643750 0.000000
1.000000 0.643750 0.000000
0.000000 0.772500 0.000000
0.135000 0.772500 0.000000
0.270000 0.772500 0.000000
0.405000 0.772500 0.000000
0.540000 0.772500 0.000000
0.675000 0.772500 0.000000
0.810000 0.772500 0.000000
0.945000 0.772500 0.000000
1.000000 0.772500 0.000000
0.000000 0.901250 0.000000
0.135000 0.901250 0.000000
0.270000 0.901250 0.000000
0.405000 0.901250 0.000000
0.540000 0.901250 0.000000
0.675000 0.901250 0.000000
0.810000 0.901250 0.000000
0.945000 0.901250 0.000000
1.000000 0.901250 0.000000
0.000000 1.000000 0.000000
0.135000 1.000000 0.000000
0.270000 1.000000 0.000000
0.405000 1.000000 0.000000
0.540000 1.000000 0.000000
0.675000 1.000000 0.000000
0.810000 1.000000 0.000000
0.945000 1.000000 0.000000
1.000000 1.000000 0.000000
0.000000 0.000000 0.112500
0.135000 0.000000 0.112500
0.270000 0.000000 0.112500
0.405000 0.000000 0.112500
0.540000 0.000000 0.112500
0.675000 0.000000 0.112500
0.810000 0.000000 0.112500
0.945000 0.000000 0.112500
1.000000 0.000000 0.112500
0.000000 0.128750 0.112500
0.135000 0.128750 0.112500
0.270000 0.128750 0.112500
0.405000 0.128750 0.112500
0.540000 0.128750 0.112500
0.675000 0.128750 0.112500
0.810000 0.128750 0.112500
0.945000 0.128750 0.112500
1.000000 0.128750 0.112500
0.000000 0.257500 0.112500
0.135000 0.257500 0.112500
0.270000 0.257500 0.112500
0.405000 0.257500 0.112500
0.540000 0.257500 0.112500
0.675000 0.257500 0.112500
0.810000 0.257500 0.112500
0.945000 0.257500 0.112500
1.000000 0.257500 0.112500
0.000000 0.386250 0.112500
0.135000 0.386250 0.112500
0.270000 0.386250 0.112500
0.405000 0.386250 0.112500
0.540000 0.386250 0.112500
0.675000 0.386250 0.112500
0.810000 0.386250 0.112500
0.945000 0.386250 0.112500
1.000000 0.386250 0.112500
0.000000 0.515000 0.112500
0.135000 0.515000 0.112500
0.270000 0.515000 0.112500
0.405000 0.515000 0.112500
0.540000 0.515000 0.112500
0.675000 0.515000 0.112500
0.810000 0.515000 0.112500
0.945000 0.515000 0.112500
1.000000 0.515000 0.112500
0.000000 0.643750 0.112500
0.135000 0.643750 0.112500
0.270000 0.643750 0.112500
0.405000 0.643750 0.112500
0.540000 0.643750 0.112500
0.675000 0.643750 0.112500
0.810000 0.643750 0.112500
0.945000 0.643750 0.112500
1.000000 0.643750 0.112500
0.000000 0.772500 0.112500
0.135000 0.772500 0.112500
0.270000 0.772500 0.112500
0.405000 0.772500 0.112500
0.540000 0.772500 0.112500
0.675000 0.772500 0.112500
0.810000 0.772500 0.112500
0.945000 0.772500 0.112500
1.000000 0.772500 0.112500
0.000000 0.901250 0.112500
0.135000 0.901250 0.112500
0.270000 0.901250 0.112500
0.405000 0.901250 0.112500
0.540000 0.901250 0.112500
0.675000 0.901250 0.112500
0.810000 0.901250 0.112500
0.945000 0.901250 0.112500
1.000000 0.901250 0.112500
0.000000 1.000000 0.112500
0.135000 1.000000 0.112500
0.270000 1.000000 0.112500
0.405000 1.000000 0.112500
0.540000 1.000000 0.112500
0.675000 1.000000 0.112500
0.810000 1.000000 0.112500
0.945000 1.000000 0.112500
1.000000 1.000000 0.112500
0.000000 0.000000 0.225000
0.135000 0.000000 0.225000
0.270000 0.000000 0.225000
0.405000 0.000000 0.225000
0.540000 0.000000 0.225000
0.675000 0.000000 0.225000
0.810000 0.000000 0.225000
0.945000 0.000000 0.225000
1.000000 0.000000 0.225000
0.000000 0.128750 0.225000
0.135000 0.128750 0.225000
0.270000 0.128750 0.225000
0.405000 0.128750 0.225000
0.540000 0.128750 0.225000
0.675000 0.128750 0.225000
0.810000 0.128750 0.225000
0.945000 0.128750 0.225000
1.000000 0.128750 0.225000
0.000000 0.257500 0.225000
0.135000 0.257500 0.225000
0.270000 0.257500 0.225000
0.405000 0.257500 0.225000
0.540000 0.257500 0.225000
0.675000 0.257500 0.225000
0.810000 0.257500 0.225000
0.945000 0.257500 0.225000
1.000000 0.257500 0.225000
0.000000 0.386250 0.225000
0.135000 0.386250 0.225000
0.270000 0.386250 0.225000
0.405000 0.386250 0.225000
0.540000 0.386250 0.225000
0.675000 0.386250 0.225000
0.810000 0.386250 0.225000
0.945000 0.386250 0.225000
1.000000 0.386250 0.225000
0.000000 0.515000 0.225000
0.135000 0.515000 0.225000
0.270000 0.515000 0.225000
0.405000 0.515000 0.225000
0.540000 0.515000 0.225000
0.675000 0.515000 0.225000
0.810000 0.515000 0.225000
0.945000 0.515000 0.225000
1.000000 0.515000 0.225000
0.000000 0.643750 0.225000
0.135000 0.643750 0.225000
0.270000 0.643750 0.225000
0.405000 0.643750 0.225000
0.540000 0.643750 0.225000
0.675000 0.643750 0.225000
0.810000 0.643750 0.225000
0.945000 0.643750 0.225000
1.000000 0.643750 0.225000
0.000000 0.772500 0.225000
0.135000 0.772500 0.225000
0.270000 0.772500 0.225000
0.405000 0.772500 0.225000
0.540000 0.772500 0.225000
0.675000 0.772500 0.225000
0.810000 0.772500 0.225000
0.945000 0.772500 0.225000
1.000000 0.772500 0.225000
0.000000 0.901250 0.225000
0.135000 0.901250 0.225000
0.270000 0.901250 0.225000
0.405000 0.901250 0.225000
0.540000 0.901250 0.225000
0.675000 0.901250 0.225000
0.810000 0.901250 0.225000
0.945000 0.901250 0.225000
1.000000 0.901250 0.225000
0.000000 1.000000 0.225000
0.135000 1.000000 0.225000
0.270000 1.000000 0.225000
0.405000 1.000000 0.225000
0.540000 1.000000 0.225000
0.675000 1.000000 0.225000
0.810000 1.000000 0.225000
0.945000 1.000000 0.225000
1.000000 1.000000 0.225000
0.000000 0.000000 0.337500
0.135000 0.000000 0.337500
0.270000 0.000000 0.337500
0.405000 0.000000 0.337500
0.540000 0.000000 0.337500
0.675000 0.000000 0.337500
0.810000 0.000000 0.337500
0.945000 0.000000 0.337500
1.000000 0.000000 0.337500
0.000000 0.128750 0.337500
0.135000 0.128750 0.337500
0.270000 0.128750 0.337500
0.405000 0.128750 0.337500
0.540000 0.128750 0.337500
0.675000 0.128750 0.337500
0.810000 0.128750 0.337500
0.945000 0.128750 0.337500
1.000000 0.128750 0.337500
0.000000 0.257500 0.337500
0.135000 0.257500 0.337500
0.270000 0.257500 0.337500
0.405000 0.257500 0.337500
0.540000 0.257500 0.337500
0.675000 0.257500 0.337500
0.810000 0.257500 0.337500
0.945000 0.257500 0.337500
1.000000 0.257500 0.337500
0.000000 0.386250 0.337500
0.135000 0.386250 0.337500
0.270000 0.386250 0.337500
0.405000 0.386250 0.337500
0.540000 0.386250 0.337500
0.675000 0.386250 0.337500
0.810000 0.386250 0.337500
0.945000 0.386250 0.337500
1.000000 0.386250 0.337500
0.000000 0.515000 0.337500
0.135000 0.515000 0.337500
0.270000 0.515000 0.337500
0.405000 0.515000 0.337500
0.540000 0.515000 0.337500
0.675000 0.515000 0.337500
0.810000 0.515000 0.337500
0.945000 0.515000 0.337500
1.000000 0.515000 0.337500
0.000000 0.643750 0.337500
0.135000 0.643750 0.337500
0.270000 0.643750 0.337500
0.405000 0.643750 0.337500
0.540000 0.643750 0.337500
0.675000 0.643750 0.337500
0.810000 0.643750 0.337500
0.945000 0.643750 0.337500
1.000000 0.643750 0.337500
0.000000 0.772500 0.337500
0.135000 0.772500 0.337500
0.270000 0.772500 0.337500
0.405000 0.772500 0.337500
0.540000 0.772500 0.337500
0.675000 0.772500 0.337500
0.810000 0.772500 0.337500
0.945000 0.772500 0.337500
1.000000 0.772500 0.337500
0.000000 0.901250 0.337500
0.135000 0.901250 0.337500
0.270000 0.901250 0.337500
0.405000 0.901250 0.337500
0.540000 0.901250 0.337500
0.675000 0.901250 0.337500
0.810000 0.901250 0.337500
0.945000 0.901250 0.337500
1.000000 0.901250 0.337500
0.000000 1.000000 0.337500
0.135000 1.000000 0.337500
0.270000 1.000000 0.337500
0.405000 1.000000 0.337500
0.540000 1.000000 0.337500
0.675000 1.000000 0.337500
0.810000 1.000000 0.337500
0.945000 1.000000 0.337500
1.000000 1.000000 0.337500
0.000000 0.000000 0.450000
0.135000 0.000000 0.450000
0.270000 0.000000 0.450000
0.405000 0.000000 0.450000
0.540000 0.000000 0.450000
0.675000 0.000000 0.450000
0.810000 0.000000 0.450000
0.945000 0.000000 0.450000
1.000000 0.000000 0.450000
0.000000 0.128750 0.450000
0.135000 0.128750 0.450000
0.270000 0.128750 0.450000
0.405000 0.128750 0.450000
0.540000 0.128750 0.450000
0.675000 0.128750 0.450000
0.810000 0.128750 0.450000
0.945000 0.128750 0.450000
1.000000 0.128750 0.450000
0.000000 0.257500 0.450000
0.135000 0.257500 0.450000
0.270000 0.257500 0.450000
0.405000 0.257500 0.450000
0.540000 0.257500 0.450000
0.675000 0.257500 0.450000
0.810000 0.257500 0.450000
0.945000 0.257500 0.450000
1.000000 0.257500 0.450000
0.000000 0.386250 0.450000
0.135000 0.386250 0.450000
0.270000 0.386250 0.450000
0.405000 0.386250 0.450000
0.540000 0.386250 0.450000
0.675000 0.386250 0.450000
0.810000 0.386250 0.450000
0.945000 0.386250 0.450000
1.000000 0.386250 0.450000
0.000000 0.515000 0.450000
0.135000 0.515000 0.450000
0.270000 0.515000 0.450000
0.405000 0.515000 0.450000
0.540000 0.515000 0.450000
0.675000 0.515000 0.450000
0.810000 0.515000 0.450000
0.945000 0.515000 0.450000
1.000000 0.515000 0.450000
0.000000 0.643750 0.450000
0.135000 0.643750 0.450000
0.270000 0.643750 0.450000
0.405000 0.643750 0.450000
0.540000 0.643750 0.450000
0.675000 0.643750 0.450000
0.810000 0.643750 0.450000
0.945000 0.643750 0.450000
1.000000 0.643750 0.450000
0.000000 0.772500 0.450000
0.135000 0.772500 0.450000
0.270000 0.772500 0.450000
0.405000 0.772500 0.450000
0.540000 0.772500 0.450000
0.675000 0.772500 0.450000
0.810000 0.772500 0.450000
0.945000 0.772500 0.450000
1.000000 0.772500 0.450000
0.000000 0.901250 0.450000
0.135000 0.901250 0.450000
0.270000 0.901250 0.450000
0.405000 0.901250 0.450000
0.540000 0.901250 0.450000
0.675000 0.901250 0.450000
0.810000 0.901250 0.450000
0.945000 0.901250 0.450000
1.000000 0.901250 0.450000
0.000000 1.000000 0.450000
0.135000 1.000000 0.450000
0.270000 1.000000 0.450000
0.405000 1.000000 0.450000
0.540000 1.000000 0.450000
0.675000 1.000000 0.450000
0.810000 1.000000 0.450000
0.945000 1.000000 0.450000
1.000000 1.000000 0.450000
0.000000 0.000000 0.562500
0.135000 0.000000 0.562500
0.270000 0.000000 0.562500
0.405000 0.000000 0.562500
0.540000 0.000000 0.562500
0.675000 0.000000 0.562500
0.810000 0.000000 0.562500
0.945000 0.000000 0.562500
1.000000 0.000000 0.562500
0.000000 0.128750 0.562500
0.135000 0.128750 0.562500
0.270000 0.128750 0.562500
0.405000 0.128750 0.562500
0.540000 0.128750 0.562500
0.675000 0.128750 0.562500
0.810000 0.128750 0.562500
0.945000 0.128750 0.562500
1.000000 0.128750 0.562500
0.000000 0.257500 0.562500
0.135000 0.257500 0.562500
0.270000 0.257500 0.562500
0.405000 0.257500 0.562500
0.540000 0.257500 0.562500
0.675000 0.257500 0.562500
0.810000 0.257500 0.562500
0.945000 0.257500 0.562500
1.000000 0.257500 0.562500
0.000000 0.386250 0.562500
0.135000 0.386250 0.562500
0.270000 0.386250 0.562500
0.405000 0.386250 0.562500
0.540000 0.386250 0.562500
0.675000 0.386250 0.562500
0.810000 0.386250 0.562500
0.945000 0.386250 0.562500
1.000000 0.386250 0.562500
0.000000 0.515000 0.562500
0.135000 0.515000 0.562500
0.270000 0.515000 0.562500
0.405000 0.515000 0.562500
0.540000 0.515000 0.562500
0.675000 0.515000 0.562500
0.810000 0.515000 0.562500
0.945000 0.515000 0.562500
1.000000 0.515000 0.562500
0.000000 0.643750 0.562500
0.135000 0.643750 0.562500
0.270000 0.643750 0.562500
0.405000 0.643750 0.562500
0.540000 0.643750 0.562500
0.675000 0.643750 0.562500
0.810000 0.643750 0.562500
0.945000 0.643750 0.562500
1.000000 0.643750 0.562500
0.000000 0.772500 0.562500
0.135000 0.772500 0.562500
0.270000 0.772500 0.562500
0.405000 0.772500 0.562500
0.540000 0.772500 0.562500
0.675000 0.772500 0.562500
0.810000 0.772500 0.562500
0.945000 0.772500 0.562500
1.000000 0.772500 0.562500
0.000000 0.901250 0.562500
0.135000 0.901250 0.562500
0.270000 0.901250 0.562500
0.405000 0.901250 0.562500
0.540000 0.901250 0.562500
0.675000 0.901250 0.562500
0.810000 0.901250 0.562500
0.945000 0.901250 0.562500
1.000000 0.901250 0.562500
0.000000 1.000000 0.562500
0.135000 1.000000 0.562500
0.270000 1.000000 0.562500
0.405000 1.000000 0.562500
0.540000 1.000000 0.562500
0.675000 1.000000 0.562500
0.810000 1.000000 0.562500
0.945000 1.000000 0.562500
1.000000 1.000000 0.562500
0.000000 0.000000 0.675000
0.135000 0.000000 0.675000
0.270000 0.000000 0.675000
0.405000 0.000000 0.675000
0.540000 0.000000 0.675000
0.675000 0.000000 0.675000
0.810000 0.000000 0.675000
0.945000 0.000000 0.675000
1.000000 0.000000 0.675000
0.000000 0.128750 0.675000
0.135000 0.128750 0.675000
0.270000 0.128750 0.675000
0.405000 0.128750 0.675000
0.540000 0.128750 0.675000
0.675000 0.128750 0.675000
0.810000 0.128750 0.675000
0.945000 0.128750 0.675000
1.000000 0.128750 0.675000
0.000000 0.257500 0.675000
0.135000 0.257500 0.675000
0.270000 0.257500 0.675000
0.405000 0.257500 0.675000
0.540000 0.257500 0.675000
0.675000 0.257500 0.675000
0.810000 0.257500 0.675000
0.945000 0.257500 0.675000
1.000000 0.257500 0.675000
0.000000 0.386250 0.675000
0.135000 0.386250 0.675000
0.270000 0.386250 0.675000
0.405000 0.386250 0.675000
0.540000 0.386250 0.675000
0.675000 0.386250 0.675000
0.810000 0.386250 0.675000
0.945000 0.386250 0.675000
1.000000 0.386250 0.675000
0.000000 0.515000 0.675000
0.135000 0.515000 0.675000
0.270000 0.515000 0.675000
0.405000 0.515000 0.675000
0.540000 0.515000 0.675000
0.675000 0.515000 0.675000
0.810000 0.515000 0.675000
0.945000 0.515000 0.675000
1.000000 0.515000 0.675000
0.000000 0.643750 0.675000
0.135000 0.643750 0.675000
0.270000 0.643750 0.675000
0.405000 0.643750 0.675000
0.540000 0.643750 0.675000
0.675000 0.643750 0.675000
0.810000 0.643750 0.675000
0.945000 0.643750 0.675000
1.000000 0.643750 0.675000
0.000000 0.772500 0.675000
0.135000 0.772500 0.675000
0.270000 0.772500 0.675000
0.405000 0.772500 0.675000
0.540000 0.772500 0.675000
0.675000 0.772500 0.675000
0.810000 0.772500 0.675000
0.945000 0.772500 0.675000
1.000000 0.772500 0.675000
0.000000 0.901250 0.675000
0.135000 0.901250 0.675000
0.270000 0.901250 0.675000
0.405000 0.901250 0.675000
0.540000 0.901250 0.675000
0.675000 0.901250 0.675000
0.810000 0.901250 0.675000
0.945000 0.901250 0.675000
1.000000 0.901250 0.675000
0.000000 1.000000 0.675000
0.135000 1.000000 0.675000
0.270000 1.000000 0.675000
0.405000 1.000000 0.675000
0.540000 1.000000 0.675000
0.675000 1.000000 0.675000
0.810000 1.000000 0.675000
0.945000 1.000000 0.675000
1.000000 1.000000 0.675000
0.000000 0.000000 0.787500
0.135000 0.000000 0.787500
0.270000 0.000000 0.787500
0.405000 0.000000 0.787500
0.540000 0.000000 0.787500
0.675000 0.000000 0.787500
0.810000 0.000000 0.787500
0.945000 0.000000 0.787500
1.000000 0.000000 0.787500
0.000000 0.128750 0.787500
0.135000 0.128750 0.787500
0.270000 0.128750 0.787500
0.405000 0.128750 0.787500
0.540000 0.128750 0.787500
0.675000 0.128750 0.787500
0.810000 0.128750 0.787500
0.945000 0.128750 0.787500
1.000000 0.128750 0.787500
0.000000 0.257500 0.787500
0.135000 0.257500 0.787500
0.270000 0.257500 0.787500
0.405000 0.257500 0.787500
0.540000 0.257500 0.787500
0.675000 0.257500 0.787500
0.810000 0.257500 0.787500
0.945000 0.257500 0.787500
1.000000 0.257500 0.787500
0.000000 0.386250 0.787500
0.135000 0.386250 0.787500
0.270000 0.386250 0.787500
0.405000 0.386250 0.787500
0.540000 0.386250 0.787500
0.675000 0.386250 0.787500
0.810000 0.386250 0.787500
0.945000 0.386250 0.787500
1.000000 0.386250 0.787500
0.000000 0.515000 0.787500
0.135000 0.515000 0.787500
0.270000 0.515000 0.787500
0.405000 0.515000 0.787500
0.540000 0.515000 0.787500
0.675000 0.515000 0.787500
0.810000 0.515000 0.787500
0.945000 0.515000 0.787500
1.000000 0.515000 0.787500
0.000000 0.643750 0.787500
0.135000 0.643750 0.787500
0.270000 0.643750 0.787500
0.405000 0.643750 0.787500
0.540000 0.643750 0.787500
0.675000 0.643750 0.787500
0.810000 0.643750 0.787500
0.945000 0.643750 0.787500
1.000000 0.643750 0.787500
0.000000 0.772500 0.787500
0.135000 0.772500 0.787500
0.270000 0.772500 0.787500
0.405000 0.772500 0.787500
0.540000 0.772500 0.787500
0.675000 0.772500 0.787500
0.810000 0.772500 0.787500
0.945000 0.772500 0.787500
1.000000 0.772500 0.787500
0.000000 0.901250 0.787500
0.135000 0.901250 0.787500
0.270000 0.901250 0.787500
0.405000 0.901250 0.787500
0.540000 0.901250 0.787500
0.675000 0.901250 0.787500
0.810000 0.901250 0.787500
0.945000 0.901250 0.787500
1.000000 0.901250 0.787500
0.000000 1.000000 0.787500
0.135000 1.000000 0.787500
0.270000 1.000000 0.787500
0.405000 1.000000 0.787500
0.540000 1.000000 0.787500
0.675000 1.000000 0.787500
0.810000 1.000000 0.787500
0.945000 1.000000 0.787500
1.000000 1.000000 0.787500
0.000000 0.000000 0.900000
0.135000 0.000000 0.900000
0.270000 0.000000 0.900000
0.405000 0.000000 0.900000
0.540000 0.000000 0.900000
0.675000 0.000000 0.900000
0.810000 0.000000 0.900000
0.945000 0.000000 0.900000
1.000000 0.000000 0.900000
0.000000 0.128750 0.900000
0.135000 0.128750 0.900000
0.270000 0.128750 0.900000
0.405000 0.128750 0.900000
0.540000 0.128750 0.900000
0.675000 0.128750 0.900000
0.810000 0.128750 0.900000
0.945000 0.128750 0.900000
1.000000 0.128750 0.900000
0.000000 0.257500 0.900000
0.135000 0.257500 0.900000
0.270000 0.257500 0.900000
0.405000 0.257500 0.900000
0.540000 0.257500 0.900000
0.675000 0.257500 0.900000
0.810000 0.257500 0.900000
0.945000 0.257500 0.900000
1.000000 0.257500 0.900000
0.000000 0.386250 0.900000
0.135000 0.386250 0.900000
0.270000 0.386250 0.900000
0.405000 0.386250 0.900000
0.540000 0.386250 0.900000
0.675000 0.386250 0.900000
0.810000 0.386250 0.900000
0.945000 0.386250 0.900000
1.000000 0.386250 0.900000
0.000000 0.515000 0.900000
0.135000 0.515000 0.900000
0.270000 0.515000 0.900000
0.405000 0.515000 0.900000
0.540000 0.515000 0.900000
0.675000 0.515000 0.900000
0.810000 0.515000 0.900000
0.945000 0.515000 0.900000
1.000000 0.515000 0.900000
0.000000 0.643750 0.900000
0.135000 0.643750 0.900000
0.270000 0.643750 0.900000
0.405000 0.643750 0.900000
0.540000 0.643750 0.900000
0.675000 0.643750 0.900000
0.810000 0.643750 0.900000
0.945000 0.643750 0.900000
1.000000 0.643750 0.900000
0.000000 0.772500 0.900000
0.135000 0.772500 0.900000
0.270000 0.772500 0.900000
0.405000 0.772500 0.900000
0.540000 0.772500 0.900000
0.675000 0.772500 0.900000
0.810000 0.772500 0.900000
0.945000 0.772500 0.900000
1.000000 0.772500 0.900000
0.000000 0.901250 0.900000
0.135000 0.901250 0.900000
0.270000 0.901250 0.900000
0.405000 0.901250 0.900000
0.540000 0.901250 0.900000
0.675000 0.901250 0.900000
0.810000 0.901250 0.900000
0.945000 0.901250 0.900000
1.000000 0.901250 0.900000
0.000000 1.000000 0.900000
0.135000 1.000000 0.900000
0.270000 1.000000 0.900000
0.405000 1.000000 0.900000
0.540000 1.000000 0.900000
0.675000 1.000000 0.900000
0.810000 1.000000 0.900000
0.945000 1.000000 0.900000
1.000000 1.000000 0.900000
