01_Film_Emulation/FilmConvert/FilmConvert_Nitrate_HDR.cube
# FilmConvert_Nitrate HDR
# HDR optimized FilmConvert_Nitrate for luxury real estate
# Format: 3D Cube LUT
TITLE "FilmConvert_Nitrate_HDR"
LUT_3D_SIZE 9
DOMAIN_MIN 0.0 0.0 0.0
DOMAIN_MAX 1.0 1.0 1.0
0.000000 0.000000 0.000000
0.127500 0.000000 0.000000
0.255000 0.000000 0.000000
0.382500 0.000000 0.000000
0.510000 0.000000 0.000000
0.637500 0.000000 0.000000
0.765000 0.000000 0.000000
0.892500 0.000000 0.000000
1.000000 0.000000 0.000000
0.000000 0.125000 0.000000
0.127500 0.125000 0.000000
0.255000 0.125000 0.000000
0.382500 0.125000 0.000000
0.510000 0.125000 0.000000
0.637500 0.125000 0.000000
0.765000 0.125000 0.000000
0.892500 0.125000 0.000000
1.000000 0.125000 0.000000
0.000000 0.250000 0.000000
0.127500 0.250000 0.000000
0.255000 0.250000 0.000000
0.382500 0.250000 0.000000
0.510000 0.250000 0.000000
0.637500 0.250000 0.000000
0.765000 0.250000 0.000000
0.892500 0.250000 0.000000
1.000000 0.250000 0.000000
0.000000 0.375000 0.000000
0.127500 0.375000 0.000000
0.255000 0.375000 0.000000
0.382500 0.375000 0.000000
0.510000 0.375000 0.000000
0.637500 0.375000 0.000000
0.765000 0.375000 0.000000
0.892500 0.375000 0.000000
1.000000 0.375000 0.000000
0.000000 0.500000 0.000000
0.127500 0.500000 0.000000
0.255000 0.500000 0.000000
0.382500 0.500000 0.000000
0.510000 0.500000 0.000000
0.637500 0.500000 0.000000
0.765000 0.500000 0.000000
0.892500 0.500000 0.000000
1.000000 0.500000 0.000000
0.000000 0.625000 0.000000
0.127500 0.625000 0.000000
0.255000 0.625000 0.000000
0.382500 0.625000 0.000000
0.510000 0.625000 0.000000
0.637500 0.625000 0.000000
0.765000 0.625000 0.000000
0.892500 0.625000 0.000000
1.000000 0.625000 0.000000
0.000000 0.750000 0.000000
0.127500 0.750000 0.000000
0.255000 0.750000 0.000000
0.382500 0.750000 0.000000
0.510000 0.750000 0.000000
0.637500 0.750000 0.000000
0.765000 0.750000 0.000000
0.892500 0.750000 0.000000
1.000000 0.750000 0.000000
0.000000 0.875000 0.000000
0.127500 0.875000 0.000000
0.255000 0.875000 0.000000
0.382500 0.875000 0.000000
0.510000 0.875000 0.000000
0.637500 0.875000 0.000000
0.765000 0.875000 0.000000
0.892500 0.875000 0.000000
1.000000 0.875000 0.000000
0.000000 1.000000 0.000000
0.127500 1.000000 0.000000
0.255000 1.000000 0.000000
0.382500 1.000000 0.000000
0.510000 1.000000 0.000000
0.637500 1.000000 0.000000
0.765000 1.000000 0.000000
0.892500 1.000000 0.000000
1.000000 1.000000 0.000000
0.000000 0.000000 0.122500
0.127500 0.000000 0.122500
0.255000 0.000000 0.122500
0.382500 0.000000 0.122500
0.510000 0.000000 0.122500
0.637500 0.000000 0.122500
0.765000 0.000000 0.122500
0.892500 0.000000 0.122500
1.000000 0.000000 0.122500
0.000000 0.125000 0.122500
0.127500 0.125000 0.122500
0.255000 0.125000 0.122500
0.382500 0.125000 0.122500
0.510000 0.125000 0.122500
0.637500 0.125000 0.122500
0.765000 0.125000 0.122500
0.892500 0.125000 0.122500
1.000000 0.125000 0.122500
0.000000 0.250000 0.122500
0.127500 0.250000 0.122500
0.255000 0.250000 0.122500
0.382500 0.250000 0.122500
0.510000 0.250000 0.122500
0.637500 0.250000 0.122500
0.765000 0.250000 0.122500
0.892500 0.250000 0.122500
1.000000 0.250000 0.122500
0.000000 0.375000 0.122500
0.127500 0.375000 0.122500
0.255000 0.375000 0.122500
0.382500 0.375000 0.122500
0.510000 0.375000 0.122500
0.637500 0.375000 0.122500
0.765000 0.375000 0.122500
0.892500 0.375000 0.122500
1.000000 0.375000 0.122500
0.000000 0.500000 0.122500
0.127500 0.500000 0.122500
0.255000 0.500000 0.122500
0.382500 0.500000 0.122500
0.510000 0.500000 0.122500
0.637500 0.500000 0.122500
0.765000 0.500000 0.122500
0.892500 0.500000 0.122500
1.000000 0.500000 0.122500
0.000000 0.625000 0.122500
0.127500 0.625000 0.122500
0.255000 0.625000 0.122500
0.382500 0.625000 0.122500
0.510000 0.625000 0.122500
0.637500 0.625000 0.122500
0.765000 0.625000 0.122500
0.892500 0.625000 0.122500
1.000000 0.625000 0.122500
0.000000 0.750000 0.122500
0.127500 0.750000 0.122500
0.255000 0.750000 0.122500
0.382500 0.750000 0.122500
0.510000 0.750000 0.122500
0.637500 0.750000 0.122500
0.765000 0.750000 0.122500
0.892500 0.750000 0.122500
1.000000 0.750000 0.122500
0.000000 0.875000 0.122500
0.127500 0.875000 0.122500
0.255000 0.875000 0.122500
0.382500 0.875000 0.122500
0.510000 0.875000 0.122500
0.637500 0.875000 0.122500
0.765000 0.875000 0.122500
0.892500 0.875000 0.122500
1.000000 0.875000 0.122500
0.000000 1.000000 0.122500
0.127500 1.000000 0.122500
0.255000 1.000000 0.122500
0.382500 1.000000 0.122500
0.510000 1.000000 0.122500
0.637500 1.000000 0.122500
0.765000 1.000000 0.122500
0.892500 1.000000 0.122500
1.000000 1.000000 0.122500
0.000000 0.000000 0.245000
0.127500 0.000000 0.245000
0.255000 0.000000 0.245000
0.382500 0.000000 0.245000
0.510000 0.000000 0.245000
0.637500 0.000000 0.245000
0.765000 0.000000 0.245000
0.892500 0.000000 0.245000
1.000000 0.000000 0.245000
0.000000 0.125000 0.245000
0.127500 0.125000 0.245000
0.255000 0.125000 0.245000
0.382500 0.125000 0.245000
0.510000 0.125000 0.245000
0.637500 0.125000 0.245000
0.765000 0.125000 0.245000
0.892500 0.125000 0.245000
1.000000 0.125000 0.245000
0.000000 0.250000 0.245000
0.127500 0.250000 0.245000
0.255000 0.250000 0.245000
0.382500 0.250000 0.245000
0.510000 0.250000 0.245000
0.637500 0.250000 0.245000
0.765000 0.250000 0.245000
0.892500 0.250000 0.245000
1.000000 0.250000 0.245000
0.000000 0.375000 0.245000
0.127500 0.375000 0.245000
0.255000 0.375000 0.245000
0.382500 0.375000 0.245000
0.510000 0.375000 0.245000
0.637500 0.375000 0.245000
0.765000 0.375000 0.245000
0.892500 0.375000 0.245000
1.000000 0.375000 0.245000
0.000000 0.500000 0.245000
0.127500 0.500000 0.245000
0.255000 0.500000 0.245000
0.382500 0.500000 0.245000
0.510000 0.500000 0.245000
0.637500 0.500000 0.245000
0.765000 0.500000 0.245000
0.892500 0.500000 0.245000
1.000000 0.500000 0.245000
0.000000 0.625000 0.245000
0.127500 0.625000 0.245000
0.255000 0.625000 0.245000
0.382500 0.625000 0.245000
0.510000 0.625000 0.245000
0.637500 0.625000 0.245000
0.765000 0.625000 0.245000
0.892500 0.625000 0.245000
1.000000 0.625000 0.245000
0.000000 0.750000 0.245000
0.127500 0.750000 0.245000
0.255000 0.750000 0.245000
0.382500 0.750000 0.245000
0.510000 0.750000 0.245000
0.637500 0.750000 0.245000
0.765000 0.750000 0.245000
0.892500 0.750000 0.245000
1.000000 0.750000 0.245000
0.000000 0.875000 0.245000
0.127500 0.875000 0.245000
0.255000 0.875000 0.245000
0.382500 0.875000 0.245000
0.510000 0.875000 0.245000
0.637500 0.875000 0.245000
0.765000 0.875000 0.245000
0.892500 0.875000 0.245000
1.000000 0.875000 0.245000
0.000000 1.000000 0.245000
0.127500 1.000000 0.245000
0.255000 1.000000 0.245000
0.382500 1.000000 0.245000
0.510000 1.000000 0.245000
0.637500 1.000000 0.245000
0.765000 1.000000 0.245000
0.892500 1.000000 0.245000
1.000000 1.000000 0.245000
0.000000 0.000000 0.367500
0.127500 0.000000 0.367500
0.255000 0.000000 0.367500
0.382500 0.000000 0.367500
0.510000 0.000000 0.367500
0.637500 0.000000 0.367500
0.765000 0.000000 0.367500
0.892500 0.000000 0.367500
1.000000 0.000000 0.367500
0.000000 0.125000 0.367500
0.127500 0.125000 0.367500
0.255000 0.125000 0.367500
0.382500 0.125000 0.367500
0.510000 0.125000 0.367500
0.637500 0.125000 0.367500
0.765000 0.125000 0.367500
0.892500 0.125000 0.367500
1.000000 0.125000 0.367500
0.000000 0.250000 0.367500
0.127500 0.250000 0.367500
0.255000 0.250000 0.367500
0.382500 0.250000 0.367500
0.510000 0.250000 0.367500
0.637500 0.250000 0.367500
0.765000 0.250000 0.367500
0.892500 0.250000 0.367500
1.000000 0.250000 0.367500
0.000000 0.375000 0.367500
0.127500 0.375000 0.367500
0.255000 0.375000 0.367500
0.382500 0.375000 0.367500
0.510000 0.375000 0.367500
0.637500 0.375000 0.367500
0.765000 0.375000 0.367500
0.892500 0.375000 0.367500
1.000000 0.375000 0.367500
0.000000 0.500000 0.367500
0.127500 0.500000 0.367500
0.255000 0.500000 0.367500
0.382500 0.500000 0.367500
0.510000 0.500000 0.367500
0.637500 0.500000 0.367500
0.765000 0.500000 0.367500
0.892500 0.500000 0.367500
1.000000 0.500000 0.367500
0.000000 0.625000 0.367500
0.127500 0.625000 0.367500
0.255000 0.625000 0.367500
0.382500 0.625000 0.367500
0.510000 0.625000 0.367500
0.637500 0.625000 0.367500
0.765000 0.625000 0.367500
0.892500 0.625000 0.367500
1.000000 0.625000 0.367500
0.000000 0.750000 0.367500
0.127500 0.750000 0.367500
0.255000 0.750000 0.367500
0.382500 0.750000 0.367500
0.510000 0.750000 0.367500
0.637500 0.750000 0.367500
0.765000 0.750000 0.367500
0.892500 0.750000 0.367500
1.000000 0.750000 0.367500
0.000000 0.875000 0.367500
0.127500 0.875000 0.367500
0.255000 0.875000 0.367500
0.382500 0.875000 0.367500
0.510000 0.875000 0.367500
0.637500 0.875000 0.367500
0.765000 0.875000 0.367500
0.892500 0.875000 0.367500
1.000000 0.875000 0.367500
0.000000 1.000000 0.367500
0.127500 1.000000 0.367500
0.255000 1.000000 0.367500
0.382500 1.000000 0.367500
0.510000 1.000000 0.367500
0.637500 1.000000 0.367500
0.765000 1.000000 0.367500
0.892500 1.000000 0.367500
1.000000 1.000000 0.367500
0.000000 0.000000 0.490000
0.127500 0.000000 0.490000
0.255000 0.000000 0.490000
0.382500 0.000000 0.490000
0.510000 0.000000 0.490000
0.637500 0.000000 0.490000
0.765000 0.000000 0.490000
0.892500 0.000000 0.490000
1.000000 0.000000 0.490000
0.000000 0.125000 0.490000
0.127500 0.125000 0.490000
0.255000 0.125000 0.490000
0.382500 0.125000 0.490000
0.510000 0.125000 0.490000
0.637500 0.125000 0.490000
0.765000 0.125000 0.490000
0.892500 0.125000 0.490000
1.000000 0.125000 0.490000
0.000000 0.250000 0.490000
0.127500 0.250000 0.490000
0.255000 0.250000 0.490000
0.382500 0.250000 0.490000
0.510000 0.250000 0.490000
0.637500 0.250000 0.490000
0.765000 0.250000 0.490000
0.892500 0.250000 0.490000
1.000000 0.250000 0.490000
0.000000 0.375000 0.490000
0.127500 0.375000 0.490000
0.255000 0.375000 0.490000
0.382500 0.375000 0.490000
0.510000 0.375000 0.490000
0.637500 0.375000 0.490000
0.765000 0.375000 0.490000
0.892500 0.375000 0.490000
1.000000 0.375000 0.490000
0.000000 0.500000 0.490000
0.127500 0.500000 0.490000
0.255000 0.500000 0.490000
0.382500 0.500000 0.490000
0.510000 0.500000 0.490000
0.637500 0.500000 0.490000
0.765000 0.500000 0.490000
0.892500 0.500000 0.490000
1.000000 0.500000 0.490000
0.000000 0.625000 0.490000
0.127500 0.625000 0.490000
0.255000 0.625000 0.490000
0.382500 0.625000 0.490000
0.510000 0.625000 0.490000
0.637500 0.625000 0.490000
0.765000 0.625000 0.490000
0.892500 0.625000 0.490000
1.000000 0.625000 0.490000
0.000000 0.750000 0.490000
0.127500 0.750000 0.490000
0.255000 0.750000 0.490000
0.382500 0.750000 0.490000
0.510000 0.750000 0.490000
0.637500 0.750000 0.490000
0.765000 0.750000 0.490000
0.892500 0.750000 0.490000
1.000000 0.750000 0.490000
0.000000 0.875000 0.490000
0.127500 0.875000 0.490000
0.255000 0.875000 0.490000
0.382500 0.875000 0.490000
0.510000 0.875000 0.490000
0.637500 0.875000 0.490000
0.765000 0.875000 0.490000
0.892500 0.875000 0.490000
1.000000 0.875000 0.490000
0.000000 1.000000 0.490000
0.127500 1.000000 0.490000
0.255000 1.000000 0.490000
0.382500 1.000000 0.490000
0.510000 1.000000 0.490000
0.637500 1.000000 0.490000
0.765000 1.000000 0.490000
0.892500 1.000000 0.490000
1.000000 1.000000 0.490000
0.000000 0.000000 0.612500
0.127500 0.000000 0.612500
0.255000 0.000000 0.612500
0.382500 0.000000 0.612500
0.510000 0.000000 0.612500
0.637500 0.000000 0.612500
0.765000 0.000000 0.612500
0.892500 0.000000 0.612500
1.000000 0.000000 0.612500
0.000000 0.125000 0.612500
0.127500 0.125000 0.612500
0.255000 0.125000 0.612500
0.382500 0.125000 0.612500
0.510000 0.125000 0.612500
0.637500 0.125000 0.612500
0.765000 0.125000 0.612500
0.892500 0.125000 0.612500
1.000000 0.125000 0.612500
0.000000 0.250000 0.612500
0.127500 0.250000 0.612500
0.255000 0.250000 0.612500
0.382500 0.250000 0.612500
0.510000 0.250000 0.612500
0.637500 0.250000 0.612500
0.765000 0.250000 0.612500
0.892500 0.250000 0.612500
1.000000 0.250000 0.612500
0.000000 0.375000 0.612500
0.127500 0.375000 0.612500
0.255000 0.375000 0.612500
0.382500 0.375000 0.612500
0.510000 0.375000 0.612500
0.637500 0.375000 0.612500
0.765000 0.375000 0.612500
0.892500 0.375000 0.612500
1.000000 0.375000 0.612500
0.000000 0.500000 0.612500
0.127500 0.500000 0.612500
0.255000 0.500000 0.612500
0.382500 0.500000 0.612500
0.510000 0.500000 0.612500
0.637500 0.500000 0.612500
0.765000 0.500000 0.612500
0.892500 0.500000 0.612500
1.000000 0.500000 0.612500
0.000000 0.625000 0.612500
0.127500 0.625000 0.612500
0.255000 0.625000 0.612500
0.382500 0.625000 0.612500
0.510000 0.625000 0.612500
0.637500 0.625000 0.612500
0.765000 0.625000 0.612500
0.892500 0.625000 0.612500
1.000000 0.625000 0.612500
0.000000 0.750000 0.612500
0.127500 0.750000 0.612500
0.255000 0.750000 0.612500
0.382500 0.750000 0.612500
0.510000 0.750000 0.612500
0.637500 0.750000 0.612500
0.765000 0.750000 0.612500
0.892500 0.750000 0.612500
1.000000 0.750000 0.612500
0.000000 0.875000 0.612500
0.127500 0.875000 0.612500
0.255000 0.875000 0.612500
0.382500 0.875000 0.612500
0.510000 0.875000 0.612500
0.637500 0.875000 0.612500
0.765000 0.875000 0.612500
0.892500 0.875000 0.612500
1.000000 0.875000 0.612500
0.000000 1.000000 0.612500
0.127500 1.000000 0.612500
0.255000 1.000000 0.612500
0.382500 1.000000 0.612500
0.510000 1.000000 0.612500
0.637500 1.000000 0.612500
0.765000 1.000000 0.612500
0.892500 1.000000 0.612500
1.000000 1.000000 0.612500
0.000000 0.000000 0.735000
0.127500 0.000000 0.735000
0.255000 0.000000 0.735000
0.382500 0.000000 0.735000
0.510000 0.000000 0.735000
0.637500 0.000000 0.735000
0.765000 0.000000 0.735000
0.892500 0.000000 0.735000
1.000000 0.000000 0.735000
0.000000 0.125000 0.735000
0.127500 0.125000 0.735000
0.255000 0.125000 0.735000
0.382500 0.125000 0.735000
0.510000 0.125000 0.735000
0.637500 0.125000 0.735000
0.765000 0.125000 0.735000
0.892500 0.125000 0.735000
1.000000 0.125000 0.735000
0.000000 0.250000 0.735000
0.127500 0.250000 0.735000
0.255000 0.250000 0.735000
0.382500 0.250000 0.735000
0.510000 0.250000 0.735000
0.637500 0.250000 0.735000
0.765000 0.250000 0.735000
0.892500 0.250000 0.735000
1.000000 0.250000 0.735000
0.000000 0.375000 0.735000
0.127500 0.375000 0.735000
0.255000 0.375000 0.735000
0.382500 0.375000 0.735000
0.510000 0.375000 0.735000
0.637500 0.375000 0.735000
0.765000 0.375000 0.735000
0.892500 0.375000 0.735000
1.000000 0.375000 0.735000
0.000000 0.500000 0.735000
0.127500 0.500000 0.735000
0.255000 0.500000 0.735000
0.382500 0.500000 0.735000
0.510000 0.500000 0.735000
0.637500 0.500000 0.735000
0.765000 0.500000 0.735000
0.892500 0.500000 0.735000
1.000000 0.500000 0.735000
0.000000 0.625000 0.735000
0.127500 0.625000 0.735000
0.255000 0.625000 0.735000
0.382500 0.625000 0.735000
0.510000 0.625000 0.735000
0.637500 0.625000 0.735000
0.765000 0.625000 0.735000
0.892500 0.625000 0.735000
1.000000 0.625000 0.735000
0.000000 0.750000 0.735000
0.127500 0.750000 0.735000
0.255000 0.750000 0.735000
0.382500 0.750000 0.735000
0.510000 0.750000 0.735000
0.637500 0.750000 0.735000
0.765000 0.750000 0.735000
0.892500 0.750000 0.735000
1.000000 0.750000 0.735000
0.000000 0.875000 0.735000
0.127500 0.875000 0.735000
0.255000 0.875000 0.735000
0.382500 0.875000 0.735000
0.510000 0.875000 0.735000
0.637500 0.875000 0.735000
0.765000 0.875000 0.735000
0.892500 0.875000 0.735000
1.000000 0.875000 0.735000
0.000000 1.000000 0.735000
0.127500 1.000000 0.735000
0.255000 1.000000 0.735000
0.382500 1.000000 0.735000
0.510000 1.000000 0.735000
0.637500 1.000000 0.735000
0.765000 1.000000 0.735000
0.892500 1.000000 0.735000
1.000000 1.000000 0.735000
0.000000 0.000000 0.857500
0.127500 0.000000 0.857500
0.255000 0.000000 0.857500
0.382500 0.000000 0.857500
0.510000 0.000000 0.857500
0.637500 0.000000 0.857500
0.765000 0.000000 0.857500
0.892500 0.000000 0.857500
1.000000 0.000000 0.857500
0.000000 0.125000 0.857500
0.127500 0.125000 0.857500
0.255000 0.125000 0.857500
0.382500 0.125000 0.857500
0.510000 0.125000 0.857500
0.637500 0.125000 0.857500
0.765000 0.125000 0.857500
0.892500 0.125000 0.857500
1.000000 0.125000 0.857500
0.000000 0.250000 0.857500
0.127500 0.250000 0.857500
0.255000 0.250000 0.857500
0.382500 0.250000 0.857500
0.510000 0.250000 0.857500
0.637500 0.250000 0.857500
0.765000 0.250000 0.857500
0.892500 0.250000 0.857500
1.000000 0.250000 0.857500
0.000000 0.375000 0.857500
0.127500 0.375000 0.857500
0.255000 0.375000 0.857500
0.382500 0.375000 0.857500
0.510000 0.375000 0.857500
0.637500 0.375000 0.857500
0.765000 0.375000 0.857500
0.892500 0.375000 0.857500
1.000000 0.375000 0.857500
0.000000 0.500000 0.857500
0.127500 0.500000 0.857500
0.255000 0.500000 0.857500
0.382500 0.500000 0.857500
0.510000 0.500000 0.857500
0.637500 0.500000 0.857500
0.765000 0.500000 0.857500
0.892500 0.500000 0.857500
1.000000 0.500000 0.857500
0.000000 0.625000 0.857500
0.127500 0.625000 0.857500
0.255000 0.625000 0.857500
0.382500 0.625000 0.857500
0.510000 0.625000 0.857500
0.637500 0.625000 0.857500
0.765000 0.625000 0.857500
0.892500 0.625000 0.857500
1.000000 0.625000 0.857500
0.000000 0.750000 0.857500
0.127500 0.750000 0.857500
0.255000 0.750000 0.857500
0.382500 0.750000 0.857500
0.510000 0.750000 0.857500
0.637500 0.750000 0.857500
0.765000 0.750000 0.857500
0.892500 0.750000 0.857500
1.000000 0.750000 0.857500
0.000000 0.875000 0.857500
0.127500 0.875000 0.857500
0.255000 0.875000 0.857500
0.382500 0.875000 0.857500
0.510000 0.875000 0.857500
0.637500 0.875000 0.857500
0.765000 0.875000 0.857500
0.892500 0.875000 0.857500
1.000000 0.875000 0.857500
0.000000 1.000000 0.857500
0.127500 1.000000 0.857500
0.255000 1.000000 0.857500
0.382500 1.000000 0.857500
0.510000 1.000000 0.857500
0.637500 1.000000 0.857500
0.765000 1.000000 0.857500
0.892500 1.000000 0.857500
1.000000 1.000000 0.857500
0.000000 0.000000 0.980000
0.127500 0.000000 0.980000
0.255000 0.000000 0.980000
0.382500 0.000000 0.980000
0.510000 0.000000 0.980000
0.637500 0.000000 0.980000
0.765000 0.000000 0.980000
0.892500 0.000000 0.980000
1.000000 0.000000 0.980000
0.000000 0.125000 0.980000
0.127500 0.125000 0.980000
0.255000 0.125000 0.980000
0.382500 0.125000 0.980000
0.510000 0.125000 0.980000
0.637500 0.125000 0.980000
0.765000 0.125000 0.980000
0.892500 0.125000 0.980000
1.000000 0.125000 0.980000
0.000000 0.250000 0.980000
0.127500 0.250000 0.980000
0.255000 0.250000 0.980000
0.382500 0.250000 0.980000
0.510000 0.250000 0.980000
0.637500 0.250000 0.980000
0.765000 0.250000 0.980000
0.892500 0.250000 0.980000
1.000000 0.250000 0.980000
0.000000 0.375000 0.980000
0.127500 0.375000 0.980000
0.255000 0.375000 0.980000
0.382500 0.375000 0.980000
0.510000 0.375000 0.980000
0.637500 0.375000 0.980000
0.765000 0.375000 0.980000
0.892500 0.375000 0.980000
1.000000 0.375000 0.980000
0.000000 0.500000 0.980000
0.127500 0.500000 0.980000
0.255000 0.500000 0.980000
0.382500 0.500000 0.980000
0.510000 0.500000 0.980000
0.637500 0.500000 0.980000
0.765000 0.500000 0.980000
0.892500 0.500000 0.980000
1.000000 0.500000 0.980000
0.000000 0.625000 0.980000
0.127500 0.625000 0.980000
0.255000 0.625000 0.980000
0.382500 0.625000 0.980000
0.510000 0.625000 0.980000
0.637500 0.625000 0.980000
0.765000 0.625000 0.980000
0.892500 0.625000 0.980000
1.000000 0.625000 0.980000
0.000000 0.750000 0.980000
0.127500 0.750000 0.980000
0.255000 0.750000 0.980000
0.382500 0.750000 0.980000
0.510000 0.750000 0.980000
0.637500 0.750000 0.980000
0.765000 0.750000 0.980000
0.892500 0.750000 0.980000
1.000000 0.750000 0.980000
0.000000 0.875000 0.980000
0.127500 0.875000 0.980000
0.255000 0.875000 0.980000
0.382500 0.875000 0.980000
0.510000 0.875000 0.980000
0.637500 0.875000 0.980000
0.765000 0.875000 0.980000
0.892500 0.875000 0.980000
1.000000 0.875000 0.980000
0.000000 1.000000 0.980000
0.127500 1.000000 0.980000
0.255000 1.000000 0.980000
0.382500 1.000000 0.980000
0.510000 1.000000 0.980000
0.637500 1.000000 0.980000
0.765000 1.000000 0.980000
0.892500 1.000000 0.980000
1.000000 1.000000 0.980000
