01_Film_Emulation/FilmConvert/FilmConvert_Nitrate_HDR.cube
# FilmConvert_Nitrate HDR
# HDR optimized FilmConvert_Nitrate for luxury real estate
# Format: 3D Cube LUT
TITLE "FilmConvert_Nitrate_HDR"
LUT_3D_SIZE 33
DOMAIN_MIN 0.0 0.0 0.0
DOMAIN_MAX 1.0 1.0 1.0
0.000000 0.000000 0.000000
0.031875 0.000000 0.000000
0.063750 0.000000 0.000000
0.095625 0.000000 0.000000
0.127500 0.000000 0.000000
0.159375 0.000000 0.000000
0.191250 0.000000 0.000000
0.223125 0.000000 0.000000
0.255000 0.000000 0.000000
0.286875 0.000000 0.000000
0.318750 0.000000 0.000000
0.350625 0.000000 0.000000
0.382500 0.000000 0.000000
0.414375 0.000000 0.000000
0.446250 0.000000 0.000000
0.478125 0.000000 0.000000
0.510000 0.000000 0.000000
0.541875 0.000000 0.000000
0.573750 0.000000 0.000000
0.605625 0.000000 0.000000
0.637500 0.000000 0.000000
0.669375 0.000000 0.000000
0.701250 0.000000 0.000000
0.733125 0.000000 0.000000
0.765000 0.000000 0.000000
0.796875 0.000000 0.000000
0.828750 0.000000 0.000000
0.860625 0.000000 0.000000
0.892500 0.000000 0.000000
0.924375 0.000000 0.000000
0.956250 0.000000 0.000000
0.988125 0.000000 0.000000
1.000000 0.000000 0.000000
0.000000 0.031250 0.000000
0.031875 0.031250 0.000000
0.063750 0.031250 0.000000
0.095625 0.031250 0.000000
0.127500 0.031250 0.000000
0.159375 0.031250 0.000000
0.191250 0.031250 0.000000
0.223125 0.031250 0.000000
0.255000 0.031250 0.000000
0.286875 0.031250 0.000000
0.318750 0.031250 0.000000
0.350625 0.031250 0.000000
0.382500 0.031250 0.000000
0.414375 0.031250 0.000000
0.446250 0.031250 0.000000
0.478125 0.031250 0.000000
0.510000 0.031250 0.000000
0.541875 0.031250 0.000000
0.573750 0.031250 0.000000
0.605625 0.031250 0.000000
0.637500 0.031250 0.000000
0.669375 0.031250 0.000000
0.701250 0.031250 0.000000
0.733125 0.031250 0.000000
0.765000 0.031250 0.000000
0.796875 0.031250 0.000000
0.828750 0.031250 0.000000
0.860625 0.031250 0.000000
0.892500 0.031250 0.000000
0.924375 0.031250 0.000000
0.956250 0.031250 0.000000
0.988125 0.031250 0.000000
1.000000 0.031250 0.000000
0.000000 0.062500 0.000000
0.031875 0.062500 0.000000
0.063750 0.062500 0.000000
0.095625 0.062500 0.000000
0.127500 0.062500 0.000000
0.159375 0.062500 0.000000
0.191250 0.062500 0.000000
0.223125 0.062500 0.000000
0.255000 0.062500 0.000000
0.286875 0.062500 0.000000
0.318750 0.062500 0.000000
0.350625 0.062500 0.000000
0.382500 0.062500 0.000000
0.414375 0.062500 0.000000
0.446250 0.062500 0.000000
0.478125 0.062500 0.000000
0.510000 0.062500 0.000000
0.541875 0.062500 0.000000
0.573750 0.062500 0.000000
0.605625 0.062500 0.000000
0.637500 0.062500 0.000000
0.669375 0.062500 0.000000
0.701250 0.062500 0.000000
0.733125 0.062500 0.000000
0.765000 0.062500 0.000000
0.796875 0.062500 0.000000
0.828750 0.062500 0.000000
0.860625 0.062500 0.000000
0.892500 0.062500 0.000000
0.924375 0.062500 0.000000
0.956250 0.062500 0.000000
0.988125 0.062500 0.000000
1.000000 0.062500 0.000000
0.000000 0.093750 0.000000
0.031875 0.093750 0.000000
0.063750 0.093750 0.000000
0.095625 0.093750 0.000000
0.127500 0.093750 0.000000
0.159375 0.093750 0.000000
0.191250 0.093750 0.000000
0.223125 0.093750 0.000000
0.255000 0.093750 0.000000
0.286875 0.093750 0.000000
0.318750 0.093750 0.000000
0.350625 0.093750 0.000000
0.382500 0.093750 0.000000
0.414375 0.093750 0.000000
0.446250 0.093750 0.000000
0.478125 0.093750 0.000000
0.510000 0.093750 0.000000
0.541875 0.093750 0.000000
0.573750 0.093750 0.000000
0.605625 0.093750 0.000000
0.637500 0.093750 0.000000
0.669375 0.093750 0.000000
0.701250 0.093750 0.000000
0.733125 0.093750 0.000000
0.765000 0.093750 0.000000
0.796875 0.093750 0.000000
0.828750 0.093750 0.000000
0.860625 0.093750 0.000000
0.892500 0.093750 0.000000
0.924375 0.093750 0.000000
0.956250 0.093750 0.000000
0.988125 0.093750 0.000000
1.000000 0.093750 0.000000
0.000000 0.125000 0.000000
0.031875 0.125000 0.000000
0.063750 0.125000 0.000000
0.095625 0.125000 0.000000
0.127500 0.125000 0.000000
0.159375 0.125000 0.000000
0.191250 0.125000 0.000000
0.223125 0.125000 0.000000
0.255000 0.125000 0.000000
0.286875 0.125000 0.000000
0.318750 0.125000 0.000000
0.350625 0.125000 0.000000
0.382500 0.125000 0.000000
0.414375 0.125000 0.000000
0.446250 0.125000 0.000000
0.478125 0.125000 0.000000
0.510000 0.125000 0.000000
0.541875 0.125000 0.000000
0.573750 0.125000 0.000000
0.605625 0.125000 0.000000
0.637500 0.125000 0.000000
0.669375 0.125000 0.000000
0.701250 0.125000 0.000000
0.733125 0.125000 0.000000
0.765000 0.125000 0.000000
0.796875 0.125000 0.000000
0.828750 0.125000 0.000000
0.860625 0.125000 0.000000
0.892500 0.125000 0.000000
0.924375 0.125000 0.000000
0.956250 0.125000 0.000000
0.988125 0.125000 0.000000
1.000000 0.125000 0.000000
0.000000 0.156250 0.000000
0.031875 0.156250 0.000000
0.063750 0.156250 0.000000
0.095625 0.156250 0.000000
0.127500 0.156250 0.000000
0.159375 0.156250 0.000000
0.191250 0.156250 0.000000
0.223125 0.156250 0.000000
0.255000 0.156250 0.000000
0.286875 0.156250 0.000000
0.318750 0.156250 0.000000
0.350625 0.156250 0.000000
0.382500 0.156250 0.000000
0.414375 0.156250 0.000000
0.446250 0.156250 0.000000
0.478125 0.156250 0.000000
0.510000 0.156250 0.000000
0.541875 0.156250 0.000000
0.573750 0.156250 0.000000
0.605625 0.156250 0.000000
0.637500 0.156250 0.000000
0.669375 0.156250 0.000000
0.701250 0.156250 0.000000
0.733125 0.156250 0.000000
0.765000 0.156250 0.000000
0.796875 0.156250 0.000000
0.828750 0.156250 0.000000
0.860625 0.156250 0.000000
0.892500 0.156250 0.000000
0.924375 0.156250 0.000000
0.956250 0.156250 0.000000
0.988125 0.156250 0.000000
1.000000 0.156250 0.000000
0.000000 0.187500 0.000000
0.031875 0.187500 0.000000
0.063750 0.187500 0.000000
0.095625 0.187500 0.000000
0.127500 0.187500 0.000000
0.159375 0.187500 0.000000
0.191250 0.187500 0.000000
0.223125 0.187500 0.000000
0.255000 0.187500 0.000000
0.286875 0.187500 0.000000
0.318750 0.187500 0.000000
0.350625 0.187500 0.000000
0.382500 0.187500 0.000000
0.414375 0.187500 0.000000
0.446250 0.187500 0.000000
0.478125 0.187500 0.000000
0.510000 0.187500 0.000000
0.541875 0.187500 0.000000
0.573750 0.187500 0.000000
0.605625 0.187500 0.000000
0.637500 0.187500 0.000000
0.669375 0.187500 0.000000
0.701250 0.187500 0.000000
0.733125 0.187500 0.000000
0.765000 0.187500 0.000000
0.796875 0.187500 0.000000
0.828750 0.187500 0.000000
0.860625 0.187500 0.000000
0.892500 0.187500 0.000000
0.924375 0.187500 0.000000
0.956250 0.187500 0.000000
0.988125 0.187500 0.000000
1.000000 0.187500 0.000000
0.000000 0.218750 0.000000
0.031875 0.218750 0.000000
0.063750 0.218750 0.000000
0.095625 0.218750 0.000000
0.127500 0.218750 0.000000
0.159375 0.218750 0.000000
0.191250 0.218750 0.000000
0.223125 0.218750 0.000000
0.255000 0.218750 0.000000
0.286875 0.218750 0.000000
0.318750 0.218750 0.000000
0.350625 0.218750 0.000000
0.382500 0.218750 0.000000
0.414375 0.218750 0.000000
0.446250 0.218750 0.000000
0.478125 0.218750 0.000000
0.510000 0.218750 0.000000
0.541875 0.218750 0.000000
0.573750 0.218750 0.000000
0.605625 0.218750 0.000000
0.637500 0.218750 0.000000
0.669375 0.218750 0.000000
0.701250 0.218750 0.000000
0.733125 0.218750 0.000000
0.765000 0.218750 0.000000
0.796875 0.218750 0.000000
0.828750 0.218750 0.000000
0.860625 0.218750 0.000000
0.892500 0.218750 0.000000
0.924375 0.218750 0.000000
0.956250 0.218750 0.000000
0.988125 0.218750 0.000000
1.000000 0.218750 0.000000
0.000000 0.250000 0.000000
0.031875 0.250000 0.000000
0.063750 0.250000 0.000000
0.095625 0.250000 0.000000
0.127500 0.250000 0.000000
0.159375 0.250000 0.000000
0.191250 0.250000 0.000000
0.223125 0.250000 0.000000
0.255000 0.250000 0.000000
0.286875 0.250000 0.000000
0.318750 0.250000 0.000000
0.350625 0.250000 0.000000
0.382500 0.250000 0.000000
0.414375 0.250000 0.000000
0.446250 0.250000 0.000000
0.478125 0.250000 0.000000
0.510000 0.250000 0.000000
0.541875 0.250000 0.000000
0.573750 0.250000 0.000000
0.605625 0.250000 0.000000
0.637500 0.250000 0.000000
0.669375 0.250000 0.000000
0.701250 0.250000 0.000000
0.733125 0.250000 0.000000
0.765000 0.250000 0.000000
0.796875 0.250000 0.000000
0.828750 0.250000 0.000000
0.860625 0.250000 0.000000
0.892500 0.250000 0.000000
0.924375 0.250000 0.000000
0.956250 0.250000 0.000000
0.988125 0.250000 0.000000
1.000000 0.250000 0.000000
0.000000 0.281250 0.000000
0.031875 0.281250 0.000000
0.063750 0.281250 0.000000
0.095625 0.281250 0.000000
0.127500 0.281250 0.000000
0.159375 0.281250 0.000000
0.191250 0.281250 0.000000
0.223125 0.281250 0.000000
0.255000 0.281250 0.000000
0.286875 0.281250 0.000000
0.318750 0.281250 0.000000
0.350625 0.281250 0.000000
0.382500 0.281250 0.000000
0.414375 0.281250 0.000000
0.446250 0.281250 0.000000
0.478125 0.281250 0.000000
0.510000 0.281250 0.000000
0.541875 0.281250 0.000000
0.573750 0.281250 0.000000
0.605625 0.281250 0.000000
0.637500 0.281250 0.000000
0.669375 0.281250 0.000000
0.701250 0.281250 0.000000
0.733125 0.281250 0.000000
0.765000 0.281250 0.000000
0.796875 0.281250 0.000000
0.828750 0.281250 0.000000
0.860625 0.281250 0.000000
0.892500 0.281250 0.000000
0.924375 0.281250 0.000000
0.956250 0.281250 0.000000
0.988125 0.281250 0.000000
1.000000 0.281250 0.000000
0.000000 0.312500 0.000000
0.031875 0.312500 0.000000
0.063750 0.312500 0.000000
0.095625 0.312500 0.000000
0.127500 0.312500 0.000000
0.159375 0.312500 0.000000
0.191250 0.312500 0.000000
0.223125 0.312500 0.000000
0.255000 0.312500 0.000000
0.286875 0.312500 0.000000
0.318750 0.312500 0.000000
0.350625 0.312500 0.000000
0.382500 0.312500 0.000000
0.414375 0.312500 0.000000
0.446250 0.312500 0.000000
0.478125 0.312500 0.000000
0.510000 0.312500 0.000000
0.541875 0.312500 0.000000
0.573750 0.312500 0.000000
0.605625 0.312500 0.000000
0.637500 0.312500 0.000000
0.669375 0.312500 0.000000
0.701250 0.312500 0.000000
0.733125 0.312500 0.000000
0.765000 0.312500 0.000000
0.796875 0.312500 0.000000
0.828750 0.312500 0.000000
0.860625 0.312500 0.000000
0.892500 0.312500 0.000000
0.924375 0.312500 0.000000
0.956250 0.312500 0.000000
0.988125 0.312500 0.000000
1.000000 0.312500 0.000000
0.000000 0.343750 0.000000
0.031875 0.343750 0.000000
0.063750 0.343750 0.000000
0.095625 0.343750 0.000000
0.127500 0.343750 0.000000
0.159375 0.343750 0.000000
0.191250 0.343750 0.000000
0.223125 0.343750 0.000000
0.255000 0.343750 0.000000
0.286875 0.343750 0.000000
0.318750 0.343750 0.000000
0.350625 0.343750 0.000000
0.382500 0.343750 0.000000
0.414375 0.343750 0.000000
0.446250 0.343750 0.000000
0.478125 0.343750 0.000000
0.510000 0.343750 0.000000
0.541875 0.343750 0.000000
0.573750 0.343750 0.000000
0.605625 0.343750 0.000000
0.637500 0.343750 0.000000
0.669375 0.343750 0.000000
0.701250 0.343750 0.000000
0.733125 0.343750 0.000000
0.765000 0.343750 0.000000
0.796875 0.343750 0.000000
0.828750 0.343750 0.000000
0.860625 0.343750 0.000000
0.892500 0.343750 0.000000
0.924375 0.343750 0.000000
0.956250 0.343750 0.000000
0.988125 0.343750 0.000000
1.000000 0.343750 0.000000
0.000000 0.375000 0.000000
0.031875 0.375000 0.000000
0.063750 0.375000 0.000000
0.095625 0.375000 0.000000
0.127500 0.375000 0.000000
0.159375 0.375000 0.000000
0.191250 0.375000 0.000000
0.223125 0.375000 0.000000
0.255000 0.375000 0.000000
0.286875 0.375000 0.000000
0.318750 0.375000 0.000000
0.350625 0.375000 0.000000
0.382500 0.375000 0.000000
0.414375 0.375000 0.000000
0.446250 0.375000 0.000000
0.478125 0.375000 0.000000
0.510000 0.375000 0.000000
0.541875 0.375000 0.000000
0.573750 0.375000 0.000000
0.605625 0.375000 0.000000
0.637500 0.375000 0.000000
0.669375 0.375000 0.000000
0.701250 0.375000 0.000000
0.733125 0.375000 0.000000
0.765000 0.375000 0.000000
0.796875 0.375000 0.000000
0.828750 0.375000 0.000000
0.860625 0.375000 0.000000
0.892500 0.375000 0.000000
0.924375 0.375000 0.000000
0.956250 0.375000 0.000000
0.988125 0.375000 0.000000
1.000000 0.375000 0.000000
0.000000 0.406250 0.000000
0.031875 0.406250 0.000000
0.063750 0.406250 0.000000
0.095625 0.406250 0.000000
0.127500 0.406250 0.000000
0.159375 0.406250 0.000000
0.191250 0.406250 0.000000
0.223125 0.406250 0.000000
0.255000 0.406250 0.000000
0.286875 0.406250 0.000000
0.318750 0.406250 0.000000
0.350625 0.406250 0.000000
0.382500 0.406250 0.000000
0.414375 0.406250 0.000000
0.446250 0.406250 0.000000
0.478125 0.406250 0.000000
0.510000 0.406250 0.000000
0.541875 0.406250 0.000000
0.573750 0.406250 0.000000
0.605625 0.406250 0.000000
0.637500 0.406250 0.000000
0.669375 0.406250 0.000000
0.701250 0.406250 0.000000
0.733125 0.406250 0.000000
0.765000 0.406250 0.000000
0.796875 0.406250 0.000000
0.828750 0.406250 0.000000
0.860625 0.406250 0.000000
0.892500 0.406250 0.000000
0.924375 0.406250 0.000000
0.956250 0.406250 0.000000
0.988125 0.406250 0.000000
1.000000 0.406250 0.000000
0.000000 0.437500 0.000000
0.031875 0.437500 0.000000
0.063750 0.437500 0.000000
0.095625 0.437500 0.000000
0.127500 0.437500 0.000000
0.159375 0.437500 0.000000
0.191250 0.437500 0.000000
0.223125 0.437500 0.000000
0.255000 0.437500 0.000000
0.286875 0.437500 0.000000
0.318750 0.437500 0.000000
0.350625 0.437500 0.000000
0.382500 0.437500 0.000000
0.414375 0.437500 0.000000
0.446250 0.437500 0.000000
0.478125 0.437500 0.000000
0.510000 0.437500 0.000000
0.541875 0.437500 0.000000
0.573750 0.437500 0.000000
0.605625 0.437500 0.000000
0.637500 0.437500 0.000000
0.669375 0.437500 0.000000
0.701250 0.437500 0.000000
0.733125 0.437500 0.000000
0.765000 0.437500 0.000000
0.796875 0.437500 0.000000
0.828750 0.437500 0.000000
0.860625 0.437500 0.000000
0.892500 0.437500 0.000000
0.924375 0.437500 0.000000
0.956250 0.437500 0.000000
0.988125 0.437500 0.000000
1.000000 0.437500 0.000000
0.000000 0.468750 0.000000
0.031875 0.468750 0.000000
0.063750 0.468750 0.000000
0.095625 0.468750 0.000000
0.127500 0.468750 0.000000
0.159375 0.468750 0.000000
0.191250 0.468750 0.000000
0.223125 0.468750 0.000000
0.255000 0.468750 0.000000
0.286875 0.468750 0.000000
0.318750 0.468750 0.000000
0.350625 0.468750 0.000000
0.382500 0.468750 0.000000
0.414375 0.468750 0.000000
0.446250 0.468750 0.000000
0.478125 0.468750 0.000000
0.510000 0.468750 0.000000
0.541875 0.468750 0.000000
0.573750 0.468750 0.000000
0.605625 0.468750 0.000000
0.637500 0.468750 0.000000
0.669375 0.468750 0.000000
0.701250 0.468750 0.000000
0.733125 0.468750 0.000000
0.765000 0.468750 0.000000
0.796875 0.468750 0.000000
0.828750 0.468750 0.000000
0.860625 0.468750 0.000000
0.892500 0.468750 0.000000
0.924375 0.468750 0.000000
0.956250 0.468750 0.000000
0.988125 0.468750 0.000000
1.000000 0.468750 0.000000
0.000000 0.500000 0.000000
0.031875 0.500000 0.000000
0.063750 0.500000 0.000000
0.095625 0.500000 0.000000
0.127500 0.500000 0.000000
0.159375 0.500000 0.000000
0.191250 0.500000 0.000000
0.223125 0.500000 0.000000
0.255000 0.500000 0.000000
0.286875 0.500000 0.000000
0.318750 0.500000 0.000000
0.350625 0.500000 0.000000
0.382500 0.500000 0.000000
0.414375 0.500000 0.000000
0.446250 0.500000 0.000000
0.478125 0.500000 0.000000
0.510000 0.500000 0.000000
0.541875 0.500000 0.000000
0.573750 0.500000 0.000000
0.605625 0.500000 0.000000
0.637500 0.500000 0.000000
0.669375 0.500000 0.000000
0.701250 0.500000 0.000000
0.733125 0.500000 0.000000
0.765000 0.500000 0.000000
0.796875 0.500000 0.000000
0.828750 0.500000 0.000000
0.860625 0.500000 0.000000
0.892500 0.500000 0.000000
0.924375 0.500000 0.000000
0.956250 0.500000 0.000000
0.988125 0.500000 0.000000
1.000000 0.500000 0.000000
0.000000 0.531250 0.000000
0.031875 0.531250 0.000000
0.063750 0.531250 0.000000
0.095625 0.531250 0.000000
0.127500 0.531250 0.000000
0.159375 0.531250 0.000000
0.191250 0.531250 0.000000
0.223125 0.531250 0.000000
0.255000 0.531250 0.000000
0.286875 0.531250 0.000000
0.318750 0.531250 0.000000
0.350625 0.531250 0.000000
0.382500 0.531250 0.000000
0.414375 0.531250 0.000000
0.446250 0.531250 0.000000
0.478125 0.531250 0.000000
0.510000 0.531250 0.000000
0.541875 0.531250 0.000000
0.573750 0.531250 0.000000
0.605625 0.531250 0.000000
0.637500 0.531250 0.000000
0.669375 0.531250 0.000000
0.701250 0.531250 0.000000
0.733125 0.531250 0.000000
0.765000 0.531250 0.000000
0.796875 0.531250 0.000000
0.828750 0.531250 0.000000
0.860625 0.531250 0.000000
0.892500 0.531250 0.000000
0.924375 0.531250 0.000000
0.956250 0.531250 0.000000
0.988125 0.531250 0.000000
1.000000 0.531250 0.000000
0.000000 0.562500 0.000000
0.031875 0.562500 0.000000
0.063750 0.562500 0.000000
0.095625 0.562500 0.000000
0.127500 0.562500 0.000000
0.159375 0.562500 0.000000
0.191250 0.562500 0.000000
0.223125 0.562500 0.000000
0.255000 0.562500 0.000000
0.286875 0.562500 0.000000
0.318750 0.562500 0.000000
0.350625 0.562500 0.000000
0.382500 0.562500 0.000000
0.414375 0.562500 0.000000
0.446250 0.562500 0.000000
0.478125 0.562500 0.000000
0.510000 0.562500 0.000000
0.541875 0.562500 0.000000
0.573750 0.562500 0.000000
0.605625 0.562500 0.000000
0.637500 0.562500 0.000000
0.669375 0.562500 0.000000
0.701250 0.562500 0.000000
0.733125 0.562500 0.000000
0.765000 0.562500 0.000000
0.796875 0.562500 0.000000
0.828750 0.562500 0.000000
0.860625 0.562500 0.000000
0.892500 0.562500 0.000000
0.924375 0.562500 0.000000
0.956250 0.562500 0.000000
0.988125 0.562500 0.000000
1.000000 0.562500 0.000000
0.000000 0.593750 0.000000
0.031875 0.593750 0.000000
0.063750 0.593750 0.000000
0.095625 0.593750 0.000000
0.127500 0.593750 0.000000
0.159375 0.593750 0.000000
0.191250 0.593750 0.000000
0.223125 0.593750 0.000000
0.255000 0.593750 0.000000
0.286875 0.593750 0.000000
0.318750 0.593750 0.000000
0.350625 0.593750 0.000000
0.382500 0.593750 0.000000
0.414375 0.593750 0.000000
0.446250 0.593750 0.000000
0.478125 0.593750 0.000000
0.510000 0.593750 0.000000
0.541875 0.593750 0.000000
0.573750 0.593750 0.000000
0.605625 0.593750 0.000000
0.637500 0.593750 0.000000
0.669375 0.593750 0.000000
0.701250 0.593750 0.000000
0.733125 0.593750 0.000000
0.765000 0.593750 0.000000
0.796875 0.593750 0.000000
0.828750 0.593750 0.000000
0.860625 0.593750 0.000000
0.892500 0.593750 0.000000
0.924375 0.593750 0.000000
0.956250 0.593750 0.000000
0.988125 0.593750 0.000000
1.000000 0.593750 0.000000
0.000000 0.625000 0.000000
0.031875 0.625000 0.000000
0.063750 0.625000 0.000000
0.095625 0.625000 0.000000
0.127500 0.625000 0.000000
0.159375 0.625000 0.000000
0.191250 0.625000 0.000000
0.223125 0.625000 0.000000
0.255000 0.625000 0.000000
0.286875 0.625000 0.000000
0.318750 0.625000 0.000000
0.350625 0.625000 0.000000
0.382500 0.625000 0.000000
0.414375 0.625000 0.000000
0.446250 0.625000 0.000000
0.478125 0.625000 0.000000
0.510000 0.625000 0.000000
0.541875 0.625000 0.000000
0.573750 0.625000 0.000000
0.605625 0.625000 0.000000
0.637500 0.625000 0.000000
0.669375 0.625000 0.000000
0.701250 0.625000 0.000000
0.733125 0.625000 0.000000
0.765000 0.625000 0.000000
0.796875 0.625000 0.000000
0.828750 0.625000 0.000000
0.860625 0.625000 0.000000
0.892500 0.625000 0.000000
0.924375 0.625000 0.000000
0.956250 0.625000 0.000000
0.988125 0.625000 0.000000
1.000000 0.625000 0.000000
0.000000 0.656250 0.000000
0.031875 0.656250 0.000000
0.063750 0.656250 0.000000
0.095625 0.656250 0.000000
0.127500 0.656250 0.000000
0.159375 0.656250 0.000000
0.191250 0.656250 0.000000
0.223125 0.656250 0.000000
0.255000 0.656250 0.000000
0.286875 0.656250 0.000000
0.318750 0.656250 0.000000
0.350625 0.656250 0.000000
0.382500 0.656250 0.000000
0.414375 0.656250 0.000000
0.446250 0.656250 0.000000
0.478125 0.656250 0.000000
0.510000 0.656250 0.000000
0.541875 0.656250 0.000000
0.573750 0.656250 0.000000
0.605625 0.656250 0.000000
0.637500 0.656250 0.000000
0.669375 0.656250 0.000000
0.701250 0.656250 0.000000
0.733125 0.656250 0.000000
0.765000 0.656250 0.000000
0.796875 0.656250 0.000000
0.828750 0.656250 0.000000
0.860625 0.656250 0.000000
0.892500 0.656250 0.000000
0.924375 0.656250 0.000000
0.956250 0.656250 0.000000
0.988125 0.656250 0.000000
1.000000 0.656250 0.000000
0.000000 0.687500 0.000000
0.031875 0.687500 0.000000
0.063750 0.687500 0.000000
0.095625 0.687500 0.000000
0.127500 0.687500 0.000000
0.159375 0.687500 0.000000
0.191250 0.687500 0.000000
0.223125 0.687500 0.000000
0.255000 0.687500 0.000000
0.286875 0.687500 0.000000
0.318750 0.687500 0.000000
0.350625 0.687500 0.000000
0.382500 0.687500 0.000000
0.414375 0.687500 0.000000
0.446250 0.687500 0.000000
0.478125 0.687500 0.000000
0.510000 0.687500 0.000000
0.541875 0.687500 0.000000
0.573750 0.687500 0.000000
0.605625 0.687500 0.000000
0.637500 0.687500 0.000000
0.669375 0.687500 0.000000
0.701250 0.687500 0.000000
0.733125 0.687500 0.000000
0.765000 0.687500 0.000000
0.796875 0.687500 0.000000
0.828750 0.687500 0.000000
0.860625 0.687500 0.000000
0.892500 0.687500 0.000000
0.924375 0.687500 0.000000
0.956250 0.687500 0.000000
0.988125 0.687500 0.000000
1.000000 0.687500 0.000000
0.000000 0.718750 0.000000
0.031875 0.718750 0.000000
0.063750 0.718750 0.000000
0.095625 0.718750 0.000000
0.127500 0.718750 0.000000
0.159375 0.718750 0.000000
0.191250 0.718750 0.000000
0.223125 0.718750 0.000000
0.255000 0.718750 0.000000
0.286875 0.718750 0.000000
0.318750 0.718750 0.000000
0.350625 0.718750 0.000000
0.382500 0.718750 0.000000
0.414375 0.718750 0.000000
0.446250 0.718750 0.000000
0.478125 0.718750 0.000000
0.510000 0.718750 0.000000
0.541875 0.718750 0.000000
0.573750 0.718750 0.000000
0.605625 0.718750 0.000000
0.637500 0.718750 0.000000
0.669375 0.718750 0.000000
0.701250 0.718750 0.000000
0.733125 0.718750 0.000000
0.765000 0.718750 0.000000
0.796875 0.718750 0.000000
0.828750 0.718750 0.000000
0.860625 0.718750 0.000000
0.892500 0.718750 0.000000
0.924375 0.718750 0.000000
0.956250 0.718750 0.000000
0.988125 0.718750 0.000000
1.000000 0.718750 0.000000
0.000000 0.750000 0.000000
0.031875 0.750000 0.000000
0.063750 0.750000 0.000000
0.095625 0.750000 0.000000
0.127500 0.750000 0.000000
0.159375 0.750000 0.000000
0.191250 0.750000 0.000000
0.223125 0.750000 0.000000
0.255000 0.750000 0.000000
0.286875 0.750000 0.000000
0.318750 0.750000 0.000000
0.350625 0.750000 0.000000
0.382500 0.750000 0.000000
0.414375 0.750000 0.000000
0.446250 0.750000 0.000000
0.478125 0.750000 0.000000
0.510000 0.750000 0.000000
0.541875 0.750000 0.000000
0.573750 0.750000 0.000000
0.605625 0.750000 0.000000
0.637500 0.750000 0.000000
0.669375 0.750000 0.000000
0.701250 0.750000 0.000000
0.733125 0.750000 0.000000
0.765000 0.750000 0.000000
0.796875 0.750000 0.000000
0.828750 0.750000 0.000000
0.860625 0.750000 0.000000
0.892500 0.750000 0.000000
0.924375 0.750000 0.000000
0.956250 0.750000 0.000000
0.988125 0.750000 0.000000
1.000000 0.750000 0.000000
0.000000 0.781250 0.000000
0.031875 0.781250 0.000000
0.063750 0.781250 0.000000
0.095625 0.781250 0.000000
0.127500 0.781250 0.000000
0.159375 0.781250 0.000000
0.191250 0.781250 0.000000
0.223125 0.781250 0.000000
0.255000 0.781250 0.000000
0.286875 0.781250 0.000000
0.318750 0.781250 0.000000
0.350625 0.781250 0.000000
0.382500 0.781250 0.000000
0.414375 0.781250 0.000000
0.446250 0.781250 0.000000
0.478125 0.781250 0.000000
0.510000 0.781250 0.000000
0.541875 0.781250 0.000000
0.573750 0.781250 0.000000
0.605625 0.781250 0.000000
0.637500 0.781250 0.000000
0.669375 0.781250 0.000000
0.701250 0.781250 0.000000
0.733125 0.781250 0.000000
0.765000 0.781250 0.000000
0.796875 0.781250 0.000000
0.828750 0.781250 0.000000
0.860625 0.781250 0.000000
0.892500 0.781250 0.000000
0.924375 0.781250 0.000000
0.956250 0.781250 0.000000
0.988125 0.781250 0.000000
1.000000 0.781250 0.000000
0.000000 0.812500 0.000000
0.031875 0.812500 0.000000
0.063750 0.812500 0.000000
0.095625 0.812500 0.000000
0.127500 0.812500 0.000000
0.159375 0.812500 0.000000
0.191250 0.812500 0.000000
0.223125 0.812500 0.000000
0.255000 0.812500 0.000000
0.286875 0.812500 0.000000
0.318750 0.812500 0.000000
0.350625 0.812500 0.000000
0.382500 0.812500 0.000000
0.414375 0.812500 0.000000
0.446250 0.812500 0.000000
0.478125 0.812500 0.000000
0.510000 0.812500 0.000000
0.541875 0.812500 0.000000
0.573750 0.812500 0.000000
0.605625 0.812500 0.000000
0.637500 0.812500 0.000000
0.669375 0.812500 0.000000
0.701250 0.812500 0.000000
