01_Film_Emulation/FilmConvert/FilmConvert_Nitrate_HDR.cube
# FilmConvert_Nitrate HDR
# HDR optimized FilmConvert_Nitrate for luxury real estate
# Format: 3D Cube LUT
TITLE "FilmConvert_Nitrate_HDR"
LUT_3D_SIZE 5
DOMAIN_MIN 0.0 0.0 0.0
DOMAIN_MAX 1.0 1.0 1.0
0.000000 0.000000 0.000000
0.255000 0.000000 0.000000
0.510000 0.000000 0.000000
0.765000 0.000000 0.000000
1.000000 0.000000 0.000000
0.000000 0.250000 0.000000
0.255000 0.250000 0.000000
0.510000 0.250000 0.000000
0.765000 0.250000 0.000000
1.000000 0.250000 0.000000
0.000000 0.500000 0.000000
0.255000 0.500000 0.000000
0.510000 0.500000 0.000000
0.765000 0.500000 0.000000
1.000000 0.500000 0.000000
0.000000 0.750000 0.000000
0.255000 0.750000 0.000000
0.510000 0.750000 0.000000
0.765000 0.750000 0.000000
1.000000 0.750000 0.000000
0.000000 1.000000 0.000000
0.255000 1.000000 0.000000
0.510000 1.000000 0.000000
0.765000 1.000000 0.000000
1.000000 1.000000 0.000000
0.000000 0.000000 0.245000
0.255000 0.000000 0.245000
0.510000 0.000000 0.245000
0.765000 0.000000 0.245000
1.000000 0.000000 0.245000
0.000000 0.250000 0.245000
0.255000 0.250000 0.245000
0.510000 0.250000 0.245000
0.765000 0.250000 0.245000
1.000000 0.250000 0.245000
0.000000 0.500000 0.245000
0.255000 0.500000 0.245000
0.510000 0.500000 0.245000
0.765000 0.500000 0.245000
1.000000 0.500000 0.245000
0.000000 0.750000 0.245000
0.255000 0.750000 0.245000
0.510000 0.750000 0.245000
0.765000 0.750000 0.245000
1.000000 0.750000 0.245000
0.000000 1.000000 0.245000
0.255000 1.000000 0.245000
0.510000 1.000000 0.245000
0.765000 1.000000 0.245000
1.000000 1.000000 0.245000
0.000000 0.000000 0.490000
0.255000 0.000000 0.490000
0.510000 0.000000 0.490000
0.765000 0.000000 0.490000
1.000000 0.000000 0.490000
0.000000 0.250000 0.490000
0.255000 0.250000 0.490000
0.510000 0.250000 0.490000
0.765000 0.250000 0.490000
1.000000 0.250000 0.490000
0.000000 0.500000 0.490000
0.255000 0.500000 0.490000
0.510000 0.500000 0.490000
0.765000 0.500000 0.490000
1.000000 0.500000 0.490000
0.000000 0.750000 0.490000
0.255000 0.750000 0.490000
0.510000 0.750000 0.490000
0.765000 0.750000 0.490000
1.000000 0.750000 0.490000
0.000000 1.000000 0.490000
0.255000 1.000000 0.490000
0.510000 1.000000 0.490000
0.765000 1.000000 0.490000
1.000000 1.000000 0.490000
0.000000 0.000000 0.735000
0.255000 0.000000 0.735000
0.510000 0.000000 0.735000
0.765000 0.000000 0.735000
1.000000 0.000000 0.735000
0.000000 0.250000 0.735000
0.255000 0.250000 0.735000
0.510000 0.250000 0.735000
0.765000 0.250000 0.735000
1.000000 0.250000 0.735000
0.000000 0.500000 0.735000
0.255000 0.500000 0.735000
0.510000 0.500000 0.735000
0.765000 0.500000 0.735000
1.000000 0.500000 0.735000
0.000000 0.750000 0.735000
0.255000 0.750000 0.735000
0.510000 0.750000 0.735000
0.765000 0.750000 0.735000
1.000000 0.750000 0.735000
0.000000 1.000000 0.735000
0.255000 1.000000 0.735000
0.510000 1.000000 0.735000
0.765000 1.000000 0.735000
1.000000 1.000000 0.735000
0.000000 0.000000 0.980000
0.255000 0.000000 0.980000
0.510000 0.000000 0.980000
0.765000 0.000000 0.980000
1.000000 0.000000 0.980000
0.000000 0.250000 0.980000
0.255000 0.250000 0.980000
0.510000 0.250000 0.980000
0.765000 0.250000 0.980000
1.000000 0.250000 0.980000
0.000000 0.500000 0.980000
0.255000 0.500000 0.980000
0.510000 0.500000 0.980000
0.765000 0.500000 0.980000
1.000000 0.500000 0.980000
0.000000 0.750000 0.980000
0.255000 0.750000 0.980000
0.510000 0.750000 0.980000
0.765000 0.750000 0.980000
1.000000 0.750000 0.980000
0.000000 1.000000 0.980000
0.255000 1.000000 0.980000
0.510000 1.000000 0.980000
0.765000 1.000000 0.980000
1.000000 1.000000 0.980000
